; generated by PrusaSlicer 2.4.2 on 2023-06-09 at 22:00:40 UTC

; 

; external perimeters extrusion width = 0.45mm
; perimeters extrusion width = 0.45mm
; infill extrusion width = 0.45mm
; solid infill extrusion width = 0.45mm
; top infill extrusion width = 0.40mm
; support material extrusion width = 0.35mm
; first layer extrusion width = 0.42mm

; external perimeters extrusion width = 0.45mm
; perimeters extrusion width = 0.45mm
; infill extrusion width = 0.45mm
; solid infill extrusion width = 0.45mm
; top infill extrusion width = 0.40mm
; support material extrusion width = 0.35mm
; first layer extrusion width = 0.42mm

; external perimeters extrusion width = 0.45mm
; perimeters extrusion width = 0.45mm
; infill extrusion width = 0.45mm
; solid infill extrusion width = 0.45mm
; top infill extrusion width = 0.40mm
; support material extrusion width = 0.35mm
; first layer extrusion width = 0.42mm

; external perimeters extrusion width = 0.45mm
; perimeters extrusion width = 0.45mm
; infill extrusion width = 0.45mm
; solid infill extrusion width = 0.45mm
; top infill extrusion width = 0.40mm
; support material extrusion width = 0.35mm
; first layer extrusion width = 0.42mm

M73 P0 R72
M73 Q0 S72
M107
;TYPE:Custom
; M862.3 P "MK3S" ; printer model check
M862.1 P0.4 ; nozzle diameter check
M115 U3.9.0 ; tell printer latest fw version
G90 ; use absolute coordinates
M83 ; extruder relative mode
M104 S215 ; set extruder temp
M140 S60 ; set bed temp
M190 S60 ; wait for bed temp
M109 S215 ; wait for extruder temp
G28 W ; home all without mesh bed level
G80 ; mesh bed leveling
G1 Y-3.0 F1000.0 ; go outside print area
G92 E0.0
G1 X60.0 E9.0 F1000.0 ; intro line
G1 X100.0 E12.5 F1000.0 ; intro line
G92 E0.0
M221 S95
G21 ; set units to millimeters
G90 ; use absolute coordinates
M83 ; use relative distances for extrusion
M900 K0.06 ; Filament gcode LA 1.5
M900 K30 ; Filament gcode LA 1.0
M107
;LAYER_CHANGE
;Z:0.2
;HEIGHT:0.2
;BEFORE_LAYER_CHANGE
G92 E0.0
;0.2


M73 P0 R71
G1 E-.8 F2100
G1 Z.6 F720
;AFTER_LAYER_CHANGE
;0.2
G1 X104.075 Y81.425 F10800
G1 Z.2 F720
G1 E.8 F2100
M204 S800
;TYPE:Skirt/Brim
;WIDTH:0.42
G1 F1200
G1 X105.12 Y80.548 E.04278
G1 X106.06 Y80.355 E.03008
G1 X143.94 Y80.355 E1.18769
G1 X145.247 Y80.746 E.04278
G1 X146.123 Y81.792 E.04278
G1 X146.317 Y82.732 E.03008
G1 X146.317 Y127.268 E1.39642
G1 X145.925 Y128.575 E.04278
G1 X144.88 Y129.452 E.04278
G1 X143.94 Y129.645 E.03008
G1 X106.06 Y129.645 E1.18769
G1 X104.753 Y129.254 E.04278
M73 Q0 S71
G1 X103.877 Y128.208 E.04278
G1 X103.683 Y127.268 E.03008
G1 X103.683 Y82.732 E1.39642
G1 X104.057 Y81.482 E.0409
M204 S1000
; printing object t-nut.stl id:1 copy 0
;WIPE_START
G1 F8640
G1 X105.12 Y80.548 E-.32671
G1 X106.06 Y80.355 E-.22155
G1 X106.977 Y80.355 E-.21174
;WIPE_END
G1 E-.04 F2100
G1 Z.8 F720
G1 X135.964 Y92.733 F10800
G1 Z.2 F720
G1 E.8 F2100
M204 S800
;TYPE:Support material
G1 F1200
G1 X136.878 Y94.155 E.053
G1 X136.878 Y95.845 E.053
G1 X135.964 Y97.267 E.053
G1 X134.427 Y97.969 E.053
G1 X132.754 Y97.729 E.053
G1 X131.476 Y96.622 E.053
G1 X131 Y95 E.053
G1 X131.476 Y93.378 E.053
G1 X132.754 Y92.271 E.053
G1 X134.427 Y92.031 E.053
G1 X135.913 Y92.709 E.05122
M204 S1000
G1 X136.514 Y96.098 F10800
M204 S800
G1 F1200
G1 X136.514 Y94.216 E.05903
G1 X136.095 Y93.564 E.0243
G1 X136.095 Y96.436 E.09007
G1 X135.733 Y97 E.021
G1 X135.676 Y97.026 E.00196
G1 X135.676 Y92.974 E.12703
G1 X135.257 Y92.783 E.01444
G1 X135.257 Y97.217 E.13903
G1 X134.838 Y97.408 E.01444
G1 X134.838 Y92.592 E.15103
G1 X134.419 Y92.4 E.01444
G1 X134.419 Y97.6 E.16303
G1 X134.377 Y97.619 E.00146
G1 X134 Y97.565 E.01193
G1 X134 Y92.435 E.16085
G1 X133.581 Y92.495 E.01327
G1 X133.581 Y97.505 E.15707
G1 X133.162 Y97.444 E.01327
G1 X133.162 Y92.556 E.15329
G1 X132.901 Y92.593 E.00828
G1 X132.743 Y92.73 E.00654
G1 X132.743 Y97.27 E.14236
G1 X132.324 Y96.907 E.01738
G1 X132.324 Y93.093 E.1196
G1 X131.905 Y93.456 E.01738
G1 X131.905 Y96.544 E.09683
G1 X131.774 Y96.431 E.00544
G1 X131.486 Y95.45 E.03204
G1 X131.486 Y93.948 E.04711
M204 S1000
;WIPE_START
G1 F8640
G1 X131.486 Y95.45 E-.34695
G1 X131.774 Y96.431 E-.23593
G1 X131.905 Y96.544 E-.04006
G1 X131.905 Y95.951 E-.13706
;WIPE_END
G1 E-.04 F2100
G1 Z.8 F720
G1 X143.94 Y107.268 F10800
G1 Z.2 F720
G1 E.8 F2100
M204 S800
G1 F1200
G1 X124.06 Y107.268 E.62331
G1 X124.06 Y82.732 E.76933
G1 X143.94 Y82.732 E.62331
G1 X143.94 Y107.212 E.76756
M204 S1000
;WIPE_START
G1 F8640
G1 X143.94 Y103.92 E-.76
;WIPE_END
G1 E-.04 F2100
G1 Z.8 F720
G1 X129.801 Y87.52 F10800
G1 Z.2 F720
G1 E.8 F2100
M204 S800
G1 F1200
G1 X129.52 Y87.801 E.01247
G1 X129.52 Y102.199 E.45143
G1 X129.801 Y102.48 E.01247
G1 X138.199 Y102.48 E.2633
G1 X138.48 Y102.199 E.01247
G1 X138.48 Y87.801 E.45143
G1 X138.199 Y87.52 E.01247
G1 X129.858 Y87.52 E.26153
M204 S1000
;WIPE_START
G1 F8640
G1 X133.149 Y87.52 E-.76
;WIPE_END
G1 E-.04 F2100
G1 Z.8 F720
G1 X143.217 Y107.099 F10800
G1 Z.2 F720
G1 E.8 F2100
M204 S800
G1 F1200
G1 X143.217 Y83.071 E.75337
G1 X142.799 Y83.071 E.01314
G1 X142.799 Y106.929 E.74805
G1 X142.38 Y106.929 E.01314
G1 X142.38 Y83.071 E.74805
G1 X141.961 Y83.071 E.01314
G1 X141.961 Y106.929 E.74805
G1 X141.542 Y106.929 E.01314
G1 X141.542 Y83.071 E.74805
G1 X141.123 Y83.071 E.01314
G1 X141.123 Y106.929 E.74805
G1 X140.704 Y106.929 E.01314
G1 X140.704 Y83.071 E.74805
G1 X140.285 Y83.071 E.01314
G1 X140.285 Y106.929 E.74805
G1 X139.866 Y106.929 E.01314
G1 X139.866 Y83.071 E.74805
G1 X139.447 Y83.071 E.01314
G1 X139.447 Y106.929 E.74805
G1 X139.028 Y106.929 E.01314
G1 X139.028 Y83.071 E.74805
G1 X138.609 Y83.071 E.01314
M73 Q1 S71
G1 X138.609 Y87.45 E.1373
G1 X138.339 Y87.181 E.01194
M73 P1 R71
G1 X138.19 Y87.181 E.00469
G1 X138.19 Y83.071 E.12885
G1 X137.771 Y83.071 E.01314
G1 X137.771 Y87.181 E.12885
G1 X137.352 Y87.181 E.01314
G1 X137.352 Y83.071 E.12885
G1 X136.933 Y83.071 E.01314
G1 X136.933 Y87.181 E.12885
G1 X136.514 Y87.181 E.01314
G1 X136.514 Y83.071 E.12885
G1 X136.095 Y83.071 E.01314
G1 X136.095 Y87.181 E.12885
G1 X135.676 Y87.181 E.01314
G1 X135.676 Y83.071 E.12885
G1 X135.257 Y83.071 E.01314
G1 X135.257 Y87.181 E.12885
G1 X134.838 Y87.181 E.01314
G1 X134.838 Y83.071 E.12885
G1 X134.419 Y83.071 E.01314
G1 X134.419 Y87.181 E.12885
G1 X134 Y87.181 E.01314
G1 X134 Y83.071 E.12885
G1 X133.581 Y83.071 E.01314
G1 X133.581 Y87.181 E.12885
G1 X133.162 Y87.181 E.01314
G1 X133.162 Y83.071 E.12885
G1 X132.743 Y83.071 E.01314
G1 X132.743 Y87.181 E.12885
G1 X132.324 Y87.181 E.01314
G1 X132.324 Y83.071 E.12885
G1 X131.905 Y83.071 E.01314
G1 X131.905 Y87.181 E.12885
G1 X131.486 Y87.181 E.01314
G1 X131.486 Y83.071 E.12885
G1 X131.067 Y83.071 E.01314
G1 X131.067 Y87.181 E.12885
G1 X130.648 Y87.181 E.01314
G1 X130.648 Y83.071 E.12885
G1 X130.229 Y83.071 E.01314
G1 X130.229 Y87.181 E.12885
G1 X129.81 Y87.181 E.01314
G1 X129.81 Y83.071 E.12885
G1 X129.391 Y83.071 E.01314
G1 X129.391 Y87.45 E.1373
G1 X129.181 Y87.661 E.00934
G1 X129.181 Y102.339 E.46024
G1 X129.391 Y102.55 E.00934
G1 X129.391 Y106.929 E.1373
G1 X129.81 Y106.929 E.01314
G1 X129.81 Y102.819 E.12885
G1 X130.229 Y102.819 E.01314
G1 X130.229 Y106.929 E.12885
G1 X130.648 Y106.929 E.01314
G1 X130.648 Y102.819 E.12885
G1 X131.067 Y102.819 E.01314
G1 X131.067 Y106.929 E.12885
G1 X131.486 Y106.929 E.01314
G1 X131.486 Y102.819 E.12885
G1 X131.905 Y102.819 E.01314
G1 X131.905 Y106.929 E.12885
G1 X132.324 Y106.929 E.01314
G1 X132.324 Y102.819 E.12885
G1 X132.743 Y102.819 E.01314
G1 X132.743 Y106.929 E.12885
G1 X133.162 Y106.929 E.01314
G1 X133.162 Y102.819 E.12885
G1 X133.581 Y102.819 E.01314
G1 X133.581 Y106.929 E.12885
G1 X134 Y106.929 E.01314
G1 X134 Y102.819 E.12885
G1 X134.419 Y102.819 E.01314
G1 X134.419 Y106.929 E.12885
G1 X134.838 Y106.929 E.01314
G1 X134.838 Y102.819 E.12885
G1 X135.257 Y102.819 E.01314
G1 X135.257 Y106.929 E.12885
G1 X135.676 Y106.929 E.01314
G1 X135.676 Y102.819 E.12885
G1 X136.095 Y102.819 E.01314
G1 X136.095 Y106.929 E.12885
G1 X136.514 Y106.929 E.01314
G1 X136.514 Y102.819 E.12885
G1 X136.933 Y102.819 E.01314
G1 X136.933 Y106.929 E.12885
G1 X137.352 Y106.929 E.01314
G1 X137.352 Y102.819 E.12885
G1 X137.771 Y102.819 E.01314
G1 X137.771 Y106.929 E.12885
G1 X138.19 Y106.929 E.01314
G1 X138.19 Y102.819 E.12885
G1 X138.339 Y102.819 E.00469
G1 X138.609 Y102.55 E.01194
G1 X138.609 Y107.099 E.14262
M204 S1000
G1 X128.972 Y107.099 F10800
M204 S800
G1 F1200
G1 X128.972 Y83.071 E.75337
G1 X128.553 Y83.071 E.01314
G1 X128.553 Y106.929 E.74805
G1 X128.134 Y106.929 E.01314
G1 X128.134 Y83.071 E.74805
G1 X127.715 Y83.071 E.01314
G1 X127.715 Y106.929 E.74805
G1 X127.296 Y106.929 E.01314
G1 X127.296 Y83.071 E.74805
G1 X126.877 Y83.071 E.01314
G1 X126.877 Y106.929 E.74805
G1 X126.458 Y106.929 E.01314
M73 P1 R70
G1 X126.458 Y83.071 E.74805
G1 X126.039 Y83.071 E.01314
G1 X126.039 Y106.929 E.74805
G1 X125.62 Y106.929 E.01314
G1 X125.62 Y83.071 E.74805
G1 X125.201 Y83.071 E.01314
G1 X125.201 Y106.929 E.74805
G1 X124.783 Y106.929 E.01314
G1 X124.783 Y82.901 E.75337
M204 S1000
;WIPE_START
G1 F8640
G1 X124.783 Y86.193 E-.76
;WIPE_END
G1 E-.04 F2100
G1 Z.8 F720
G1 X132.368 Y91.428 F10800
G1 Z.2 F720
G1 E.8 F2100
M204 S800
;TYPE:External perimeter
G1 F1200
G1 X134.559 Y91.113 E.0694
G1 X136.573 Y92.034 E.06944
G1 X136.9 Y92.563 E.01951
G1 X137.14 Y93.016 E.01607
G1 X137.33 Y93.483 E.01582
G1 X137.568 Y93.965 E.01686
G1 X137.568 Y96.035 E.06491
G1 X137.33 Y96.517 E.01686
G1 X137.14 Y96.984 E.01582
G1 X136.9 Y97.437 E.01607
G1 X136.573 Y97.966 E.01951
G1 X134.559 Y98.887 E.06944
G1 X132.368 Y98.572 E.0694
G1 X131.531 Y97.842 E.03483
G1 X131.165 Y97.497 E.01577
G1 X130.749 Y97.061 E.0189
G1 X130.573 Y95.993 E.03394
G1 X130.281 Y95 E.03245
G1 X130.573 Y94.007 E.03245
G1 X130.749 Y92.939 E.03394
G1 X131.165 Y92.503 E.0189
G1 X131.531 Y92.158 E.01577
G1 X132.323 Y91.467 E.03294
M204 S1000
G1 X132.442 Y91.035 F10800
G1 X132.04 Y90.713
M204 S800
;TYPE:Perimeter
G1 F1200
G1 X131.161 Y91.481 E.03661
G1 X131.163 Y89.164 E.07263
G1 X136.836 Y89.164 E.17786
G1 X136.841 Y91.327 E.06781
G1 X134.671 Y90.335 E.0748
G1 X132.1 Y90.704 E.08146
M204 S1000
G1 X132.204 Y91.07 F10800
M204 S800
G1 F1200
G1 X131.278 Y91.879 E.03854
G1 X130.767 Y92.373 E.02228
G1 X130.783 Y92.013 E.01129
G1 X130.786 Y88.787 E.10114
G1 X137.213 Y88.787 E.2015
G1 X137.213 Y91.004 E.06952
G1 X137.234 Y92.386 E.04333
G1 X136.833 Y91.738 E.02389
G1 X134.615 Y90.724 E.07649
G1 X132.264 Y91.062 E.07449
M204 S1000
;WIPE_START
G1 F8640
G1 X131.278 Y91.879 E-.29552
G1 X130.767 Y92.373 E-.16411
G1 X130.783 Y92.013 E-.08317
G1 X130.784 Y91.072 E-.2172
;WIPE_END
G1 E-.04 F2100
G1 Z.8 F720
G1 X131.161 Y98.519 F10800
M73 Q1 S70
G1 Z.2 F720
G1 E.8 F2100
M204 S800
G1 F1200
G1 X132.04 Y99.287 E.03661
G1 X134.671 Y99.665 E.08334
G1 X136.838 Y98.674 E.07473
G1 X136.837 Y100.836 E.06778
G1 X131.163 Y100.836 E.17789
G1 X131.161 Y98.579 E.07075
M204 S1000
;WIPE_START
G1 F8640
G1 X132.04 Y99.287 E-.26067
G1 X134.181 Y99.595 E-.49933
;WIPE_END
G1 E-.04 F2100
G1 Z.8 F720
G1 X130.767 Y97.627 F10800
G1 Z.2 F720
G1 E.8 F2100
M204 S800
G1 F1200
G1 X131.278 Y98.121 E.02228
G1 X132.204 Y98.93 E.03854
G1 X134.615 Y99.276 E.07637
G1 X136.833 Y98.262 E.07649
G1 X137.23 Y97.62 E.02366
G1 X137.216 Y97.988 E.01156
G1 X137.213 Y101.213 E.1011
G1 X130.786 Y101.213 E.20151
G1 X130.77 Y97.687 E.11055
M204 S1000
;WIPE_START
G1 F8640
G1 X131.278 Y98.121 E-.15435
G1 X132.204 Y98.93 E-.2838
G1 X133.584 Y99.128 E-.32185
;WIPE_END
G1 E-.04 F2100
G1 Z.8 F720
G1 X130.41 Y101.59 F10800
G1 Z.2 F720
G1 E.8 F2100
M204 S800
;TYPE:External perimeter
G1 F1200
G1 X130.406 Y97.995 E.11271
G1 X130.384 Y97.483 E.01607
G1 X130.21 Y95.988 E.04721
G1 X130.21 Y94.012 E.06195
G1 X130.384 Y92.517 E.04721
G1 X130.406 Y92.005 E.01607
G1 X130.41 Y88.41 E.11271
G1 X137.59 Y88.41 E.22513
G1 X137.59 Y91.002 E.08126
G1 X137.613 Y92.514 E.04744
G1 X137.677 Y93.035 E.01643
G1 X137.78 Y93.524 E.01568
G1 X137.79 Y94.002 E.01498
G1 X137.78 Y96.478 E.07763
G1 X137.677 Y96.965 E.01563
G1 X137.613 Y97.483 E.01635
G1 X137.593 Y97.996 E.01609
G1 X137.59 Y101.59 E.11269
G1 X130.47 Y101.59 E.22326
M204 S1000
G1 X130.554 Y101.217 F10800
;WIPE_START
G1 F8640
G1 X130.411 Y98.299 E-.76
;WIPE_END
G1 E-.04 F2100
G1 Z.8 F720
G1 X136.172 Y99.103 F10800
G1 Z.2 F720
G1 E.8 F2100
M204 S800
;TYPE:Solid infill
;WIDTH:0.44583
G1 F1200
G1 X136.555 Y99.487 E.01816
G1 X136.555 Y100.056 E.01907
G1 X135.909 Y99.41 E.03059
G1 X135.518 Y99.589 E.0144
G1 X136.482 Y100.553 E.04567
G1 X135.912 Y100.553 E.01909
G1 X135.127 Y99.768 E.0372
G1 X134.736 Y99.947 E.0144
G1 X135.342 Y100.553 E.02873
G1 X134.772 Y100.553 E.01909
G1 X134.086 Y99.867 E.03251
G1 X133.421 Y99.771 E.02252
G1 X134.203 Y100.553 E.03704
G1 X133.633 Y100.553 E.01909
G1 X132.755 Y99.676 E.04157
G1 X132.09 Y99.58 E.02252
G1 X133.063 Y100.553 E.04611
G1 X132.493 Y100.553 E.01909
G1 X131.444 Y99.504 E.04969
G1 X131.445 Y100.075 E.01911
G1 X132.093 Y100.723 E.0307
M204 S1000
;WIPE_START
G1 F8640
G1 X131.445 Y100.075 E-.21159
G1 X131.444 Y99.504 E-.13171
G1 X132.493 Y100.553 E-.34245
G1 X132.815 Y100.553 E-.07424
;WIPE_END
G1 E-.04 F2100
G1 Z.8 F720
G1 X137.28 Y97.438 F10800
G1 Z.2 F720
G1 E.8 F2100
M204 S800
;TYPE:Gap fill
;WIDTH:0.292613
G1 F1200
G1 X137.333 Y97.271 E.00364
M204 S1000
M204 S800
;WIDTH:0.251754
G1 X137.385 Y97.103 E.00305
M204 S1000
M204 S800
;WIDTH:0.210895
G1 X137.388 Y97.095 E.00012
M204 S1000
M204 S800
;WIDTH:0.20826
G1 X137.431 Y96.927 E.00239
M204 S1000
M204 S800
;WIDTH:0.162525
G1 X137.433 Y96.922 E.00005
M204 S1000
M204 S800
;WIDTH:0.161397
G1 X137.481 Y96.764 E.00163
M204 S1000
M204 S800
;WIDTH:0.131975
G1 X137.529 Y96.607 E.00122
M204 S1000
M204 S800
;WIDTH:0.102552
G1 X137.55 Y96.548 E.00031
M204 S1000
;WIPE_START
G1 F8640
G1 X137.529 Y96.607 E-.01433
;WIPE_END
G1 E-.78567 F2100
G1 Z.8 F720
G1 X137.55 Y93.452 F10800
G1 Z.2 F720
G1 E.8 F2100
M204 S800
;WIDTH:0.102552
G1 F1200
G1 X137.529 Y93.393 E.00031
M204 S1000
M204 S800
;WIDTH:0.131975
G1 X137.481 Y93.236 E.00122
M204 S1000
M204 S800
;WIDTH:0.161398
G1 X137.433 Y93.078 E.00163
M204 S1000
M204 S800
;WIDTH:0.162526
G1 X137.431 Y93.073 E.00005
M204 S1000
M204 S800
;WIDTH:0.208262
G1 X137.388 Y92.905 E.00239
M204 S1000
M204 S800
;WIDTH:0.210897
G1 X137.385 Y92.897 E.00012
M204 S1000
M204 S800
;WIDTH:0.250681
G1 X137.334 Y92.733 E.00297
M204 S1000
M204 S800
;WIDTH:0.290466
G1 X137.282 Y92.569 E.00354
M204 S1000
;WIPE_START
G1 F8640
G1 X137.334 Y92.733 E-.0397
;WIPE_END
G1 E-.7603 F2100
G1 Z.8 F720
G1 X135.957 Y89.277 F10800
G1 Z.2 F720
G1 E.8 F2100
M204 S800
;TYPE:Solid infill
;WIDTH:0.42179
G1 F1200
G1 X136.553 Y89.874 E.02657
G1 X136.553 Y90.409 E.01688
G1 X135.591 Y89.447 E.04288
G1 X135.055 Y89.447 E.01688
G1 X136.441 Y90.833 E.06175
G1 X135.453 Y90.381 E.0342
G1 X134.519 Y89.447 E.04164
G1 X133.983 Y89.447 E.01688
G1 X134.596 Y90.06 E.0273
G1 X134.127 Y90.127 E.01491
G1 X133.447 Y89.447 E.0303
G1 X132.912 Y89.447 E.01688
G1 X133.659 Y90.194 E.0333
G1 X133.191 Y90.262 E.01491
G1 X132.376 Y89.447 E.0363
G1 X131.84 Y89.447 E.01688
G1 X132.722 Y90.329 E.0393
G1 X132.254 Y90.396 E.01491
G1 X131.445 Y89.588 E.03601
G1 X131.445 Y90.123 E.01686
G1 X131.837 Y90.515 E.01745
G1 X131.551 Y90.765 E.01196
G1 X131.275 Y90.489 E.01229
M204 S1000
; stop printing object t-nut.stl id:1 copy 0
; printing object t-nut.stl id:3 copy 0
;WIPE_START
G1 F8640
G1 X131.551 Y90.765 E-.09004
G1 X131.837 Y90.515 E-.08768
G1 X131.445 Y90.123 E-.12792
G1 X131.445 Y89.588 E-.12358
G1 X132.254 Y90.396 E-.26393
G1 X132.54 Y90.355 E-.06684
;WIPE_END
G1 E-.04 F2100
G1 Z.8 F720
G1 X117.964 Y92.733 F10800
G1 Z.2 F720
G1 E.8 F2100
M204 S800
;TYPE:Support material
;WIDTH:0.42
G1 F1200
G1 X118.878 Y94.155 E.053
G1 X118.878 Y95.845 E.053
G1 X117.964 Y97.267 E.053
G1 X116.427 Y97.969 E.053
G1 X114.754 Y97.729 E.053
G1 X113.476 Y96.622 E.053
G1 X113 Y95 E.053
G1 X113.476 Y93.378 E.053
G1 X114.754 Y92.271 E.053
G1 X116.427 Y92.031 E.053
G1 X117.913 Y92.709 E.05122
M204 S1000
G1 X118.514 Y96.098 F10800
M204 S800
G1 F1200
G1 X118.514 Y94.216 E.05903
G1 X118.095 Y93.564 E.0243
G1 X118.095 Y96.436 E.09007
G1 X117.733 Y97 E.021
G1 X117.676 Y97.026 E.00196
