; generated by PrusaSlicer 2.4.2 on 2023-06-09 at 23:51:31 UTC

; 

; external perimeters extrusion width = 0.45mm
; perimeters extrusion width = 0.45mm
; infill extrusion width = 0.45mm
; solid infill extrusion width = 0.45mm
; top infill extrusion width = 0.40mm
; support material extrusion width = 0.35mm
; first layer extrusion width = 0.42mm

M73 P0 R35
M73 Q0 S35
M107
;TYPE:Custom
; M862.3 P "MK3S" ; printer model check
M862.1 P0.4 ; nozzle diameter check
M115 U3.9.0 ; tell printer latest fw version
G90 ; use absolute coordinates
M83 ; extruder relative mode
M104 S215 ; set extruder temp
M140 S60 ; set bed temp
M190 S60 ; wait for bed temp
M109 S215 ; wait for extruder temp
G28 W ; home all without mesh bed level
G80 ; mesh bed leveling
G1 Y-3.0 F1000.0 ; go outside print area
G92 E0.0
G1 X60.0 E9.0 F1000.0 ; intro line
G1 X100.0 E12.5 F1000.0 ; intro line
G92 E0.0
M221 S95
G21 ; set units to millimeters
G90 ; use absolute coordinates
M83 ; use relative distances for extrusion
M900 K0.06 ; Filament gcode LA 1.5
M900 K30 ; Filament gcode LA 1.0
M107
;LAYER_CHANGE
;Z:0.2
;HEIGHT:0.2
;BEFORE_LAYER_CHANGE
G92 E0.0
;0.2


G1 E-.8 F2100
G1 Z.6 F720
;AFTER_LAYER_CHANGE
;0.2
G1 X112.699 Y88.986 F10800
G1 Z.2 F720
G1 E.8 F2100
M204 S800
;TYPE:Skirt/Brim
;WIDTH:0.42
G1 F1200
G1 X113.765 Y87.973 E.04612
G1 X115.06 Y87.649 E.04186
G1 X134.94 Y87.649 E.62331
G1 X136.357 Y88.042 E.04612
G1 X137.37 Y89.108 E.04612
G1 X137.694 Y90.403 E.04186
G1 X137.694 Y119.597 E.91535
G1 X137.301 Y121.014 E.04612
G1 X136.235 Y122.027 E.04612
G1 X134.94 Y122.351 E.04186
G1 X115.06 Y122.351 E.62331
G1 X113.643 Y121.958 E.04612
G1 X112.63 Y120.892 E.04612
G1 X112.306 Y119.597 E.04186
G1 X112.306 Y90.403 E.91535
G1 X112.683 Y89.044 E.04424
M204 S1000
G1 X113.057 Y89.156 F10800
M204 S800
G1 F1200
G1 X113.075 Y89.096 E.00195
G1 X114.12 Y88.22 E.04278
G1 X115.06 Y88.026 E.03008
G1 X134.94 Y88.026 E.62331
G1 X136.247 Y88.418 E.04278
G1 X137.123 Y89.463 E.04278
G1 X137.317 Y90.403 E.03008
G1 X137.317 Y119.597 E.91535
G1 X136.925 Y120.904 E.04278
G1 X135.88 Y121.78 E.04278
G1 X134.94 Y121.974 E.03008
G1 X115.06 Y121.974 E.62331
G1 X113.753 Y121.582 E.04278
G1 X112.877 Y120.537 E.04278
G1 X112.683 Y119.597 E.03008
G1 X112.683 Y90.403 E.91535
G1 X113.04 Y89.213 E.03895
M204 S1000
; printing object t-nut.stl id:0 copy 0
;WIPE_START
G1 F8640
G1 X113.075 Y89.096 E-.0282
G1 X114.12 Y88.22 E-.31505
G1 X115.06 Y88.026 E-.22155
G1 X115.906 Y88.026 E-.1952
;WIPE_END
G1 E-.04 F2100
G1 Z.8 F720
G1 X126.246 Y102.271 F10800
G1 Z.2 F720
G1 E.8 F2100
M204 S800
;TYPE:Support material
G1 F1200
G1 X127.524 Y103.378 E.053
G1 X128 Y105 E.053
G1 X127.524 Y106.622 E.053
G1 X126.246 Y107.729 E.053
G1 X124.573 Y107.969 E.053
G1 X123.036 Y107.267 E.053
G1 X122.122 Y105.845 E.053
G1 X122.122 Y104.155 E.053
G1 X123.036 Y102.733 E.053
G1 X124.573 Y102.031 E.053
G1 X126.19 Y102.263 E.05122
M204 S1000
G1 X127.514 Y106.052 F10800
M204 S800
G1 F1200
G1 X127.514 Y104.55 E.04711
G1 X127.226 Y103.569 E.03204
G1 X127.095 Y103.456 E.00544
G1 X127.095 Y106.544 E.09683
G1 X126.676 Y106.907 E.01738
G1 X126.676 Y103.093 E.1196
G1 X126.257 Y102.73 E.01738
G1 X126.257 Y107.27 E.14236
G1 X126.099 Y107.407 E.00654
G1 X125.838 Y107.444 E.00828
G1 X125.838 Y102.556 E.15329
M73 Q1 S35
G1 X125.419 Y102.495 E.01327
G1 X125.419 Y107.505 E.15707
G1 X125 Y107.565 E.01327
M73 P1 R35
G1 X125 Y102.435 E.16085
G1 X124.623 Y102.381 E.01193
G1 X124.581 Y102.4 E.00146
G1 X124.581 Y107.6 E.16303
G1 X124.162 Y107.408 E.01444
G1 X124.162 Y102.592 E.15103
G1 X123.743 Y102.783 E.01444
G1 X123.743 Y107.217 E.13903
G1 X123.324 Y107.026 E.01444
G1 X123.324 Y102.974 E.12703
G1 X123.267 Y103 E.00196
G1 X122.905 Y103.564 E.021
G1 X122.905 Y106.436 E.09007
G1 X122.486 Y105.784 E.0243
G1 X122.486 Y103.902 E.05903
M204 S1000
;WIPE_START
G1 F8640
G1 X122.486 Y105.784 E-.4347
G1 X122.905 Y106.436 E-.17894
G1 X122.905 Y105.802 E-.14636
;WIPE_END
G1 E-.04 F2100
G1 Z.8 F720
G1 X134.94 Y119.597 F10800
G1 Z.2 F720
G1 E.8 F2100
M204 S800
G1 F1200
G1 X115.06 Y119.597 E.62331
G1 X115.06 Y90.403 E.91535
G1 X134.94 Y90.403 E.62331
G1 X134.94 Y119.54 E.91358
M204 S1000
;WIPE_START
G1 F8640
G1 X134.94 Y116.249 E-.76
;WIPE_END
G1 E-.04 F2100
G1 Z.8 F720
G1 X120.751 Y94.52 F10800
G1 Z.2 F720
G1 E.8 F2100
M204 S800
G1 F1200
G1 X120.47 Y94.801 E.01247
G1 X120.47 Y115.199 E.63955
G1 X120.751 Y115.48 E.01247
G1 X129.249 Y115.48 E.26644
G1 X129.53 Y115.199 E.01247
G1 X129.53 Y94.801 E.63955
G1 X129.249 Y94.52 E.01247
G1 X120.808 Y94.52 E.26466
M204 S1000
;WIPE_START
G1 F8640
G1 X124.099 Y94.52 E-.76
;WIPE_END
G1 E-.04 F2100
G1 Z.8 F720
G1 X134.217 Y119.427 F10800
G1 Z.2 F720
G1 E.8 F2100
M204 S800
G1 F1200
G1 X134.217 Y90.742 E.89939
G1 X133.799 Y90.742 E.01314
G1 X133.799 Y119.258 E.89407
G1 X133.38 Y119.258 E.01314
G1 X133.38 Y90.742 E.89407
M73 P1 R34
G1 X132.961 Y90.742 E.01314
G1 X132.961 Y119.258 E.89407
G1 X132.542 Y119.258 E.01314
M73 Q1 S34
G1 X132.542 Y90.742 E.89407
G1 X132.123 Y90.742 E.01314
G1 X132.123 Y119.258 E.89407
G1 X131.704 Y119.258 E.01314
G1 X131.704 Y90.742 E.89407
G1 X131.285 Y90.742 E.01314
M73 P2 R34
M73 Q2 S34
G1 X131.285 Y119.258 E.89407
G1 X130.866 Y119.258 E.01314
G1 X130.866 Y90.742 E.89407
G1 X130.447 Y90.742 E.01314
G1 X130.447 Y119.258 E.89407
G1 X130.028 Y119.258 E.01314
G1 X130.028 Y90.742 E.89407
G1 X129.609 Y90.742 E.01314
G1 X129.609 Y94.4 E.11468
G1 X129.389 Y94.181 E.00973
G1 X129.19 Y94.181 E.00626
G1 X129.19 Y90.742 E.1078
G1 X128.771 Y90.742 E.01314
G1 X128.771 Y94.181 E.1078
G1 X128.352 Y94.181 E.01314
G1 X128.352 Y90.742 E.1078
G1 X127.933 Y90.742 E.01314
G1 X127.933 Y94.181 E.1078
G1 X127.514 Y94.181 E.01314
G1 X127.514 Y90.742 E.1078
G1 X127.095 Y90.742 E.01314
G1 X127.095 Y94.181 E.1078
G1 X126.676 Y94.181 E.01314
G1 X126.676 Y90.742 E.1078
G1 X126.257 Y90.742 E.01314
G1 X126.257 Y94.181 E.1078
G1 X125.838 Y94.181 E.01314
G1 X125.838 Y90.742 E.1078
G1 X125.419 Y90.742 E.01314
G1 X125.419 Y94.181 E.1078
G1 X125 Y94.181 E.01314
G1 X125 Y90.742 E.1078
G1 X124.581 Y90.742 E.01314
G1 X124.581 Y94.181 E.1078
G1 X124.162 Y94.181 E.01314
G1 X124.162 Y90.742 E.1078
G1 X123.743 Y90.742 E.01314
G1 X123.743 Y94.181 E.1078
G1 X123.324 Y94.181 E.01314
G1 X123.324 Y90.742 E.1078
G1 X122.905 Y90.742 E.01314
G1 X122.905 Y94.181 E.1078
G1 X122.486 Y94.181 E.01314
G1 X122.486 Y90.742 E.1078
G1 X122.067 Y90.742 E.01314
G1 X122.067 Y94.181 E.1078
G1 X121.648 Y94.181 E.01314
G1 X121.648 Y90.742 E.1078
G1 X121.229 Y90.742 E.01314
G1 X121.229 Y94.181 E.1078
G1 X120.81 Y94.181 E.01314
G1 X120.81 Y90.742 E.1078
G1 X120.391 Y90.742 E.01314
G1 X120.391 Y94.4 E.11468
G1 X120.131 Y94.661 E.01156
G1 X120.131 Y115.339 E.64837
G1 X120.391 Y115.6 E.01156
G1 X120.391 Y119.258 E.11468
G1 X120.81 Y119.258 E.01314
G1 X120.81 Y115.819 E.1078
G1 X121.229 Y115.819 E.01314
G1 X121.229 Y119.258 E.1078
G1 X121.648 Y119.258 E.01314
G1 X121.648 Y115.819 E.1078
G1 X122.067 Y115.819 E.01314
G1 X122.067 Y119.258 E.1078
G1 X122.486 Y119.258 E.01314
G1 X122.486 Y115.819 E.1078
G1 X122.905 Y115.819 E.01314
G1 X122.905 Y119.258 E.1078
G1 X123.324 Y119.258 E.01314
G1 X123.324 Y115.819 E.1078
G1 X123.743 Y115.819 E.01314
G1 X123.743 Y119.258 E.1078
G1 X124.162 Y119.258 E.01314
G1 X124.162 Y115.819 E.1078
G1 X124.581 Y115.819 E.01314
G1 X124.581 Y119.258 E.1078
G1 X125 Y119.258 E.01314
G1 X125 Y115.819 E.1078
G1 X125.419 Y115.819 E.01314
G1 X125.419 Y119.258 E.1078
G1 X125.838 Y119.258 E.01314
G1 X125.838 Y115.819 E.1078
G1 X126.257 Y115.819 E.01314
G1 X126.257 Y119.258 E.1078
G1 X126.676 Y119.258 E.01314
G1 X126.676 Y115.819 E.1078
G1 X127.095 Y115.819 E.01314
G1 X127.095 Y119.258 E.1078
G1 X127.514 Y119.258 E.01314
G1 X127.514 Y115.819 E.1078
G1 X127.933 Y115.819 E.01314
G1 X127.933 Y119.258 E.1078
G1 X128.352 Y119.258 E.01314
G1 X128.352 Y115.819 E.1078
G1 X128.771 Y115.819 E.01314
G1 X128.771 Y119.258 E.1078
G1 X129.19 Y119.258 E.01314
G1 X129.19 Y115.819 E.1078
G1 X129.389 Y115.819 E.00626
G1 X129.609 Y115.6 E.00973
G1 X129.609 Y119.427 E.12
M204 S1000
G1 X119.972 Y119.427 F10800
M204 S800
G1 F1200
G1 X119.972 Y90.742 E.89939
G1 X119.553 Y90.742 E.01314
G1 X119.553 Y119.258 E.89407
G1 X119.134 Y119.258 E.01314
G1 X119.134 Y90.742 E.89407
G1 X118.715 Y90.742 E.01314
M73 P3 R34
M73 Q3 S34
G1 X118.715 Y119.258 E.89407
G1 X118.296 Y119.258 E.01314
G1 X118.296 Y90.742 E.89407
G1 X117.877 Y90.742 E.01314
G1 X117.877 Y119.258 E.89407
G1 X117.458 Y119.258 E.01314
G1 X117.458 Y90.742 E.89407
G1 X117.039 Y90.742 E.01314
G1 X117.039 Y119.258 E.89407
G1 X116.62 Y119.258 E.01314
G1 X116.62 Y90.742 E.89407
G1 X116.201 Y90.742 E.01314
G1 X116.201 Y119.258 E.89407
G1 X115.783 Y119.258 E.01314
G1 X115.783 Y90.573 E.89939
M204 S1000
;WIPE_START
G1 F8640
G1 X115.783 Y93.864 E-.76
;WIPE_END
G1 E-.04 F2100
G1 Z.8 F720
G1 X122.427 Y102.033 F10800
G1 Z.2 F720
G1 E.8 F2100
M204 S800
;TYPE:External perimeter
G1 F1200
G1 X124.441 Y101.113 E.06942
G1 X126.632 Y101.428 E.06939
G1 X127.47 Y102.158 E.03486
G1 X128.267 Y102.924 E.03464
G1 X128.442 Y104.005 E.03433
G1 X128.718 Y105 E.03238
G1 X128.442 Y105.995 E.03238
G1 X128.267 Y107.076 E.03433
G1 X127.47 Y107.842 E.03464
G1 X126.632 Y108.572 E.03486
G1 X124.441 Y108.887 E.06939
G1 X122.427 Y107.967 E.06942
G1 X122.098 Y107.442 E.01945
G1 X121.851 Y106.995 E.01599
G1 X121.432 Y106.03 E.033
G1 X121.432 Y103.97 E.06457
G1 X121.851 Y103.005 E.033
G1 X122.098 Y102.558 E.01599
G1 X122.395 Y102.084 E.01757
M204 S1000
G1 X122.384 Y101.635 F10800
G1 X122.112 Y101.348
M204 S800
;TYPE:Perimeter
G1 F1200
G1 X122.114 Y96.164 E.16252
G1 X127.886 Y96.164 E.18098
G1 X127.892 Y101.525 E.1681
G1 X126.959 Y100.713 E.03879
G1 X124.329 Y100.335 E.08331
G1 X122.167 Y101.323 E.07454
M204 S1000
G1 X122.324 Y101.666 F10800
M204 S800
G1 F1200
G1 X122.168 Y101.737 E.00537
G1 X121.722 Y102.459 E.02661
G1 X121.737 Y95.787 E.20919
G1 X128.263 Y95.787 E.20462
G1 X128.263 Y101.004 E.16356
G1 X128.281 Y102.414 E.04423
G1 X127.725 Y101.88 E.02417
G1 X126.795 Y101.07 E.03865
G1 X124.385 Y100.724 E.07635
G1 X122.378 Y101.641 E.06919
M204 S1000
;WIPE_START
G1 F8640
G1 X122.168 Y101.737 E-.05337
G1 X121.722 Y102.459 E-.19599
G1 X121.727 Y100.247 E-.51064
;WIPE_END
G1 E-.04 F2100
G1 Z.8 F720
G1 X122.112 Y108.652 F10800
G1 Z.2 F720
G1 E.8 F2100
M204 S800
G1 F1200
G1 X124.329 Y109.665 E.07642
G1 X126.959 Y109.287 E.08331
G1 X127.889 Y108.478 E.03864
G1 X127.886 Y113.836 E.16799
G1 X122.114 Y113.836 E.18099
G1 X122.112 Y108.712 E.16064
M204 S1000
;WIPE_START
G1 F8640
G1 X124.329 Y109.665 E-.55717
G1 X125.199 Y109.54 E-.20283
;WIPE_END
G1 E-.04 F2100
G1 Z.8 F720
G1 X121.722 Y107.541 F10800
G1 Z.2 F720
G1 E.8 F2100
M204 S800
G1 F1200
G1 X122.168 Y108.263 E.02661
G1 X124.385 Y109.276 E.07643
G1 X126.795 Y108.93 E.07635
G1 X127.725 Y108.12 E.03865
G1 X128.279 Y107.588 E.02408
G1 X128.263 Y114.213 E.20773
G1 X121.737 Y114.213 E.20463
G1 X121.724 Y107.601 E.20731
M204 S1000
;WIPE_START
G1 F8640
G1 X122.168 Y108.263 E-.18413
G1 X124.385 Y109.276 E-.56288
G1 X124.441 Y109.268 E-.013
;WIPE_END
G1 E-.04 F2100
G1 Z.8 F720
G1 X121.36 Y114.59 F10800
G1 Z.2 F720
G1 E.8 F2100
M204 S800
;TYPE:External perimeter
G1 F1200
G1 X121.358 Y107.997 E.20672
G1 X121.343 Y107.486 E.01603
M73 Q4 S34
G1 X121.289 Y106.968 E.01631
G1 X121.19 Y106.473 E.01585
G1 X121.16 Y105.993 E.01506
G1 X121.16 Y104.007 E.0623
G1 X121.19 Y103.527 E.01506
G1 X121.289 Y103.032 E.01585
M73 P4 R34
G1 X121.343 Y102.514 E.01631
G1 X121.358 Y102.003 E.01603
G1 X121.36 Y95.41 E.20672
G1 X128.64 Y95.41 E.22826
G1 X128.64 Y101.001 E.17531
G1 X128.659 Y102.51 E.04732
G1 X128.703 Y103.023 E.01613
G1 X128.834 Y104.015 E.03139
G1 X128.84 Y104.501 E.01523
G1 X128.834 Y105.986 E.04656
G1 X128.703 Y106.977 E.03136
G1 X128.659 Y107.488 E.01606
G1 X128.643 Y107.997 E.01597
G1 X128.64 Y114.59 E.20673
G1 X121.42 Y114.59 E.22638
M204 S1000
G1 X121.47 Y114.205 F10800
;WIPE_START
G1 F8640
G1 X121.389 Y111.299 E-.76
;WIPE_END
G1 E-.04 F2100
G1 Z.8 F720
G1 X121.663 Y107.362 F10800
G1 Z.2 F720
G1 E.8 F2100
M204 S800
;TYPE:Gap fill
;WIDTH:0.241746
G1 F1200
G1 X121.592 Y107.117 E.00421
M204 S1000
M204 S800
;WIDTH:0.238441
G1 X121.568 Y107.025 E.00155
M204 S1000
M204 S800
;WIDTH:0.20943
G1 X121.544 Y106.933 E.00132
M204 S1000
M204 S800
;WIDTH:0.180419
G1 X121.542 Y106.927 E.00007
M204 S1000
M204 S800
;WIDTH:0.17877
G1 X121.478 Y106.723 E.00241
M204 S1000
M204 S800
;WIDTH:0.136046
G1 X121.415 Y106.52 E.00165
M204 S1000
;WIPE_START
G1 F8640
G1 X121.478 Y106.723 E-.04924
;WIPE_END
G1 E-.75076 F2100
G1 Z.8 F720
G1 X121.415 Y103.48 F10800
G1 Z.2 F720
G1 E.8 F2100
M204 S800
;WIDTH:0.136046
G1 F1200
G1 X121.478 Y103.277 E.00165
M204 S1000
M204 S800
;WIDTH:0.178771
G1 X121.542 Y103.073 E.00241
M204 S1000
M204 S800
;WIDTH:0.180419
G1 X121.544 Y103.067 E.00007
M204 S1000
M204 S800
;WIDTH:0.20943
G1 X121.568 Y102.975 E.00132
M204 S1000
M204 S800
;WIDTH:0.238442
G1 X121.592 Y102.883 E.00155
M204 S1000
M204 S800
;WIDTH:0.241748
G1 X121.663 Y102.638 E.00421
M204 S1000
;WIPE_START
G1 F8640
G1 X121.592 Y102.883 E-.05874
;WIPE_END
G1 E-.74126 F2100
G1 Z.8 F720
G1 X126.979 Y96.277 F10800
G1 Z.2 F720
G1 E.8 F2100
M204 S800
;TYPE:Solid infill
;WIDTH:0.434715
G1 F1200
G1 X127.603 Y96.901 E.02874
G1 X127.603 Y97.455 E.01805
G1 X126.595 Y96.447 E.04645
G1 X126.041 Y96.447 E.01805
G1 X127.603 Y98.009 E.07198
G1 X127.603 Y98.563 E.01805
G1 X125.487 Y96.447 E.09751
G1 X124.933 Y96.447 E.01805
G1 X127.603 Y99.117 E.12303
G1 X127.603 Y99.671 E.01805
G1 X124.379 Y96.447 E.14856
G1 X123.824 Y96.447 E.01805
G1 X127.603 Y100.226 E.17409
G1 X127.603 Y100.78 E.01805
G1 X123.27 Y96.447 E.19962
G1 X122.716 Y96.447 E.01805
G1 X126.652 Y100.383 E.18134
G1 X126.005 Y100.29 E.0213
G1 X122.396 Y96.681 E.16626
G1 X122.396 Y97.235 E.01805
G1 X125.358 Y100.197 E.13645
G1 X124.711 Y100.104 E.0213
G1 X122.396 Y97.789 E.10665
G1 X122.396 Y98.343 E.01805
G1 X124.156 Y100.103 E.08109
G1 X123.776 Y100.277 E.01362
G1 X122.396 Y98.897 E.06357
G1 X122.396 Y99.451 E.01805
G1 X123.395 Y100.45 E.04606
G1 X123.015 Y100.624 E.01362
G1 X122.395 Y100.005 E.02854
G1 X122.395 Y100.559 E.01805
G1 X122.763 Y100.926 E.01693
M204 S1000
;WIPE_START
G1 F8640
G1 X122.395 Y100.559 E-.12
G1 X122.395 Y100.005 E-.1279
G1 X123.015 Y100.624 E-.20232
G1 X123.395 Y100.45 E-.09655
G1 X122.742 Y99.797 E-.21324
;WIPE_END
G1 E-.04 F2100
G1 Z.8 F720
G1 X127.775 Y109.506 F10800
G1 Z.2 F720
G1 E.8 F2100
M204 S800
;WIDTH:0.438998
G1 F1200
G1 X127.479 Y109.21 E.0138
G1 X127.179 Y109.471 E.01308
G1 X127.605 Y109.896 E.01984
G1 X127.605 Y110.456 E.01844
G1 X126.751 Y109.603 E.03976
G1 X126.262 Y109.673 E.01629
G1 X127.605 Y111.016 E.06255
G1 X127.604 Y111.576 E.01844
G1 X125.772 Y109.744 E.08535
G1 X125.282 Y109.814 E.01629
G1 X127.604 Y112.136 E.10815
G1 X127.604 Y112.696 E.01844
G1 X124.792 Y109.884 E.13095
G1 X124.303 Y109.955 E.01629
G1 X127.604 Y113.256 E.15375
G1 X127.604 Y113.553 E.00979
G1 X127.341 Y113.553 E.00865
G1 X123.289 Y109.501 E.18874
G1 X122.395 Y109.093 E.03235
G1 X122.395 Y109.168 E.00247
G1 X126.781 Y113.553 E.20426
G1 X126.221 Y113.553 E.01845
G1 X122.395 Y109.728 E.17816
G1 X122.396 Y110.288 E.01845
G1 X125.66 Y113.553 E.15206
G1 X125.1 Y113.553 E.01845
G1 X122.396 Y110.849 E.12597
G1 X122.396 Y111.409 E.01845
G1 X124.54 Y113.553 E.09987
G1 X123.98 Y113.553 E.01845
G1 X122.396 Y111.969 E.07377
G1 X122.396 Y112.529 E.01845
G1 X123.42 Y113.553 E.04767
G1 X122.86 Y113.553 E.01845
G1 X122.227 Y112.92 E.02948
M204 S1000
; stop printing object t-nut.stl id:0 copy 0
M106 S255
;LAYER_CHANGE
;Z:0.3
;HEIGHT:0.1
;BEFORE_LAYER_CHANGE
G92 E0.0
;0.3


;WIPE_START
G1 F8640
M73 P4 R33
G1 X122.86 Y113.553 E-.20671
G1 X123.42 Y113.553 E-.12934
G1 X122.396 Y112.529 E-.33425
G1 X122.396 Y112.141 E-.0897
;WIPE_END
G1 E-.04 F2100
G1 Z.8 F720
;AFTER_LAYER_CHANGE
;0.3
M104 S205 ; set temperature
G1 X112.306 Y112.141 F10800
G1 Z.3 F720
G1 E.8 F2100
;TYPE:Skirt/Brim
;WIDTH:0.42
G1 F1906
G1 X112.306 Y90.403 E.36018
G1 X112.699 Y88.986 E.02437
G1 X113.765 Y87.973 E.02437
G1 X115.06 Y87.649 E.02212
G1 X134.94 Y87.649 E.32939
G1 X136.357 Y88.042 E.02437
M73 Q4 S33
G1 X137.37 Y89.108 E.02437
