; generated by PrusaSlicer 2.4.2 on 2023-06-09 at 19:25:02 UTC

; 

; external perimeters extrusion width = 0.45mm
; perimeters extrusion width = 0.45mm
; infill extrusion width = 0.45mm
; solid infill extrusion width = 0.45mm
; top infill extrusion width = 0.40mm
; support material extrusion width = 0.35mm
; first layer extrusion width = 0.42mm

M73 P0 R24
M73 Q0 S24
M107
;TYPE:Custom
; M862.3 P "MK3S" ; printer model check
M862.1 P0.4 ; nozzle diameter check
M115 U3.9.0 ; tell printer latest fw version
G90 ; use absolute coordinates
M83 ; extruder relative mode
M104 S230 ; set extruder temp
M140 S85 ; set bed temp
M190 S85 ; wait for bed temp
M109 S230 ; wait for extruder temp
G28 W ; home all without mesh bed level
G80 ; mesh bed leveling
G1 Y-3.0 F1000.0 ; go outside print area
G92 E0.0
G1 X60.0 E9.0 F1000.0 ; intro line
G1 X100.0 E12.5 F1000.0 ; intro line
G92 E0.0
M221 S95
G21 ; set units to millimeters
G90 ; use absolute coordinates
M83 ; use relative distances for extrusion
M900 K0.06 ; Filament gcode LA 1.5
M900 K30 ; Filament gcode LA 1.0
M107
;LAYER_CHANGE
;Z:0.2
;HEIGHT:0.2
;BEFORE_LAYER_CHANGE
G92 E0.0
;0.2


G1 E-.8 F2100
G1 Z.6 F720
;AFTER_LAYER_CHANGE
;0.2
G1 X112.699 Y91.314 F10800
G1 Z.2 F720
G1 E.8 F2100
M204 S800
;TYPE:Skirt/Brim
;WIDTH:0.42
G1 F1200
G1 X113.765 Y90.301 E.04612
G1 X115.06 Y89.978 E.04186
G1 X134.94 Y89.978 E.62331
G1 X136.357 Y90.37 E.04612
G1 X137.37 Y91.436 E.04612
G1 X137.694 Y92.732 E.04186
G1 X137.694 Y117.268 E.76933
G1 X137.301 Y118.686 E.04612
G1 X136.235 Y119.699 E.04612
G1 X134.94 Y120.023 E.04186
G1 X115.06 Y120.023 E.62331
G1 X113.643 Y119.63 E.04612
G1 X112.63 Y118.564 E.04612
G1 X112.306 Y117.268 E.04186
G1 X112.306 Y92.732 E.76933
G1 X112.683 Y91.372 E.04424
M204 S1000
G1 X113.057 Y91.484 F10800
M204 S800
G1 F1200
G1 X113.075 Y91.425 E.00195
G1 X114.12 Y90.548 E.04278
G1 X115.06 Y90.355 E.03008
G1 X134.94 Y90.355 E.62331
G1 X136.247 Y90.746 E.04278
G1 X137.123 Y91.792 E.04278
G1 X137.317 Y92.732 E.03008
G1 X137.317 Y117.268 E.76933
G1 X136.925 Y118.575 E.04278
M73 P1 R24
M73 Q1 S24
G1 X135.88 Y119.452 E.04278
G1 X134.94 Y119.645 E.03008
G1 X115.06 Y119.645 E.62331
G1 X113.753 Y119.254 E.04278
G1 X112.877 Y118.208 E.04278
G1 X112.683 Y117.268 E.03008
G1 X112.683 Y92.732 E.76933
G1 X113.04 Y91.542 E.03895
M204 S1000
; printing object t-nut.stl id:0 copy 0
;WIPE_START
G1 F8640
G1 X113.075 Y91.425 E-.0282
G1 X114.12 Y90.548 E-.31505
G1 X115.06 Y90.355 E-.22155
G1 X115.906 Y90.355 E-.1952
;WIPE_END
G1 E-.04 F2100
G1 Z.8 F720
G1 X126.964 Y102.733 F10800
G1 Z.2 F720
G1 E.8 F2100
M204 S800
;TYPE:Support material
G1 F1200
G1 X127.878 Y104.155 E.053
G1 X127.878 Y105.845 E.053
G1 X126.964 Y107.267 E.053
G1 X125.427 Y107.969 E.053
G1 X123.754 Y107.729 E.053
G1 X122.476 Y106.622 E.053
G1 X122 Y105 E.053
G1 X122.476 Y103.378 E.053
G1 X123.754 Y102.271 E.053
G1 X125.427 Y102.031 E.053
G1 X126.913 Y102.709 E.05122
M204 S1000
G1 X127.514 Y106.098 F10800
M204 S800
G1 F1200
G1 X127.514 Y104.216 E.05903
G1 X127.095 Y103.564 E.0243
G1 X127.095 Y106.436 E.09007
G1 X126.733 Y107 E.021
G1 X126.676 Y107.026 E.00196
G1 X126.676 Y102.974 E.12703
G1 X126.257 Y102.783 E.01444
G1 X126.257 Y107.217 E.13903
G1 X125.838 Y107.408 E.01444
G1 X125.838 Y102.592 E.15103
G1 X125.419 Y102.4 E.01444
G1 X125.419 Y107.6 E.16303
G1 X125.377 Y107.619 E.00146
G1 X125 Y107.565 E.01193
G1 X125 Y102.435 E.16085
G1 X124.581 Y102.495 E.01327
G1 X124.581 Y107.505 E.15707
G1 X124.162 Y107.444 E.01327
G1 X124.162 Y102.556 E.15329
G1 X123.901 Y102.593 E.00828
G1 X123.743 Y102.73 E.00654
G1 X123.743 Y107.27 E.14236
G1 X123.324 Y106.907 E.01738
M73 P1 R23
G1 X123.324 Y103.093 E.1196
G1 X122.905 Y103.456 E.01738
G1 X122.905 Y106.544 E.09683
G1 X122.774 Y106.431 E.00544
G1 X122.486 Y105.45 E.03204
G1 X122.486 Y103.948 E.04711
M204 S1000
;WIPE_START
G1 F8640
G1 X122.486 Y105.45 E-.34695
G1 X122.774 Y106.431 E-.23593
G1 X122.905 Y106.544 E-.04006
G1 X122.905 Y105.951 E-.13706
;WIPE_END
G1 E-.04 F2100
G1 Z.8 F720
G1 X134.94 Y117.268 F10800
G1 Z.2 F720
G1 E.8 F2100
M204 S800
G1 F1200
G1 X115.06 Y117.268 E.62331
G1 X115.06 Y92.732 E.76933
M73 Q1 S23
G1 X134.94 Y92.732 E.62331
G1 X134.94 Y117.212 E.76756
M204 S1000
;WIPE_START
G1 F8640
G1 X134.94 Y113.92 E-.76
;WIPE_END
G1 E-.04 F2100
G1 Z.8 F720
G1 X120.801 Y97.52 F10800
G1 Z.2 F720
G1 E.8 F2100
M204 S800
G1 F1200
G1 X120.52 Y97.801 E.01247
G1 X120.52 Y112.199 E.45143
G1 X120.801 Y112.48 E.01247
G1 X129.199 Y112.48 E.2633
G1 X129.48 Y112.199 E.01247
M73 P2 R23
M73 Q2 S23
G1 X129.48 Y97.801 E.45143
G1 X129.199 Y97.52 E.01247
G1 X120.858 Y97.52 E.26153
M204 S1000
;WIPE_START
G1 F8640
G1 X124.149 Y97.52 E-.76
;WIPE_END
G1 E-.04 F2100
G1 Z.8 F720
G1 X134.217 Y117.099 F10800
G1 Z.2 F720
G1 E.8 F2100
M204 S800
G1 F1200
G1 X134.217 Y93.071 E.75337
G1 X133.799 Y93.071 E.01314
G1 X133.799 Y116.929 E.74805
G1 X133.38 Y116.929 E.01314
G1 X133.38 Y93.071 E.74805
G1 X132.961 Y93.071 E.01314
G1 X132.961 Y116.929 E.74805
G1 X132.542 Y116.929 E.01314
G1 X132.542 Y93.071 E.74805
G1 X132.123 Y93.071 E.01314
G1 X132.123 Y116.929 E.74805
G1 X131.704 Y116.929 E.01314
G1 X131.704 Y93.071 E.74805
G1 X131.285 Y93.071 E.01314
G1 X131.285 Y116.929 E.74805
G1 X130.866 Y116.929 E.01314
G1 X130.866 Y93.071 E.74805
G1 X130.447 Y93.071 E.01314
G1 X130.447 Y116.929 E.74805
G1 X130.028 Y116.929 E.01314
G1 X130.028 Y93.071 E.74805
G1 X129.609 Y93.071 E.01314
M73 P3 R23
M73 Q3 S23
G1 X129.609 Y97.45 E.1373
G1 X129.339 Y97.181 E.01194
G1 X129.19 Y97.181 E.00469
G1 X129.19 Y93.071 E.12885
G1 X128.771 Y93.071 E.01314
G1 X128.771 Y97.181 E.12885
G1 X128.352 Y97.181 E.01314
G1 X128.352 Y93.071 E.12885
G1 X127.933 Y93.071 E.01314
G1 X127.933 Y97.181 E.12885
G1 X127.514 Y97.181 E.01314
G1 X127.514 Y93.071 E.12885
G1 X127.095 Y93.071 E.01314
G1 X127.095 Y97.181 E.12885
G1 X126.676 Y97.181 E.01314
G1 X126.676 Y93.071 E.12885
G1 X126.257 Y93.071 E.01314
G1 X126.257 Y97.181 E.12885
G1 X125.838 Y97.181 E.01314
G1 X125.838 Y93.071 E.12885
G1 X125.419 Y93.071 E.01314
G1 X125.419 Y97.181 E.12885
G1 X125 Y97.181 E.01314
G1 X125 Y93.071 E.12885
G1 X124.581 Y93.071 E.01314
G1 X124.581 Y97.181 E.12885
G1 X124.162 Y97.181 E.01314
G1 X124.162 Y93.071 E.12885
G1 X123.743 Y93.071 E.01314
G1 X123.743 Y97.181 E.12885
G1 X123.324 Y97.181 E.01314
G1 X123.324 Y93.071 E.12885
G1 X122.905 Y93.071 E.01314
G1 X122.905 Y97.181 E.12885
G1 X122.486 Y97.181 E.01314
G1 X122.486 Y93.071 E.12885
G1 X122.067 Y93.071 E.01314
G1 X122.067 Y97.181 E.12885
G1 X121.648 Y97.181 E.01314
G1 X121.648 Y93.071 E.12885
G1 X121.229 Y93.071 E.01314
G1 X121.229 Y97.181 E.12885
G1 X120.81 Y97.181 E.01314
G1 X120.81 Y93.071 E.12885
G1 X120.391 Y93.071 E.01314
G1 X120.391 Y97.45 E.1373
G1 X120.181 Y97.661 E.00934
G1 X120.181 Y112.339 E.46024
G1 X120.391 Y112.55 E.00934
G1 X120.391 Y116.929 E.1373
G1 X120.81 Y116.929 E.01314
G1 X120.81 Y112.819 E.12885
G1 X121.229 Y112.819 E.01314
G1 X121.229 Y116.929 E.12885
G1 X121.648 Y116.929 E.01314
G1 X121.648 Y112.819 E.12885
G1 X122.067 Y112.819 E.01314
G1 X122.067 Y116.929 E.12885
G1 X122.486 Y116.929 E.01314
G1 X122.486 Y112.819 E.12885
G1 X122.905 Y112.819 E.01314
G1 X122.905 Y116.929 E.12885
G1 X123.324 Y116.929 E.01314
G1 X123.324 Y112.819 E.12885
G1 X123.743 Y112.819 E.01314
G1 X123.743 Y116.929 E.12885
G1 X124.162 Y116.929 E.01314
G1 X124.162 Y112.819 E.12885
G1 X124.581 Y112.819 E.01314
G1 X124.581 Y116.929 E.12885
G1 X125 Y116.929 E.01314
G1 X125 Y112.819 E.12885
G1 X125.419 Y112.819 E.01314
G1 X125.419 Y116.929 E.12885
G1 X125.838 Y116.929 E.01314
G1 X125.838 Y112.819 E.12885
G1 X126.257 Y112.819 E.01314
G1 X126.257 Y116.929 E.12885
G1 X126.676 Y116.929 E.01314
G1 X126.676 Y112.819 E.12885
G1 X127.095 Y112.819 E.01314
G1 X127.095 Y116.929 E.12885
G1 X127.514 Y116.929 E.01314
G1 X127.514 Y112.819 E.12885
G1 X127.933 Y112.819 E.01314
G1 X127.933 Y116.929 E.12885
G1 X128.352 Y116.929 E.01314
G1 X128.352 Y112.819 E.12885
G1 X128.771 Y112.819 E.01314
G1 X128.771 Y116.929 E.12885
G1 X129.19 Y116.929 E.01314
G1 X129.19 Y112.819 E.12885
G1 X129.339 Y112.819 E.00469
G1 X129.609 Y112.55 E.01194
G1 X129.609 Y117.099 E.14262
M204 S1000
G1 X119.972 Y117.099 F10800
M204 S800
G1 F1200
G1 X119.972 Y93.071 E.75337
G1 X119.553 Y93.071 E.01314
G1 X119.553 Y116.929 E.74805
G1 X119.134 Y116.929 E.01314
M73 P4 R23
M73 Q4 S23
G1 X119.134 Y93.071 E.74805
G1 X118.715 Y93.071 E.01314
G1 X118.715 Y116.929 E.74805
G1 X118.296 Y116.929 E.01314
G1 X118.296 Y93.071 E.74805
G1 X117.877 Y93.071 E.01314
G1 X117.877 Y116.929 E.74805
G1 X117.458 Y116.929 E.01314
G1 X117.458 Y93.071 E.74805
G1 X117.039 Y93.071 E.01314
G1 X117.039 Y116.929 E.74805
G1 X116.62 Y116.929 E.01314
G1 X116.62 Y93.071 E.74805
G1 X116.201 Y93.071 E.01314
G1 X116.201 Y116.929 E.74805
G1 X115.783 Y116.929 E.01314
G1 X115.783 Y92.901 E.75337
M204 S1000
;WIPE_START
G1 F8640
G1 X115.783 Y96.193 E-.76
;WIPE_END
G1 E-.04 F2100
G1 Z.8 F720
G1 X123.368 Y101.428 F10800
G1 Z.2 F720
G1 E.8 F2100
M204 S800
;TYPE:External perimeter
G1 F1200
G1 X125.559 Y101.113 E.0694
G1 X127.573 Y102.034 E.06944
G1 X127.9 Y102.563 E.01951
G1 X128.14 Y103.016 E.01607
G1 X128.33 Y103.483 E.01582
G1 X128.568 Y103.965 E.01686
G1 X128.568 Y106.035 E.06491
G1 X128.33 Y106.517 E.01686
G1 X128.14 Y106.984 E.01582
G1 X127.9 Y107.437 E.01607
G1 X127.573 Y107.966 E.01951
G1 X125.559 Y108.887 E.06944
G1 X123.368 Y108.572 E.0694
G1 X122.531 Y107.842 E.03483
G1 X122.165 Y107.497 E.01577
G1 X121.749 Y107.061 E.0189
G1 X121.573 Y105.993 E.03394
G1 X121.281 Y105 E.03245
G1 X121.573 Y104.007 E.03245
G1 X121.749 Y102.939 E.03394
G1 X122.165 Y102.503 E.0189
G1 X122.531 Y102.158 E.01577
G1 X123.323 Y101.467 E.03294
M204 S1000
G1 X123.442 Y101.035 F10800
G1 X123.04 Y100.713
M204 S800
;TYPE:Perimeter
G1 F1200
G1 X122.161 Y101.481 E.03661
G1 X122.163 Y99.164 E.07263
G1 X127.836 Y99.164 E.17786
G1 X127.841 Y101.327 E.06781
G1 X125.671 Y100.335 E.0748
M73 Q5 S23
G1 X123.1 Y100.704 E.08146
M204 S1000
G1 X123.204 Y101.07 F10800
M204 S800
G1 F1200
M73 P5 R23
G1 X122.278 Y101.879 E.03854
G1 X121.767 Y102.373 E.02228
G1 X121.783 Y102.013 E.01129
G1 X121.786 Y98.787 E.10114
G1 X128.213 Y98.787 E.2015
G1 X128.213 Y101.004 E.06952
G1 X128.234 Y102.386 E.04333
G1 X127.833 Y101.738 E.02389
G1 X125.615 Y100.724 E.07649
G1 X123.264 Y101.062 E.07449
M204 S1000
;WIPE_START
G1 F8640
G1 X122.278 Y101.879 E-.29552
G1 X121.767 Y102.373 E-.16411
G1 X121.783 Y102.013 E-.08317
G1 X121.784 Y101.072 E-.2172
;WIPE_END
G1 E-.04 F2100
G1 Z.8 F720
G1 X122.161 Y108.519 F10800
G1 Z.2 F720
G1 E.8 F2100
M204 S800
G1 F1200
G1 X123.04 Y109.287 E.03661
G1 X125.671 Y109.665 E.08334
G1 X127.838 Y108.674 E.07473
G1 X127.837 Y110.836 E.06778
G1 X122.163 Y110.836 E.17789
G1 X122.161 Y108.579 E.07075
M204 S1000
;WIPE_START
G1 F8640
G1 X123.04 Y109.287 E-.26067
G1 X125.181 Y109.595 E-.49933
;WIPE_END
G1 E-.04 F2100
G1 Z.8 F720
G1 X121.767 Y107.627 F10800
G1 Z.2 F720
G1 E.8 F2100
M204 S800
G1 F1200
G1 X122.278 Y108.121 E.02228
G1 X123.204 Y108.93 E.03854
G1 X125.615 Y109.276 E.07637
G1 X127.833 Y108.262 E.07649
G1 X128.23 Y107.62 E.02366
G1 X128.216 Y107.988 E.01156
G1 X128.213 Y111.213 E.1011
G1 X121.786 Y111.213 E.20151
G1 X121.77 Y107.687 E.11055
M204 S1000
;WIPE_START
G1 F8640
G1 X122.278 Y108.121 E-.15435
G1 X123.204 Y108.93 E-.2838
G1 X124.584 Y109.128 E-.32185
;WIPE_END
G1 E-.04 F2100
G1 Z.8 F720
G1 X121.41 Y111.59 F10800
G1 Z.2 F720
G1 E.8 F2100
M204 S800
;TYPE:External perimeter
G1 F1200
G1 X121.406 Y107.995 E.11271
G1 X121.384 Y107.483 E.01607
G1 X121.21 Y105.988 E.04721
G1 X121.21 Y104.012 E.06195
G1 X121.384 Y102.517 E.04721
G1 X121.406 Y102.005 E.01607
G1 X121.41 Y98.41 E.11271
G1 X128.59 Y98.41 E.22513
G1 X128.59 Y101.002 E.08126
G1 X128.613 Y102.514 E.04744
G1 X128.677 Y103.035 E.01643
G1 X128.78 Y103.524 E.01568
G1 X128.79 Y104.002 E.01498
G1 X128.78 Y106.478 E.07763
G1 X128.677 Y106.965 E.01563
G1 X128.613 Y107.483 E.01635
G1 X128.593 Y107.996 E.01609
G1 X128.59 Y111.59 E.11269
G1 X121.47 Y111.59 E.22326
M204 S1000
G1 X121.554 Y111.217 F10800
;WIPE_START
G1 F8640
G1 X121.411 Y108.299 E-.76
;WIPE_END
G1 E-.04 F2100
G1 Z.8 F720
G1 X127.172 Y109.103 F10800
G1 Z.2 F720
G1 E.8 F2100
M204 S800
;TYPE:Solid infill
;WIDTH:0.44583
G1 F1200
G1 X127.555 Y109.487 E.01816
G1 X127.555 Y110.056 E.01907
G1 X126.909 Y109.41 E.03059
G1 X126.518 Y109.589 E.0144
G1 X127.482 Y110.553 E.04567
G1 X126.912 Y110.553 E.01909
G1 X126.127 Y109.768 E.0372
G1 X125.736 Y109.947 E.0144
G1 X126.342 Y110.553 E.02873
G1 X125.772 Y110.553 E.01909
G1 X125.086 Y109.867 E.03251
G1 X124.421 Y109.771 E.02252
G1 X125.203 Y110.553 E.03704
G1 X124.633 Y110.553 E.01909
G1 X123.755 Y109.676 E.04157
G1 X123.09 Y109.58 E.02252
G1 X124.063 Y110.553 E.04611
G1 X123.493 Y110.553 E.01909
G1 X122.444 Y109.504 E.04969
G1 X122.445 Y110.075 E.01911
G1 X123.093 Y110.723 E.0307
M204 S1000
;WIPE_START
G1 F8640
G1 X122.445 Y110.075 E-.21159
G1 X122.444 Y109.504 E-.13171
G1 X123.493 Y110.553 E-.34245
G1 X123.815 Y110.553 E-.07424
;WIPE_END
G1 E-.04 F2100
G1 Z.8 F720
G1 X128.28 Y107.438 F10800
G1 Z.2 F720
G1 E.8 F2100
M204 S800
;TYPE:Gap fill
;WIDTH:0.292613
G1 F1200
G1 X128.333 Y107.271 E.00364
M204 S1000
M204 S800
;WIDTH:0.251754
G1 X128.385 Y107.103 E.00305
M204 S1000
M204 S800
;WIDTH:0.210895
G1 X128.388 Y107.095 E.00012
M204 S1000
M204 S800
;WIDTH:0.20826
G1 X128.431 Y106.927 E.00239
M204 S1000
M204 S800
;WIDTH:0.162525
G1 X128.433 Y106.922 E.00005
M204 S1000
M204 S800
;WIDTH:0.161397
G1 X128.481 Y106.764 E.00163
M204 S1000
M204 S800
;WIDTH:0.131975
G1 X128.529 Y106.607 E.00122
M204 S1000
M204 S800
;WIDTH:0.102552
G1 X128.55 Y106.548 E.00031
M204 S1000
;WIPE_START
G1 F8640
G1 X128.529 Y106.607 E-.01433
;WIPE_END
G1 E-.78567 F2100
G1 Z.8 F720
M73 P5 R22
G1 X128.55 Y103.452 F10800
G1 Z.2 F720
G1 E.8 F2100
M204 S800
;WIDTH:0.102552
G1 F1200
G1 X128.529 Y103.393 E.00031
M204 S1000
M204 S800
;WIDTH:0.131975
G1 X128.481 Y103.236 E.00122
M204 S1000
M204 S800
;WIDTH:0.161398
G1 X128.433 Y103.078 E.00163
M204 S1000
M204 S800
;WIDTH:0.162526
G1 X128.431 Y103.073 E.00005
M204 S1000
M204 S800
;WIDTH:0.208262
G1 X128.388 Y102.905 E.00239
M204 S1000
M204 S800
;WIDTH:0.210897
G1 X128.385 Y102.897 E.00012
M204 S1000
M204 S800
;WIDTH:0.250681
G1 X128.334 Y102.733 E.00297
M204 S1000
M204 S800
;WIDTH:0.290466
G1 X128.282 Y102.569 E.00354
M204 S1000
;WIPE_START
G1 F8640
G1 X128.334 Y102.733 E-.0397
;WIPE_END
G1 E-.7603 F2100
G1 Z.8 F720
G1 X126.957 Y99.277 F10800
G1 Z.2 F720
G1 E.8 F2100
M204 S800
;TYPE:Solid infill
;WIDTH:0.42179
G1 F1200
G1 X127.553 Y99.874 E.02657
G1 X127.553 Y100.409 E.01688
G1 X126.591 Y99.447 E.04288
G1 X126.055 Y99.447 E.01688
G1 X127.441 Y100.833 E.06175
G1 X126.453 Y100.381 E.0342
G1 X125.519 Y99.447 E.04164
G1 X124.983 Y99.447 E.01688
G1 X125.596 Y100.06 E.0273
G1 X125.127 Y100.127 E.01491
G1 X124.447 Y99.447 E.0303
G1 X123.912 Y99.447 E.01688
G1 X124.659 Y100.194 E.0333
G1 X124.191 Y100.262 E.01491
G1 X123.376 Y99.447 E.0363
G1 X122.84 Y99.447 E.01688
G1 X123.722 Y100.329 E.0393
G1 X123.254 Y100.396 E.01491
G1 X122.445 Y99.588 E.03601
G1 X122.445 Y100.123 E.01686
M73 Q5 S22
G1 X122.837 Y100.515 E.01745
G1 X122.551 Y100.765 E.01196
G1 X122.275 Y100.489 E.01229
M204 S1000
; stop printing object t-nut.stl id:0 copy 0
M106 S255
;LAYER_CHANGE
;Z:0.3
;HEIGHT:0.1
;BEFORE_LAYER_CHANGE
G92 E0.0
;0.3


;WIPE_START
G1 F8640
G1 X122.551 Y100.765 E-.09004
G1 X122.837 Y100.515 E-.08768
G1 X122.445 Y100.123 E-.12792
G1 X122.445 Y99.588 E-.12358
G1 X123.254 Y100.396 E-.26393
G1 X123.54 Y100.355 E-.06684
;WIPE_END
G1 E-.04 F2100
G1 Z.8 F720
;AFTER_LAYER_CHANGE
;0.3
M104 S225 ; set temperature
G1 X123.54 Y89.978 F10800
G1 Z.3 F720
G1 E.8 F2100
;TYPE:Skirt/Brim
;WIDTH:0.42
G1 F1286
G1 X134.94 Y89.978 E.18888
G1 X136.357 Y90.37 E.02437
G1 X137.37 Y91.436 E.02437
G1 X137.694 Y92.732 E.02212
G1 X137.694 Y117.268 E.40656
G1 X137.301 Y118.686 E.02437
G1 X136.235 Y119.699 E.02437
G1 X134.94 Y120.023 E.02212
G1 X115.06 Y120.023 E.32939
G1 X113.643 Y119.63 E.02437
G1 X112.63 Y118.564 E.02437
G1 X112.306 Y117.268 E.02212
G1 X112.306 Y92.732 E.40656
M73 Q6 S22
G1 X112.699 Y91.314 E.02437
M73 P6 R22
