; generated by PrusaSlicer 2.5.2+linux-x64-GTK3 on 2023-08-29 at 04:47:45 UTC


;
;
; 

; external perimeters extrusion width = 0.45mm
; perimeters extrusion width = 0.45mm
; infill extrusion width = 0.45mm
; solid infill extrusion width = 0.45mm
; top infill extrusion width = 0.40mm
; first layer extrusion width = 0.42mm

M73 P0 R60
M73 Q0 S60
M201 X1000 Y1000 Z200 E5000 ; sets maximum accelerations, mm/sec^2
M203 X200 Y200 Z12 E120 ; sets maximum feedrates, mm / sec
M204 P1250 R1250 T1250 ; sets acceleration (P, T) and retract acceleration (R), mm/sec^2
M205 X8.00 Y8.00 Z0.40 E4.50 ; sets the jerk limits, mm/sec
M205 S0 T0 ; sets the minimum extruding and travel feed rate, mm/sec
M107
;TYPE:Custom
M862.3 P "MK3S" ; printer model check
M862.1 P0.4 ; nozzle diameter check
M115 U3.12.2 ; tell printer latest fw version
G90 ; use absolute coordinates
M83 ; extruder relative mode
M104 S215 ; set extruder temp
M140 S60 ; set bed temp
M190 S60 ; wait for bed temp
M109 S215 ; wait for extruder temp
G28 W ; home all without mesh bed level
G80 ; mesh bed leveling

G1 Z0.2 F720
G1 Y-3 F1000 ; go outside print area
G92 E0
G1 X60 E9 F1000 ; intro line
G1 X100 E12.5 F1000 ; intro line

G92 E0
M221 S95

; Don't change E values below. Excessive value can damage the printer.
M907 E430 ; set extruder motor current
G21 ; set units to millimeters
G90 ; use absolute coordinates
M83 ; use relative distances for extrusion
M900 K0.05 ; Filament gcode LA 1.5
M900 K30 ; Filament gcode LA 1.0
M107
;LAYER_CHANGE
;Z:0.2
;HEIGHT:0.2
;BEFORE_LAYER_CHANGE
G92 E0.0
;0.2


G1 E-.8 F2100
G1 Z.4 F720
;AFTER_LAYER_CHANGE
;0.2
G1 X112.907 Y96.569 F10800
G1 Z.2 F720
G1 E.8 F2100
M204 S800
;TYPE:Skirt/Brim
;WIDTH:0.42
G1 F1200
G1 X114.924 Y94.239 E.09663
G1 X117.381 Y92.38 E.09663
G1 X120.172 Y91.071 E.09663
G1 X120.781 Y90.88 E.02001
G1 X123.746 Y90.312 E.09466
G1 X126.827 Y90.372 E.09663
G1 X129.828 Y91.071 E.09663
G1 X132.619 Y92.38 E.09663
G1 X135.076 Y94.239 E.09663
G1 X137.093 Y96.569 E.09663
G1 X138.348 Y98.742 E.07866
G1 X139.357 Y101.654 E.09663
G1 X139.739 Y104.712 E.09663
G1 X139.477 Y107.783 E.09663
G1 X138.582 Y110.732 E.09663
G1 X137.093 Y113.431 E.09663
G1 X135.076 Y115.761 E.09663
G1 X132.619 Y117.62 E.09663
G1 X129.828 Y118.929 E.09663
G1 X129.219 Y119.12 E.02001
G1 X126.254 Y119.688 E.09466
G1 X123.173 Y119.628 E.09663
G1 X120.172 Y118.929 E.09663
G1 X117.381 Y117.62 E.09663
G1 X114.924 Y115.761 E.09663
G1 X112.907 Y113.431 E.09663
G1 X111.418 Y110.732 E.09663
G1 X110.643 Y108.346 E.07866
G1 X110.261 Y105.288 E.09663
G1 X110.523 Y102.217 E.09663
G1 X111.418 Y99.268 E.09663
G1 X112.878 Y96.622 E.09475
M204 S1000
G1 X113.207 Y96.805 F10800
M204 S800
G1 F1200
G1 X115.204 Y94.492 E.09581
G1 X117.603 Y92.685 E.09417
G1 X120.325 Y91.416 E.09417
G1 X120.859 Y91.249 E.01754
G1 X123.746 Y90.689 E.0922
G1 X126.749 Y90.741 E.09417
G1 X129.675 Y91.416 E.09417
G1 X132.397 Y92.685 E.09417
G1 X134.796 Y94.492 E.09417
G1 X136.767 Y96.758 E.09417
G1 X138.223 Y99.385 E.09417
G1 X139.102 Y102.257 E.09417
G1 X139.364 Y104.752 E.07866
G1 X139.102 Y107.743 E.09417
G1 X138.223 Y110.615 E.09417
G1 X136.767 Y113.242 E.09417
G1 X134.796 Y115.508 E.09417
G1 X132.397 Y117.315 E.09417
G1 X129.675 Y118.584 E.09417
G1 X129.141 Y118.751 E.01754
G1 X126.254 Y119.311 E.0922
G1 X123.251 Y119.259 E.09417
G1 X120.325 Y118.584 E.09417
G1 X117.603 Y117.315 E.09417
G1 X115.204 Y115.508 E.09417
G1 X113.233 Y113.242 E.09417
G1 X111.777 Y110.615 E.09417
G1 X110.898 Y107.743 E.09417
G1 X110.636 Y105.248 E.07866
G1 X110.898 Y102.257 E.09417
G1 X111.777 Y99.385 E.09417
G1 X113.178 Y96.857 E.09061
M204 S1000
; printing object holder-pin.stl id:0 copy 0
;WIPE_START
G1 F8640
G1 X115.204 Y94.492 E-.71913
G1 X115.345 Y94.385 E-.04087
;WIPE_END
G1 E-.04 F2100
G1 Z.6 F720
G1 X135.593 Y102.748 F10800
G1 Z.2 F720
G1 E.8 F2100
M204 S800
;TYPE:Perimeter
;WIDTH:0.419999
G1 F1200
G1 X135.829 Y105 E.07099
G1 X135.593 Y107.252 E.07099
G1 X134.893 Y109.405 E.07098
G1 X133.761 Y111.365 E.07098
G1 X132.246 Y113.048 E.07099
G1 X130.415 Y114.379 E.07099
G1 X128.346 Y115.299 E.07099
G1 X126.132 Y115.77 E.07099
G1 X123.868 Y115.77 E.07098
G1 X121.654 Y115.299 E.07099
G1 X119.585 Y114.379 E.07098
G1 X117.754 Y113.048 E.07099
G1 X116.239 Y111.365 E.07098
G1 X115.107 Y109.405 E.07098
G1 X114.407 Y107.252 E.07098
G1 X114.171 Y105 E.07099
G1 X114.407 Y102.748 E.07099
G1 X115.107 Y100.595 E.07098
G1 X116.239 Y98.635 E.07098
G1 X117.754 Y96.952 E.07099
G1 X119.585 Y95.621 E.07099
G1 X121.654 Y94.701 E.07098
G1 X123.866 Y94.23 E.07093
G1 X126.171 Y94.238 E.07226
G1 X128.346 Y94.701 E.06973
G1 X130.415 Y95.621 E.07098
G1 X132.246 Y96.952 E.07099
G1 X133.761 Y98.635 E.07098
G1 X134.893 Y100.595 E.07098
G1 X135.574 Y102.691 E.0691
M204 S1000
G1 X135.964 Y102.67 F10800
M204 S800
G1 F1200
G1 X136.209 Y105 E.07347
G1 X135.964 Y107.33 E.07347
G1 X135.24 Y109.559 E.07347
G1 X134.068 Y111.588 E.07347
G1 X132.5 Y113.33 E.07347
G1 X130.604 Y114.707 E.07347
G1 X128.464 Y115.66 E.07347
G1 X126.172 Y116.147 E.07347
G1 X123.828 Y116.147 E.07347
G1 X121.536 Y115.66 E.07347
G1 X119.396 Y114.707 E.07347
G1 X117.5 Y113.33 E.07347
G1 X115.932 Y111.588 E.07347
G1 X114.76 Y109.559 E.07347
G1 X114.036 Y107.33 E.07347
G1 X113.791 Y105 E.07347
G1 X114.036 Y102.67 E.07347
G1 X114.76 Y100.441 E.07347
G1 X115.932 Y98.412 E.07347
G1 X117.5 Y96.67 E.07347
G1 X119.396 Y95.293 E.07347
G1 X121.536 Y94.34 E.07347
G1 X123.827 Y93.853 E.07344
G1 X126.211 Y93.861 E.07475
M73 P0 R59
G1 X128.464 Y94.34 E.0722
G1 X130.604 Y95.293 E.07347
G1 X132.5 Y96.67 E.07347
G1 X134.068 Y98.412 E.07347
M73 Q0 S59
G1 X135.24 Y100.441 E.07347
G1 X135.945 Y102.613 E.07159
M204 S1000
G1 X136.335 Y102.591 F10800
M204 S800
;TYPE:External perimeter
G1 F1200
G1 X136.588 Y105 E.07596
G1 X136.335 Y107.409 E.07596
G1 X135.586 Y109.713 E.07596
G1 X134.375 Y111.811 E.07596
G1 X132.754 Y113.611 E.07596
G1 X130.794 Y115.035 E.07596
G1 X128.581 Y116.021 E.07596
G1 X126.211 Y116.524 E.07596
G1 X123.789 Y116.524 E.07596
G1 X121.419 Y116.021 E.07596
G1 X119.206 Y115.035 E.07596
G1 X117.246 Y113.611 E.07596
G1 X115.625 Y111.811 E.07596
G1 X114.414 Y109.713 E.07596
G1 X113.665 Y107.409 E.07596
G1 X113.412 Y105 E.07596
G1 X113.665 Y102.591 E.07596
G1 X114.414 Y100.287 E.07596
G1 X115.625 Y98.189 E.07596
G1 X117.246 Y96.389 E.07596
G1 X119.206 Y94.965 E.07596
G1 X121.419 Y93.979 E.07596
G1 X123.788 Y93.476 E.07594
G1 X126.252 Y93.484 E.07723
G1 X128.581 Y93.979 E.07466
G1 X130.794 Y94.965 E.07596
G1 X132.754 Y96.389 E.07596
G1 X134.375 Y98.189 E.07596
G1 X135.586 Y100.287 E.07596
G1 X136.316 Y102.534 E.07407
M204 S1000
G1 X136.037 Y102.858 F10800
;WIPE_START
G1 F8640
G1 X136.588 Y105 E-.57292
G1 X136.503 Y105.806 E-.18708
;WIPE_END
G1 E-.04 F2100
G1 Z.6 F720
G1 X133.729 Y98.919 F10800
G1 Z.2 F720
G1 E.8 F2100
M204 S800
;TYPE:Solid infill
;WIDTH:0.423746
G1 F1200
G1 X132.012 Y97.201 E.0769
G1 X130.244 Y95.917 E.0692
G1 X130.145 Y95.873 E.00344
G1 X134.001 Y99.729 E.17271
G1 X134.581 Y100.734 E.03674
G1 X134.636 Y100.903 E.00562
G1 X129.174 Y95.44 E.24461
G1 X128.214 Y95.019 E.03318
G1 X134.895 Y101.701 E.2992
G1 X135.155 Y102.498 E.02656
G1 X127.53 Y94.874 E.34143
G1 X126.846 Y94.729 E.02214
G1 X135.297 Y103.179 E.37843
G1 X135.36 Y103.781 E.01916
G1 X126.163 Y94.583 E.41189
G1 X125.616 Y94.576 E.0173
G1 X135.423 Y104.383 E.43918
G1 X135.487 Y104.985 E.01916
G1 X125.076 Y94.574 E.46622
G1 X124.535 Y94.572 E.01711
G1 X135.438 Y105.475 E.48826
G1 X135.387 Y105.962 E.01552
G1 X123.995 Y94.57 E.51016
G1 X123.901 Y94.57 E.00296
G1 X123.534 Y94.648 E.01189
G1 X135.336 Y106.45 E.52851
G1 X135.285 Y106.937 E.01552
G1 X123.09 Y94.742 E.5461
G1 X122.646 Y94.837 E.01438
M73 P1 R59
M73 Q1 S59
G1 X135.193 Y107.384 E.56189
G1 X135.061 Y107.79 E.01353
G1 X122.202 Y94.931 E.57587
G1 X121.758 Y95.026 E.01437
G1 X134.929 Y108.197 E.58983
G1 X134.797 Y108.603 E.01353
G1 X121.385 Y95.192 E.6006
G1 X121.012 Y95.358 E.01292
G1 X134.665 Y109.01 E.61138
G1 X134.581 Y109.266 E.00853
G1 X134.509 Y109.392 E.00462
G1 X120.64 Y95.523 E.62107
G1 X120.267 Y95.689 E.01292
G1 X134.311 Y109.734 E.62893
G1 X134.114 Y110.075 E.01248
G1 X119.894 Y95.855 E.63679
G1 X119.756 Y95.917 E.0048
G1 X119.56 Y96.059 E.00767
G1 X133.917 Y110.417 E.64295
G1 X133.72 Y110.758 E.01248
G1 X119.248 Y96.286 E.64809
G1 X118.936 Y96.513 E.01221
G1 X133.523 Y111.099 E.65323
G1 X133.485 Y111.165 E.00239
G1 X133.279 Y111.394 E.00976
G1 X118.624 Y96.739 E.65627
G1 X118.312 Y96.966 E.01221
G1 X133.024 Y111.677 E.65881
G1 X132.769 Y111.961 E.01208
G1 X118 Y97.192 E.66135
G1 X117.982 Y97.206 E.00071
G1 X117.742 Y97.473 E.01137
G1 X132.513 Y112.244 E.6615
G1 X132.258 Y112.527 E.01208
G1 X117.487 Y97.756 E.6615
G1 X117.231 Y98.039 E.01208
G1 X132 Y112.808 E.66135
G1 X131.688 Y113.034 E.01221
G1 X116.976 Y98.323 E.65881
G1 X116.721 Y98.606 E.01208
G1 X131.376 Y113.261 E.65627
G1 X131.064 Y113.487 E.01221
G1 X116.477 Y98.901 E.65323
G1 X116.28 Y99.242 E.01248
G1 X130.752 Y113.714 E.64809
G1 X130.44 Y113.941 E.01221
G1 X116.083 Y99.584 E.64295
G1 X115.886 Y99.925 E.01248
G1 X130.105 Y114.145 E.63679
G1 X129.733 Y114.311 E.01292
G1 X115.689 Y100.266 E.62893
G1 X115.491 Y100.608 E.01248
G1 X129.36 Y114.477 E.62107
G1 X128.987 Y114.643 E.01292
G1 X115.335 Y100.99 E.61138
G1 X115.203 Y101.397 E.01353
G1 X128.615 Y114.808 E.6006
G1 X128.242 Y114.974 E.01292
G1 X115.071 Y101.803 E.58983
G1 X114.939 Y102.21 E.01353
G1 X127.798 Y115.069 E.57586
G1 X127.354 Y115.163 E.01438
G1 X114.807 Y102.616 E.56189
G1 X114.741 Y102.819 E.00676
G1 X114.715 Y103.063 E.00776
G1 X126.91 Y115.258 E.5461
G1 X126.466 Y115.352 E.01438
G1 X114.664 Y103.551 E.5285
G1 X114.613 Y104.038 E.01552
G1 X126.006 Y115.431 E.5102
G1 X125.467 Y115.431 E.01705
G1 X114.562 Y104.525 E.48837
G1 X114.513 Y105.016 E.0156
G1 X124.929 Y115.431 E.46641
G1 X124.39 Y115.431 E.01705
G1 X114.577 Y105.617 E.43946
G1 X114.64 Y106.219 E.01916
G1 X123.837 Y115.417 E.41188
G1 X123.153 Y115.271 E.02214
M73 P2 R59
M73 Q2 S59
G1 X114.703 Y106.821 E.37842
G1 X114.741 Y107.181 E.01145
G1 X114.845 Y107.502 E.01069
G1 X122.469 Y115.126 E.34142
G1 X121.786 Y114.981 E.02214
G1 X115.105 Y108.3 E.29919
G1 X115.364 Y109.097 E.02656
G1 X120.826 Y114.559 E.2446
G1 X119.855 Y114.127 E.03365
G1 X115.999 Y110.271 E.17269
G1 X116.515 Y111.165 E.03268
G1 X117.968 Y112.779 E.06878
G1 X118.755 Y113.565 E.03521
M204 S1000
; stop printing object holder-pin.stl id:0 copy 0
M106 S84.15
;LAYER_CHANGE
;Z:0.3
;HEIGHT:0.1
;BEFORE_LAYER_CHANGE
G92 E0.0
;0.3


;WIPE_START
G1 F8640
G1 X117.968 Y112.779 E-.25675
G1 X116.515 Y111.165 E-.50155
G1 X116.511 Y111.158 E-.0017
;WIPE_END
G1 E-.04 F2100
G1 Z.6 F720
;AFTER_LAYER_CHANGE
;0.3
G1 X113.326 Y113.915 F10800
G1 Z.3 F720
G1 E.8 F2100
;TYPE:Skirt/Brim
;WIDTH:0.42
G1 F3000
G1 X112.907 Y113.431 E.01063
G1 X111.418 Y110.732 E.05106
G1 X110.643 Y108.346 E.04157
G1 X110.261 Y105.288 E.05106
G1 X110.523 Y102.217 E.05107
G1 X111.418 Y99.268 E.05106
G1 X112.907 Y96.569 E.05106
G1 X114.924 Y94.239 E.05106
G1 X117.381 Y92.38 E.05107
G1 X120.172 Y91.071 E.05107
G1 X120.781 Y90.88 E.01057
G1 X123.746 Y90.312 E.05003
G1 X126.827 Y90.372 E.05107
G1 X129.828 Y91.071 E.05106
G1 X132.619 Y92.38 E.05107
G1 X135.076 Y94.239 E.05106
G1 X137.093 Y96.569 E.05106
G1 X138.348 Y98.742 E.04157
G1 X139.357 Y101.654 E.05107
G1 X139.739 Y104.712 E.05106
G1 X139.477 Y107.783 E.05107
G1 X138.582 Y110.732 E.05106
G1 X137.093 Y113.431 E.05106
G1 X135.076 Y115.761 E.05106
G1 X132.619 Y117.62 E.05107
G1 X129.828 Y118.929 E.05107
G1 X129.219 Y119.12 E.01057
G1 X126.254 Y119.688 E.05003
G1 X123.173 Y119.628 E.05107
G1 X120.172 Y118.929 E.05106
G1 X117.381 Y117.62 E.05107
G1 X114.924 Y115.761 E.05106
G1 X113.366 Y113.961 E.03944
G1 X113.646 Y113.717 F10800
G1 F3000
G1 X113.233 Y113.242 E.01043
G1 X111.777 Y110.615 E.04976
G1 X110.898 Y107.743 E.04976
G1 X110.636 Y105.248 E.04157
G1 X110.898 Y102.257 E.04976
G1 X111.777 Y99.385 E.04976
G1 X113.233 Y96.758 E.04976
G1 X115.204 Y94.492 E.04976
G1 X117.603 Y92.685 E.04976
G1 X120.325 Y91.416 E.04976
G1 X120.859 Y91.249 E.00927
G1 X123.746 Y90.689 E.04872
G1 X126.749 Y90.741 E.04976
G1 X129.675 Y91.416 E.04976
G1 X132.397 Y92.685 E.04976
G1 X134.796 Y94.492 E.04976
G1 X136.767 Y96.758 E.04976
G1 X138.223 Y99.385 E.04976
G1 X139.102 Y102.257 E.04976
G1 X139.364 Y104.752 E.04157
G1 X139.102 Y107.743 E.04976
G1 X138.223 Y110.615 E.04976
G1 X136.767 Y113.242 E.04976
G1 X134.796 Y115.508 E.04976
G1 X132.397 Y117.315 E.04976
G1 X129.675 Y118.584 E.04976
G1 X129.141 Y118.751 E.00927
G1 X126.254 Y119.311 E.04872
G1 X123.251 Y119.259 E.04976
G1 X120.325 Y118.584 E.04976
G1 X117.603 Y117.315 E.04976
G1 X115.204 Y115.508 E.04976
G1 X113.685 Y113.762 E.03834
; printing object holder-pin.stl id:0 copy 0
;WIPE_START
G1 F8640
G1 X113.233 Y113.242 E-.15916
G1 X111.971 Y110.966 E-.60084
;WIPE_END
G1 E-.04 F2100
G1 Z.7 F720
G1 X135.674 Y102.731 F10800
G1 Z.3 F720
G1 E.8 F2100
M204 S600
;TYPE:Perimeter
;WIDTH:0.449999
G1 F2700
G1 X135.912 Y105 E.04064
G1 X135.674 Y107.269 E.04064
G1 X134.969 Y109.438 E.04064
G1 X133.828 Y111.414 E.04064
G1 X132.302 Y113.109 E.04064
G1 X130.456 Y114.45 E.04064
G1 X128.372 Y115.378 E.04064
G1 X126.141 Y115.852 E.04064
G1 X123.859 Y115.852 E.04064
G1 X121.628 Y115.378 E.04064
G1 X119.544 Y114.45 E.04064
G1 X117.698 Y113.109 E.04064
G1 X116.172 Y111.414 E.04064
G1 X115.031 Y109.438 E.04064
G1 X114.326 Y107.269 E.04064
G1 X114.088 Y105 E.04064
G1 X114.326 Y102.731 E.04064
G1 X115.031 Y100.562 E.04064
G1 X116.172 Y98.586 E.04064
G1 X117.698 Y96.891 E.04064
G1 X119.544 Y95.55 E.04064
G1 X121.628 Y94.622 E.04064
G1 X123.859 Y94.148 E.04064
G1 X126.141 Y94.148 E.04064
G1 X128.372 Y94.622 E.04064
G1 X130.456 Y95.55 E.04064
G1 X132.302 Y96.891 E.04064
G1 X133.828 Y98.586 E.04064
G1 X134.969 Y100.562 E.04064
G1 X135.655 Y102.674 E.03957
M204 S1000
G1 X136.095 Y102.642 F10800
M204 S600
G1 F2700
G1 X136.343 Y105 E.04225
G1 X136.095 Y107.358 E.04225
G1 X135.362 Y109.614 E.04225
G1 X134.177 Y111.667 E.04225
G1 X132.59 Y113.429 E.04225
G1 X130.671 Y114.823 E.04225
G1 X128.505 Y115.788 E.04225
G1 X126.186 Y116.281 E.04225
G1 X123.814 Y116.281 E.04225
G1 X121.495 Y115.788 E.04225
G1 X119.329 Y114.823 E.04225
G1 X117.41 Y113.429 E.04225
G1 X115.823 Y111.667 E.04225
G1 X114.638 Y109.614 E.04225
G1 X113.905 Y107.358 E.04225
G1 X113.657 Y105 E.04225
G1 X113.905 Y102.642 E.04225
G1 X114.638 Y100.386 E.04225
G1 X115.823 Y98.333 E.04225
G1 X117.41 Y96.571 E.04225
G1 X119.329 Y95.177 E.04225
G1 X121.495 Y94.212 E.04225
M73 P2 R58
G1 X123.814 Y93.719 E.04225
G1 X126.186 Y93.719 E.04225
G1 X128.505 Y94.212 E.04225
G1 X130.671 Y95.177 E.04225
G1 X132.59 Y96.571 E.04225
G1 X134.177 Y98.333 E.04225
G1 X135.362 Y100.386 E.04225
G1 X136.076 Y102.585 E.04118
M204 S1000
G1 X136.517 Y102.554 F10800
M204 S600
;TYPE:External perimeter
M73 Q2 S58
G1 F1500
G1 X136.774 Y105 E.04382
G1 X136.516 Y107.448 E.04385
G1 X135.756 Y109.789 E.04385
G1 X134.525 Y111.92 E.04385
G1 X132.878 Y113.75 E.04385
G1 X130.887 Y115.196 E.04385
G1 X128.638 Y116.198 E.04385
G1 X126.231 Y116.709 E.04385
G1 X123.769 Y116.709 E.04385
G1 X121.362 Y116.198 E.04385
G1 X119.113 Y115.196 E.04385
G1 X117.122 Y113.75 E.04385
G1 X115.475 Y111.92 E.04385
G1 X114.244 Y109.789 E.04385
G1 X113.484 Y107.448 E.04385
G1 X113.226 Y105 E.04385
G1 X113.484 Y102.552 E.04385
G1 X114.244 Y100.211 E.04385
G1 X115.475 Y98.08 E.04385
G1 X117.122 Y96.25 E.04385
G1 X119.113 Y94.804 E.04385
G1 X121.362 Y93.802 E.04385
G1 X123.769 Y93.291 E.04385
G1 X126.231 Y93.291 E.04385
G1 X128.638 Y93.802 E.04385
G1 X130.887 Y94.804 E.04385
G1 X132.878 Y96.25 E.04385
G1 X134.525 Y98.08 E.04385
G1 X135.756 Y100.211 E.04385
G1 X136.498 Y102.497 E.04282
M204 S1000
G1 X136.219 Y102.822 F10800
;WIPE_START
G1 F8640
G1 X136.774 Y105 E-.5815
G1 X136.693 Y105.769 E-.1785
;WIPE_END
G1 E-.04 F2100
G1 Z.7 F720
G1 X129.667 Y114.59 F10800
G1 Z.3 F720
G1 E.8 F2100
;TYPE:Solid infill
;WIDTH:0.450455
G1 F4800
G1 X134.119 Y110.138 E.11231
G1 X134.614 Y109.281 E.01765
G1 X134.732 Y108.919 E.00679
G1 X128.954 Y114.697 E.14574
G1 X128.252 Y115.009 E.0137
