; generated by PrusaSlicer 2.5.2+linux-x64-GTK3 on 2023-08-29 at 04:29:56 UTC


;
;
; 

; external perimeters extrusion width = 0.45mm
; perimeters extrusion width = 0.45mm
; infill extrusion width = 0.45mm
; solid infill extrusion width = 0.45mm
; top infill extrusion width = 0.40mm
; first layer extrusion width = 0.42mm

M73 P0 R107
M73 Q0 S107
M201 X1000 Y1000 Z200 E5000 ; sets maximum accelerations, mm/sec^2
M203 X200 Y200 Z12 E120 ; sets maximum feedrates, mm / sec
M204 P1250 R1250 T1250 ; sets acceleration (P, T) and retract acceleration (R), mm/sec^2
M205 X8.00 Y8.00 Z0.40 E4.50 ; sets the jerk limits, mm/sec
M205 S0 T0 ; sets the minimum extruding and travel feed rate, mm/sec
M107
;TYPE:Custom
M862.3 P "MK3S" ; printer model check
M862.1 P0.4 ; nozzle diameter check
M115 U3.12.2 ; tell printer latest fw version
G90 ; use absolute coordinates
M83 ; extruder relative mode
M104 S215 ; set extruder temp
M140 S60 ; set bed temp
M190 S60 ; wait for bed temp
M109 S215 ; wait for extruder temp
G28 W ; home all without mesh bed level
G80 ; mesh bed leveling

G1 Z0.2 F720
G1 Y-3 F1000 ; go outside print area
G92 E0
G1 X60 E9 F1000 ; intro line
G1 X100 E12.5 F1000 ; intro line

G92 E0
M221 S95

; Don't change E values below. Excessive value can damage the printer.
M907 E430 ; set extruder motor current
G21 ; set units to millimeters
G90 ; use absolute coordinates
M83 ; use relative distances for extrusion
M900 K0.05 ; Filament gcode LA 1.5
M900 K30 ; Filament gcode LA 1.0
M107
;LAYER_CHANGE
;Z:0.2
;HEIGHT:0.2
;BEFORE_LAYER_CHANGE
G92 E0.0
;0.2


G1 E-.8 F2100
G1 Z.4 F720
;AFTER_LAYER_CHANGE
;0.2
G1 X103.015 Y83.693 F10800
G1 Z.2 F720
G1 E.8 F2100
M204 S800
;TYPE:Skirt/Brim
;WIDTH:0.42
G1 F1200
G1 X104.06 Y82.817 E.04278
G1 X105 Y82.623 E.03008
G1 X145 Y82.623 E1.25417
G1 X146.307 Y83.015 E.04278
G1 X147.183 Y84.06 E.04278
G1 X147.377 Y85 E.03008
G1 X147.377 Y125 E1.25417
G1 X146.985 Y126.307 E.04278
G1 X145.94 Y127.183 E.04278
G1 X145 Y127.377 E.03008
G1 X105 Y127.377 E1.25417
G1 X103.693 Y126.985 E.04278
G1 X102.817 Y125.94 E.04278
G1 X102.623 Y125 E.03008
G1 X102.623 Y85 E1.25417
G1 X102.997 Y83.75 E.0409
M204 S1000
; printing object mounting.stl id:0 copy 0
;WIPE_START
G1 F8640
G1 X104.06 Y82.817 E-.32671
G1 X105 Y82.623 E-.22155
G1 X105.917 Y82.623 E-.21174
;WIPE_END
G1 E-.04 F2100
G1 Z.6 F720
G1 X106.164 Y86.164 F10800
G1 Z.2 F720
G1 E.8 F2100
M204 S800
;TYPE:Perimeter
;WIDTH:0.419999
G1 F1200
G1 X143.836 Y86.164 E1.18117
G1 X143.836 Y123.836 E1.18117
G1 X106.164 Y123.836 E1.18117
G1 X106.164 Y86.224 E1.17929
M204 S1000
M73 P0 R106
G1 X105.787 Y85.787 F10800
M204 S800
G1 F1200
G1 X144.213 Y85.787 E1.20481
G1 X144.213 Y124.213 E1.20481
G1 X105.787 Y124.213 E1.20481
G1 X105.787 Y85.847 E1.20293
M204 S1000
G1 X105.41 Y85.41 F10800
M204 S800
;TYPE:External perimeter
G1 F1200
G1 X144.59 Y85.41 E1.22846
G1 X144.59 Y124.59 E1.22846
G1 X105.41 Y124.59 E1.22846
G1 X105.41 Y85.47 E1.22658
M204 S1000
G1 X105.796 Y85.514 F10800
;WIPE_START
M73 Q0 S106
G1 F8640
G1 X108.701 Y85.465 E-.76
;WIPE_END
G1 E-.04 F2100
G1 Z.6 F720
G1 X143.666 Y87.097 F10800
G1 Z.2 F720
G1 E.8 F2100
M204 S800
;TYPE:Solid infill
;WIDTH:0.420414
G1 F1200
G1 X143.073 Y86.504 E.02634
G1 X142.539 Y86.504 E.01676
G1 X143.496 Y87.461 E.04251
G1 X143.496 Y87.995 E.01676
G1 X142.005 Y86.504 E.06621
G1 X141.471 Y86.504 E.01676
G1 X143.496 Y88.529 E.08991
G1 X143.496 Y89.063 E.01676
G1 X140.937 Y86.504 E.1136
G1 X140.403 Y86.504 E.01676
G1 X143.496 Y89.597 E.1373
G1 X143.496 Y90.13 E.01676
G1 X139.87 Y86.504 E.161
G1 X139.336 Y86.504 E.01676
G1 X143.496 Y90.664 E.1847
G1 X143.496 Y91.198 E.01676
G1 X138.802 Y86.504 E.2084
G1 X138.268 Y86.504 E.01676
G1 X143.496 Y91.732 E.23209
G1 X143.496 Y92.266 E.01676
G1 X137.734 Y86.504 E.25579
G1 X137.2 Y86.504 E.01676
G1 X143.496 Y92.8 E.27949
G1 X143.496 Y93.334 E.01676
G1 X136.666 Y86.504 E.30319
G1 X136.133 Y86.504 E.01676
G1 X143.496 Y93.867 E.32689
G1 X143.496 Y94.401 E.01676
G1 X135.599 Y86.504 E.35059
G1 X135.065 Y86.504 E.01676
G1 X143.496 Y94.935 E.37428
G1 X143.496 Y95.469 E.01676
G1 X134.531 Y86.504 E.39798
G1 X133.997 Y86.504 E.01676
G1 X143.496 Y96.003 E.42168
G1 X143.496 Y96.537 E.01676
G1 X133.463 Y86.504 E.44538
G1 X132.929 Y86.504 E.01676
G1 X143.496 Y97.071 E.46908
G1 X143.496 Y97.604 E.01676
G1 X132.396 Y86.504 E.49277
G1 X131.862 Y86.504 E.01676
G1 X143.496 Y98.138 E.51647
G1 X143.496 Y98.672 E.01676
G1 X131.328 Y86.504 E.54017
G1 X130.794 Y86.504 E.01676
G1 X143.496 Y99.206 E.56387
G1 X143.496 Y99.74 E.01676
G1 X130.26 Y86.504 E.58757
G1 X129.726 Y86.504 E.01676
G1 X143.496 Y100.274 E.61127
G1 X143.496 Y100.808 E.01676
G1 X129.192 Y86.504 E.63496
G1 X128.659 Y86.504 E.01676
G1 X143.496 Y101.341 E.65866
G1 X143.496 Y101.875 E.01676
G1 X128.125 Y86.504 E.68236
G1 X127.591 Y86.504 E.01676
G1 X143.496 Y102.409 E.70606
G1 X143.496 Y102.943 E.01676
G1 X127.057 Y86.504 E.72976
G1 X126.523 Y86.504 E.01676
G1 X143.496 Y103.477 E.75345
G1 X143.496 Y104.011 E.01676
G1 X125.989 Y86.504 E.77715
G1 X125.455 Y86.504 E.01676
G1 X143.496 Y104.545 E.80085
G1 X143.496 Y105.078 E.01676
G1 X124.922 Y86.504 E.82455
G1 X124.388 Y86.504 E.01676
M73 P1 R106
M73 Q1 S106
G1 X143.496 Y105.612 E.84825
G1 X143.496 Y106.146 E.01676
G1 X123.854 Y86.504 E.87194
G1 X123.32 Y86.504 E.01676
G1 X143.496 Y106.68 E.89564
G1 X143.496 Y107.214 E.01676
G1 X122.786 Y86.504 E.91934
G1 X122.252 Y86.504 E.01676
G1 X143.496 Y107.748 E.94304
G1 X143.496 Y108.282 E.01676
G1 X121.718 Y86.504 E.96674
G1 X121.185 Y86.504 E.01676
G1 X143.496 Y108.815 E.99044
G1 X143.496 Y109.349 E.01676
G1 X120.651 Y86.504 E1.01413
G1 X120.117 Y86.504 E.01676
G1 X143.496 Y109.883 E1.03783
G1 X143.496 Y110.417 E.01676
G1 X119.583 Y86.504 E1.06153
G1 X119.049 Y86.504 E.01676
G1 X143.496 Y110.951 E1.08523
G1 X143.496 Y111.485 E.01676
M73 P1 R105
G1 X118.515 Y86.504 E1.10893
G1 X117.981 Y86.504 E.01676
G1 X143.496 Y112.019 E1.13262
G1 X143.496 Y112.552 E.01676
G1 X117.448 Y86.504 E1.15632
G1 X116.914 Y86.504 E.01676
G1 X143.496 Y113.086 E1.18002
G1 X143.496 Y113.62 E.01676
G1 X116.38 Y86.504 E1.20372
G1 X115.846 Y86.504 E.01676
G1 X143.496 Y114.154 E1.22742
G1 X143.496 Y114.688 E.01676
G1 X115.312 Y86.504 E1.25111
G1 X114.778 Y86.504 E.01676
G1 X143.496 Y115.222 E1.27481
G1 X143.496 Y115.756 E.01676
G1 X114.244 Y86.504 E1.29851
G1 X113.711 Y86.504 E.01676
M73 Q1 S105
G1 X143.496 Y116.289 E1.32221
G1 X143.496 Y116.823 E.01676
G1 X113.177 Y86.504 E1.34591
G1 X112.643 Y86.504 E.01676
G1 X143.496 Y117.357 E1.36961
G1 X143.496 Y117.891 E.01676
G1 X112.109 Y86.504 E1.3933
G1 X111.575 Y86.504 E.01676
G1 X143.496 Y118.425 E1.417
G1 X143.496 Y118.959 E.01676
G1 X111.041 Y86.504 E1.4407
G1 X110.507 Y86.504 E.01676
G1 X143.496 Y119.493 E1.4644
G1 X143.496 Y120.026 E.01676
G1 X109.974 Y86.504 E1.4881
G1 X109.44 Y86.504 E.01676
G1 X143.496 Y120.56 E1.51179
G1 X143.496 Y121.094 E.01676
G1 X108.906 Y86.504 E1.53549
G1 X108.372 Y86.504 E.01676
G1 X143.496 Y121.628 E1.55919
G1 X143.496 Y122.162 E.01676
G1 X107.838 Y86.504 E1.58289
G1 X107.304 Y86.504 E.01676
G1 X143.496 Y122.696 E1.60659
G1 X143.496 Y123.23 E.01676
M73 P2 R105
M73 Q2 S105
G1 X106.77 Y86.504 E1.63028
G1 X106.504 Y86.504 E.00838
G1 X106.504 Y86.77 E.00838
G1 X143.23 Y123.496 E1.63028
G1 X142.696 Y123.496 E.01676
G1 X106.504 Y87.304 E1.60658
G1 X106.504 Y87.838 E.01676
G1 X142.162 Y123.496 E1.58289
G1 X141.628 Y123.496 E.01676
G1 X106.504 Y88.372 E1.55919
G1 X106.504 Y88.906 E.01676
M73 P2 R104
G1 X141.094 Y123.496 E1.53549
G1 X140.56 Y123.496 E.01676
G1 X106.504 Y89.44 E1.51179
G1 X106.504 Y89.974 E.01676
G1 X140.026 Y123.496 E1.48809
G1 X139.493 Y123.496 E.01676
G1 X106.504 Y90.507 E1.4644
G1 X106.504 Y91.041 E.01676
G1 X138.959 Y123.496 E1.4407
G1 X138.425 Y123.496 E.01676
G1 X106.504 Y91.575 E1.417
G1 X106.504 Y92.109 E.01676
G1 X137.891 Y123.496 E1.3933
G1 X137.357 Y123.496 E.01676
M73 Q2 S104
G1 X106.504 Y92.643 E1.3696
G1 X106.504 Y93.177 E.01676
G1 X136.823 Y123.496 E1.3459
G1 X136.289 Y123.496 E.01676
G1 X106.504 Y93.711 E1.32221
G1 X106.504 Y94.244 E.01676
G1 X135.756 Y123.496 E1.29851
G1 X135.222 Y123.496 E.01676
G1 X106.504 Y94.778 E1.27481
G1 X106.504 Y95.312 E.01676
G1 X134.688 Y123.496 E1.25111
G1 X134.154 Y123.496 E.01676
G1 X106.504 Y95.846 E1.22741
G1 X106.504 Y96.38 E.01676
G1 X133.62 Y123.496 E1.20372
G1 X133.086 Y123.496 E.01676
G1 X106.504 Y96.914 E1.18002
G1 X106.504 Y97.448 E.01676
G1 X132.552 Y123.496 E1.15632
G1 X132.019 Y123.496 E.01676
G1 X106.504 Y97.981 E1.13262
G1 X106.504 Y98.515 E.01676
G1 X131.485 Y123.496 E1.10892
G1 X130.951 Y123.496 E.01676
G1 X106.504 Y99.049 E1.08523
G1 X106.504 Y99.583 E.01676
G1 X130.417 Y123.496 E1.06153
G1 X129.883 Y123.496 E.01676
G1 X106.504 Y100.117 E1.03783
G1 X106.504 Y100.651 E.01676
G1 X129.349 Y123.496 E1.01413
G1 X128.815 Y123.496 E.01676
G1 X106.504 Y101.185 E.99043
G1 X106.504 Y101.718 E.01676
G1 X128.282 Y123.496 E.96673
G1 X127.748 Y123.496 E.01676
M73 P3 R104
M73 Q3 S104
G1 X106.504 Y102.252 E.94304
G1 X106.504 Y102.786 E.01676
G1 X127.214 Y123.496 E.91934
G1 X126.68 Y123.496 E.01676
G1 X106.504 Y103.32 E.89564
G1 X106.504 Y103.854 E.01676
G1 X126.146 Y123.496 E.87194
G1 X125.612 Y123.496 E.01676
G1 X106.504 Y104.388 E.84824
G1 X106.504 Y104.922 E.01676
M73 P3 R103
G1 X125.078 Y123.496 E.82455
G1 X124.545 Y123.496 E.01676
G1 X106.504 Y105.455 E.80085
G1 X106.504 Y105.989 E.01676
G1 X124.011 Y123.496 E.77715
G1 X123.477 Y123.496 E.01676
G1 X106.504 Y106.523 E.75345
G1 X106.504 Y107.057 E.01676
G1 X122.943 Y123.496 E.72975
G1 X122.409 Y123.496 E.01676
G1 X106.504 Y107.591 E.70606
G1 X106.504 Y108.125 E.01676
G1 X121.875 Y123.496 E.68236
G1 X121.341 Y123.496 E.01676
G1 X106.504 Y108.659 E.65866
G1 X106.504 Y109.192 E.01676
G1 X120.808 Y123.496 E.63496
G1 X120.274 Y123.496 E.01676
G1 X106.504 Y109.726 E.61126
G1 X106.504 Y110.26 E.01676
G1 X119.74 Y123.496 E.58756
G1 X119.206 Y123.496 E.01676
G1 X106.504 Y110.794 E.56387
G1 X106.504 Y111.328 E.01676
G1 X118.672 Y123.496 E.54017
G1 X118.138 Y123.496 E.01676
G1 X106.504 Y111.862 E.51647
G1 X106.504 Y112.396 E.01676
G1 X117.604 Y123.496 E.49277
G1 X117.071 Y123.496 E.01676
G1 X106.504 Y112.929 E.46907
G1 X106.504 Y113.463 E.01676
M73 Q3 S103
G1 X116.537 Y123.496 E.44538
G1 X116.003 Y123.496 E.01676
G1 X106.504 Y113.997 E.42168
G1 X106.504 Y114.531 E.01676
G1 X115.469 Y123.496 E.39798
G1 X114.935 Y123.496 E.01676
G1 X106.504 Y115.065 E.37428
G1 X106.504 Y115.599 E.01676
G1 X114.401 Y123.496 E.35058
G1 X113.867 Y123.496 E.01676
G1 X106.504 Y116.133 E.32689
G1 X106.504 Y116.666 E.01676
G1 X113.334 Y123.496 E.30319
G1 X112.8 Y123.496 E.01676
G1 X106.504 Y117.2 E.27949
G1 X106.504 Y117.734 E.01676
G1 X112.266 Y123.496 E.25579
G1 X111.732 Y123.496 E.01676
G1 X106.504 Y118.268 E.23209
G1 X106.504 Y118.802 E.01676
G1 X111.198 Y123.496 E.20839
G1 X110.664 Y123.496 E.01676
G1 X106.504 Y119.336 E.1847
G1 X106.504 Y119.87 E.01676
G1 X110.13 Y123.496 E.161
G1 X109.597 Y123.496 E.01676
G1 X106.504 Y120.403 E.1373
G1 X106.504 Y120.937 E.01676
G1 X109.063 Y123.496 E.1136
G1 X108.529 Y123.496 E.01676
G1 X106.504 Y121.471 E.0899
G1 X106.504 Y122.005 E.01676
G1 X107.995 Y123.496 E.06621
G1 X107.461 Y123.496 E.01676
G1 X106.504 Y122.539 E.04251
G1 X106.504 Y123.073 E.01676
G1 X107.097 Y123.666 E.02634
M204 S1000
; stop printing object mounting.stl id:0 copy 0
M106 S84.15
;LAYER_CHANGE
;Z:0.3
;HEIGHT:0.1
;BEFORE_LAYER_CHANGE
G92 E0.0
;0.3


;WIPE_START
G1 F8640
G1 X106.504 Y123.073 E-.19378
G1 X106.504 Y122.539 E-.12327
G1 X107.461 Y123.496 E-.3127
G1 X107.995 Y123.496 E-.12327
G1 X107.974 Y123.475 E-.00699
;WIPE_END
G1 E-.04 F2100
G1 Z.6 F720
;AFTER_LAYER_CHANGE
;0.3
G1 X107.974 Y127.377 F10800
G1 Z.3 F720
G1 E.8 F2100
;TYPE:Skirt/Brim
;WIDTH:0.42
G1 F3000
G1 X105 Y127.377 E.04927
G1 X103.693 Y126.985 E.02261
G1 X102.817 Y125.94 E.02261
G1 X102.623 Y125 E.0159
G1 X102.623 Y85 E.66277
G1 X103.015 Y83.693 E.02261
G1 X104.06 Y82.817 E.02261
G1 X105 Y82.623 E.0159
G1 X145 Y82.623 E.66277
G1 X146.307 Y83.015 E.02261
G1 X147.183 Y84.06 E.02261
G1 X147.377 Y85 E.0159
G1 X147.377 Y125 E.66277
G1 X146.985 Y126.307 E.02261
G1 X145.94 Y127.183 E.02261
G1 X145 Y127.377 E.0159
G1 X108.034 Y127.377 E.61251
; printing object mounting.stl id:0 copy 0
;WIPE_START
G1 F8640
G1 X105 Y127.377 E-.70046
G1 X104.753 Y127.303 E-.05954
;WIPE_END
G1 E-.04 F2100
G1 Z.7 F720
G1 X106.082 Y86.082 F10800
G1 Z.3 F720
G1 E.8 F2100
M204 S600
;TYPE:Perimeter
;WIDTH:0.449999
G1 F2700
G1 X143.918 Y86.082 E.67411
G1 X143.918 Y123.918 E.67411
G1 X106.082 Y123.918 E.67411
G1 X106.082 Y86.142 E.67304
M204 S1000
G1 X105.654 Y85.654 F10800
M204 S600
G1 F2700
G1 X144.346 Y85.654 E.68938
G1 X144.346 Y124.346 E.68938
G1 X105.654 Y124.346 E.68938
G1 X105.654 Y85.714 E.68831
M204 S1000
G1 X105.225 Y85.225 F10800
M204 S600
;TYPE:External perimeter
G1 F1500
G1 X144.775 Y85.225 E.70465
G1 X144.775 Y124.775 E.70465
G1 X105.225 Y124.775 E.70465
G1 X105.225 Y85.285 E.70358
M204 S1000
G1 X105.611 Y85.329 F10800
;WIPE_START
G1 F8640
G1 X108.516 Y85.28 E-.76
;WIPE_END
G1 E-.04 F2100
G1 Z.7 F720
G1 X142.853 Y123.725 F10800
G1 Z.3 F720
G1 E.8 F2100
;TYPE:Solid infill
;WIDTH:0.452542
G1 F4800
G1 X143.532 Y123.046 E.01721
G1 X143.532 Y122.437 E.01093
G1 X142.437 Y123.532 E.02777
G1 X141.827 Y123.532 E.01093
G1 X143.532 Y121.827 E.04322
G1 X143.532 Y121.217 E.01093
G1 X141.217 Y123.532 E.05867
G1 X140.608 Y123.532 E.01093
G1 X143.532 Y120.608 E.07413
G1 X143.532 Y119.998 E.01093
G1 X139.998 Y123.532 E.08958
G1 X139.388 Y123.532 E.01093
G1 X143.532 Y119.388 E.10503
G1 X143.532 Y118.779 E.01093
G1 X138.779 Y123.532 E.12048
G1 X138.169 Y123.532 E.01093
G1 X143.532 Y118.169 E.13593
G1 X143.532 Y117.559 E.01093
G1 X137.559 Y123.532 E.15139
G1 X136.95 Y123.532 E.01093
G1 X143.532 Y116.95 E.16684
G1 X143.532 Y116.34 E.01093
G1 X136.34 Y123.532 E.18229
G1 X135.731 Y123.532 E.01093
G1 X143.532 Y115.731 E.19774
G1 X143.532 Y115.121 E.01093
G1 X135.121 Y123.532 E.21319
G1 X134.511 Y123.532 E.01093
G1 X143.532 Y114.511 E.22865
G1 X143.532 Y113.902 E.01093
G1 X133.902 Y123.532 E.2441
G1 X133.292 Y123.532 E.01093
G1 X143.532 Y113.292 E.25955
G1 X143.532 Y112.682 E.01093
G1 X132.682 Y123.532 E.275
G1 X132.073 Y123.532 E.01093
G1 X143.532 Y112.073 E.29045
G1 X143.532 Y111.463 E.01093
G1 X131.463 Y123.532 E.30591
G1 X130.853 Y123.532 E.01093
G1 X143.532 Y110.853 E.32136
G1 X143.532 Y110.244 E.01093
G1 X130.244 Y123.532 E.33681
G1 X129.634 Y123.532 E.01093
G1 X143.532 Y109.634 E.35226
G1 X143.532 Y109.024 E.01093
G1 X129.024 Y123.532 E.36771
G1 X128.415 Y123.532 E.01093
G1 X143.532 Y108.415 E.38317
G1 X143.532 Y107.805 E.01093
G1 X127.805 Y123.532 E.39862
G1 X127.196 Y123.532 E.01093
G1 X143.532 Y107.196 E.41407
G1 X143.532 Y106.586 E.01093
G1 X126.586 Y123.532 E.42952
G1 X125.976 Y123.532 E.01093
G1 X143.532 Y105.976 E.44497
G1 X143.532 Y105.367 E.01093
G1 X125.367 Y123.532 E.46043
G1 X124.757 Y123.532 E.01093
G1 X143.532 Y104.757 E.47588
G1 X143.532 Y104.147 E.01093
G1 X124.147 Y123.532 E.49133
G1 X123.538 Y123.532 E.01093
G1 X143.532 Y103.538 E.50678
G1 X143.532 Y102.928 E.01093
G1 X122.928 Y123.532 E.52223
G1 X122.318 Y123.532 E.01093
G1 X143.532 Y102.318 E.53768
G1 X143.532 Y101.709 E.01093
G1 X121.709 Y123.532 E.55314
G1 X121.099 Y123.532 E.01093
G1 X143.532 Y101.099 E.56859
G1 X143.532 Y100.489 E.01093
G1 X120.489 Y123.532 E.58404
G1 X119.88 Y123.532 E.01093
M73 P4 R103
G1 X143.532 Y99.88 E.59949
G1 X143.532 Y99.27 E.01093
M73 Q4 S103
G1 X119.27 Y123.532 E.61494
G1 X118.661 Y123.532 E.01093
G1 X143.532 Y98.661 E.6304
G1 X143.532 Y98.051 E.01093
G1 X118.051 Y123.532 E.64585
G1 X117.441 Y123.532 E.01093
G1 X143.532 Y97.441 E.6613
G1 X143.532 Y96.832 E.01093
G1 X116.832 Y123.532 E.67675
G1 X116.222 Y123.532 E.01093
G1 X143.532 Y96.222 E.6922
G1 X143.532 Y95.612 E.01093
M73 P4 R102
G1 X115.612 Y123.532 E.70766
G1 X115.003 Y123.532 E.01093
G1 X143.532 Y95.003 E.72311
G1 X143.532 Y94.393 E.01093
G1 X114.393 Y123.532 E.73856
G1 X113.783 Y123.532 E.01093
G1 X143.532 Y93.783 E.75401
G1 X143.532 Y93.174 E.01093
G1 X113.174 Y123.532 E.76946
G1 X112.564 Y123.532 E.01093
