; generated by PrusaSlicer 2.7.4 on 2024-05-09 at 08:17:26 UTC

; 

; external perimeters extrusion width = 0.40mm
; perimeters extrusion width = 0.40mm
; infill extrusion width = 0.40mm
; solid infill extrusion width = 0.40mm
; top infill extrusion width = 0.40mm
; first layer extrusion width = 0.42mm

M73 P0 R640
M73 Q0 S641
;TYPE:Custom
; M862.3 P "MK3S" ; printer model check
M862.1 P0.4 ; nozzle diameter check
M115 U3.9.0 ; tell printer latest fw version
G90 ; use absolute coordinates
M83 ; extruder relative mode
M104 S215 ; set extruder temp
M140 S68 ; set bed temp
M190 S68 ; wait for bed temp
M109 S215 ; wait for extruder temp
G28 W ; home all without mesh bed level
G80 ; mesh bed leveling
G1 Y-3.0 F1000.0 ; go outside print area
G92 E0.0
G1 X60.0 E9.0 F1000.0 ; intro line
G1 X100.0 E12.5 F1000.0 ; intro line
G92 E0.0
M221 S95
G21 ; set units to millimeters
G90 ; use absolute coordinates
M83 ; use relative distances for extrusion
M900 K0.06 ; Filament gcode LA 1.5
M900 K30 ; Filament gcode LA 1.0
M107
;LAYER_CHANGE
;Z:0.2
;HEIGHT:0.2
G1 E-.8 F2100
G1 Z.8 F10800
G1 X22.706 Y6.151
G1 Z.2
G1 E.8 F2100
M204 S1000
;TYPE:Skirt/Brim
;WIDTH:0.42
G1 F1200
G1 X22.931 Y5.388 E.02494
G1 X23.355 Y4.577 E.02869
G1 X23.862 Y3.949 E.02531
G1 X24.489 Y3.415 E.02582
G1 X25.277 Y2.977 E.02827
G1 X26.151 Y2.706 E.02869
G1 X27 Y2.623 E.02675
G1 X223.062 Y2.624 E6.14739
G1 X223.849 Y2.706 E.02481
G1 X224.627 Y2.937 E.02545
G1 X225.436 Y3.364 E.02868
G1 X226.051 Y3.862 E.02481
G1 X226.635 Y4.562 E.02858
G1 X227.023 Y5.277 E.02551
G1 X227.293 Y6.151 E.02868
G1 X227.376 Y6.938 E.02481
G1 X227.377 Y203 E6.14739
G1 X227.293 Y203.849 E.02675
M73 P0 R639
G1 X227.063 Y204.627 E.02544
G1 X226.636 Y205.436 E.02868
G1 X226.138 Y206.051 E.02481
G1 X225.522 Y206.577 E.0254
G1 X224.723 Y207.023 E.02869
G1 X223.849 Y207.293 E.02868
G1 X223 Y207.377 E.02675
G1 X27 Y207.377 E6.14544
G1 X26.151 Y207.293 E.02675
M73 Q0 S640
G1 X25.373 Y207.063 E.02544
G1 X24.564 Y206.636 E.02868
G1 X23.949 Y206.138 E.02481
G1 X23.373 Y205.449 E.02816
G1 X22.979 Y204.727 E.02579
G1 X22.71 Y203.864 E.02834
G1 X22.623 Y203.002 E.02716
G1 X22.623 Y7 E6.14551
G1 X22.701 Y6.21 E.02489
;WIPE_START
G1 F8640
G1 X22.706 Y6.151 E-.01367
G1 X22.931 Y5.388 E-.18368
G1 X23.355 Y4.577 E-.21131
G1 X23.862 Y3.949 E-.18636
G1 X24.489 Y3.415 E-.19017
G1 X24.545 Y3.384 E-.01481
;WIPE_END
G1 Z.8 F10800
G1 X26.285 Y6.406
G1 Z.2
G1 E.8 F2100
;TYPE:Perimeter
;WIDTH:0.419999
G1 F1200
G1 X26.578 Y6.171 E.01178
G1 X26.977 Y6.067 E.01293
G1 X222.95 Y6.064 E6.14459
G1 X223.378 Y6.15 E.01369
G1 X223.65 Y6.332 E.01026
G1 X223.869 Y6.667 E.01255
G1 X223.936 Y7.079 E.01309
G1 X223.936 Y202.921 E6.14048
G1 X223.869 Y203.333 E.01309
G1 X223.658 Y203.658 E.01215
G1 X223.333 Y203.869 E.01215
G1 X222.961 Y203.936 E.01185
G1 X27.079 Y203.936 E6.14173
G1 X26.667 Y203.869 E.01309
G1 X26.342 Y203.658 E.01215
G1 X26.131 Y203.333 E.01215
G1 X26.064 Y202.961 E.01185
G1 X26.064 Y7.106 E6.14089
G1 X26.116 Y6.725 E.01206
M73 P0 R638
G1 X26.257 Y6.459 E.00944
G1 X26.257 Y6.459 F10800
G1 X26.176 Y5.982
G1 F1200
G1 X26.529 Y5.786 E.01266
G1 X26.947 Y5.69 E.01345
G1 X222.97 Y5.687 E6.14615
G1 X223.402 Y5.761 E.01374
M73 Q0 S639
G1 X223.776 Y5.944 E.01306
G1 X224.098 Y6.287 E.01475
G1 X224.258 Y6.663 E.01281
G1 X224.313 Y7.079 E.01316
G1 X224.313 Y202.921 E6.14048
G1 X224.264 Y203.316 E.01248
G1 X224.098 Y203.713 E.01349
G1 X223.82 Y204.012 E.0128
G1 X223.469 Y204.223 E.01284
G1 X222.976 Y204.313 E.01571
G1 X27.079 Y204.313 E6.1422
G1 X26.684 Y204.264 E.01248
G1 X26.287 Y204.098 E.01349
G1 X25.988 Y203.82 E.0128
G1 X25.777 Y203.469 E.01284
G1 X25.687 Y202.976 E.01571
G1 X25.687 Y7.032 E6.14368
G1 X25.758 Y6.608 E.01348
G1 X25.902 Y6.31 E.01038
G1 X26.137 Y6.028 E.01151
G1 X26.137 Y6.028 F10800
G1 X25.937 Y5.688
;TYPE:External perimeter
G1 F1200
G1 X26.4 Y5.431 E.0166
G1 X26.917 Y5.313 E.01663
G1 X222.896 Y5.31 E6.14477
G1 X223.351 Y5.348 E.01432
G1 X223.84 Y5.545 E.01653
G1 X224.192 Y5.804 E.0137
G1 X224.496 Y6.237 E.01659
G1 X224.628 Y6.586 E.0117
G1 X224.69 Y7.079 E.01558
G1 X224.69 Y202.921 E6.14048
G1 X224.681 Y203.104 E.00574
M73 P0 R637
G1 X224.577 Y203.605 E.01604
G1 X224.305 Y204.057 E.01654
G1 X223.92 Y204.416 E.01651
G1 X223.435 Y204.622 E.01652
G1 X222.99 Y204.69 E.01411
G1 X27.079 Y204.69 E6.14264
G1 X26.896 Y204.681 E.00574
M73 Q0 S638
G1 X26.395 Y204.577 E.01604
G1 X25.943 Y204.305 E.01654
G1 X25.584 Y203.92 E.01651
G1 X25.378 Y203.435 E.01652
G1 X25.31 Y202.99 E.01411
G1 X25.31 Y7.106 E6.14179
G1 X25.331 Y6.813 E.00921
G1 X25.457 Y6.315 E.01611
G1 X25.689 Y5.936 E.01393
G1 X25.895 Y5.73 E.00913
;WIPE_START
G1 F8640
G1 X25.937 Y5.688 E-.01371
G1 X26.4 Y5.431 E-.12227
G1 X26.917 Y5.313 E-.12245
G1 X29.262 Y5.313 E-.54157
;WIPE_END
G1 Z.8 F10800
G1 X215.148 Y20.034
G1 Z.2
G1 E.8 F2100
;TYPE:Perimeter
G1 F1200
G1 X215.067 Y20.977 E.02968
G1 X214.845 Y21.78 E.02612
G1 X214.38 Y22.727 E.03308
G1 X213.718 Y23.578 E.03381
G1 X212.892 Y24.273 E.03385
G1 X211.941 Y24.781 E.03381
G1 X211.146 Y25.033 E.02615
G1 X210.099 Y25.159 E.03306
G1 X209.024 Y25.067 E.03383
G1 X207.991 Y24.753 E.03385
G1 X207.251 Y24.369 E.02614
G1 X206.422 Y23.718 E.03305
G1 X205.727 Y22.892 E.03385
G1 X205.219 Y21.941 E.03381
G1 X204.967 Y21.146 E.02615
G1 X204.841 Y20.099 E.03306
G1 X204.933 Y19.024 E.03383
G1 X205.247 Y17.991 E.03385
G1 X205.679 Y17.173 E.029
G1 X206.283 Y16.421 E.03024
G1 X207.102 Y15.731 E.03358
G1 X207.832 Y15.316 E.02633
G1 X208.831 Y14.974 E.03311
G1 X209.894 Y14.841 E.03359
G1 X210.733 Y14.891 E.02635
G1 X211.757 Y15.148 E.0331
G1 X212.727 Y15.62 E.03382
G1 X213.578 Y16.282 E.03381
G1 X214.273 Y17.108 E.03385
G1 X214.781 Y18.059 E.03381
G1 X215.035 Y18.862 E.02641
G1 X215.159 Y19.902 E.03284
G1 X215.153 Y19.974 E.00227
G1 X215.153 Y19.974 F10800
G1 X214.778 Y20.009
G1 F1200
G1 X214.692 Y20.937 E.02922
G1 X214.484 Y21.673 E.02398
G1 X214.044 Y22.556 E.03093
G1 X213.425 Y23.341 E.03134
G1 X212.655 Y23.98 E.03137
G1 X211.769 Y24.445 E.03137
G1 X211.039 Y24.672 E.02397
G1 X210.059 Y24.784 E.03093
G1 X209.063 Y24.692 E.03136
G1 X208.108 Y24.394 E.03137
G1 X207.431 Y24.038 E.02398
G1 X206.659 Y23.425 E.03091
G1 X206.02 Y22.655 E.03137
G1 X205.555 Y21.769 E.03137
G1 X205.328 Y21.039 E.02397
G1 X205.216 Y20.059 E.03093
G1 X205.308 Y19.063 E.03136
G1 X205.606 Y18.108 E.03137
G1 X205.993 Y17.382 E.0258
G1 X206.576 Y16.659 E.02912
G1 X207.339 Y16.024 E.03112
G1 X208.012 Y15.647 E.02419
G1 X208.947 Y15.333 E.03093
G1 X209.934 Y15.216 E.03116
G1 X210.704 Y15.266 E.02419
G1 X211.659 Y15.513 E.03093
G1 X212.556 Y15.956 E.03137
G1 X213.341 Y16.575 E.03134
G1 X213.98 Y17.345 E.03137
G1 X214.445 Y18.231 E.03137
G1 X214.673 Y18.969 E.02422
G1 X214.784 Y19.941 E.03067
G1 X214.783 Y19.95 E.00028
G1 X214.783 Y19.95 F10800
G1 X214.409 Y19.98
;TYPE:External perimeter
G1 F1200
G1 X214.317 Y20.898 E.02893
G1 X214.122 Y21.566 E.02182
G1 X213.708 Y22.385 E.02877
G1 X213.132 Y23.104 E.02889
G1 X212.418 Y23.687 E.0289
G1 X211.598 Y24.109 E.02892
G1 X210.932 Y24.31 E.02181
G1 X210.02 Y24.409 E.02876
G1 X209.103 Y24.317 E.0289
G1 X208.224 Y24.036 E.02893
G1 X207.611 Y23.706 E.02183
G1 X206.896 Y23.132 E.02875
G1 X206.313 Y22.418 E.0289
G1 X205.891 Y21.598 E.02892
G1 X205.69 Y20.932 E.02181
G1 X205.591 Y20.02 E.02876
G1 X205.683 Y19.103 E.0289
G1 X205.964 Y18.224 E.02893
G1 X206.306 Y17.591 E.02256
G1 X206.868 Y16.896 E.02802
G1 X207.577 Y16.317 E.0287
G1 X208.193 Y15.978 E.02205
G1 X209.064 Y15.691 E.02875
G1 X209.974 Y15.591 E.0287
G1 X210.675 Y15.642 E.02204
G1 X211.562 Y15.877 E.02877
G1 X212.385 Y16.292 E.0289
G1 X213.104 Y16.868 E.02889
G1 X213.687 Y17.582 E.0289
G1 X214.109 Y18.402 E.02892
G1 X214.311 Y19.075 E.02203
G1 X214.403 Y19.921 E.02668
;WIPE_START
G1 F8640
G1 X214.409 Y19.98 E-.01369
G1 X214.317 Y20.898 E-.21303
G1 X214.122 Y21.566 E-.16068
G1 X213.708 Y22.385 E-.2119
G1 X213.164 Y23.063 E-.2007
;WIPE_END
G1 Z.8 F10800
G1 X136.802 Y102.504
G1 Z.2
G1 E.8 F2100
;TYPE:Perimeter
G1 F1200
G1 X136.911 Y103.088 E.01863
G1 X136.995 Y103.714 E.0198
G1 X137.046 Y104.344 E.01982
G1 X137.064 Y104.975 E.01979
G1 X137.049 Y105.607 E.01982
G1 X137 Y106.236 E.01978
G1 X136.919 Y106.863 E.01982
G1 X136.805 Y107.484 E.0198
G1 X136.659 Y108.099 E.01982
G1 X136.481 Y108.704 E.01977
G1 X136.271 Y109.3 E.01981
G1 X136.031 Y109.884 E.0198
G1 X135.76 Y110.455 E.01982
G1 X135.46 Y111.011 E.01981
G1 X135.131 Y111.55 E.0198
G1 X134.774 Y112.071 E.0198
G1 X134.391 Y112.573 E.0198
G1 X133.982 Y113.054 E.0198
G1 X133.548 Y113.513 E.01981
G1 X133.091 Y113.949 E.0198
G1 X132.611 Y114.36 E.01981
G1 X131.858 Y114.92 E.02942
G1 X131.067 Y115.426 E.02944
G1 X130.499 Y115.738 E.02032
G1 X129.929 Y116.011 E.01982
G1 X129.346 Y116.254 E.0198
G1 X128.751 Y116.466 E.0198
G1 X128.146 Y116.646 E.01979
G1 X127.532 Y116.795 E.01981
G1 X126.912 Y116.911 E.01978
G1 X126.286 Y116.995 E.0198
G1 X125.656 Y117.046 E.01982
G1 X125.025 Y117.064 E.01979
G1 X124.393 Y117.049 E.01982
G1 X123.764 Y117 E.01978
G1 X123.137 Y116.919 E.01982
G1 X122.516 Y116.805 E.0198
G1 X121.901 Y116.659 E.01982
G1 X121.296 Y116.481 E.01977
G1 X120.7 Y116.271 E.01981
G1 X120.116 Y116.031 E.0198
G1 X119.545 Y115.76 E.01982
G1 X118.989 Y115.46 E.01981
G1 X118.45 Y115.131 E.0198
G1 X117.929 Y114.774 E.0198
G1 X117.427 Y114.391 E.0198
G1 X116.946 Y113.982 E.0198
G1 X116.487 Y113.548 E.01981
G1 X116.051 Y113.091 E.0198
G1 X115.64 Y112.611 E.01981
G1 X115.255 Y112.111 E.01979
G1 X114.896 Y111.591 E.01981
G1 X114.565 Y111.053 E.01981
G1 X114.262 Y110.499 E.0198
G1 X113.989 Y109.929 E.01982
G1 X113.746 Y109.346 E.0198
G1 X113.534 Y108.751 E.0198
G1 X113.354 Y108.146 E.01979
G1 X113.205 Y107.532 E.01981
G1 X113.089 Y106.912 E.01978
G1 X113.005 Y106.286 E.0198
G1 X112.954 Y105.656 E.01982
G1 X112.936 Y105.025 E.01979
G1 X112.951 Y104.393 E.01982
G1 X113 Y103.764 E.01978
G1 X113.086 Y103.105 E.02084
G1 X113.195 Y102.516 E.01878
G1 X113.341 Y101.901 E.01982
G1 X113.519 Y101.296 E.01977
G1 X113.729 Y100.7 E.01981
G1 X113.969 Y100.116 E.0198
G1 X114.24 Y99.545 E.01982
G1 X114.54 Y98.989 E.01981
G1 X114.869 Y98.45 E.0198
G1 X115.226 Y97.929 E.0198
G1 X115.609 Y97.427 E.0198
G1 X116.018 Y96.946 E.0198
G1 X116.452 Y96.487 E.01981
G1 X116.909 Y96.051 E.0198
G1 X117.389 Y95.64 E.01981
G1 X117.889 Y95.255 E.01979
G1 X118.397 Y94.904 E.01936
G1 X118.946 Y94.565 E.02023
G1 X119.501 Y94.262 E.01983
G1 X120.071 Y93.989 E.01982
G1 X120.654 Y93.746 E.0198
G1 X121.249 Y93.534 E.0198
G1 X121.854 Y93.354 E.01979
G1 X122.468 Y93.205 E.01981
G1 X123.088 Y93.089 E.01978
G1 X123.714 Y93.005 E.0198
G1 X124.344 Y92.954 E.01982
G1 X124.961 Y92.936 E.01935
G1 X125.606 Y92.951 E.02023
G1 X126.236 Y93 E.01981
G1 X126.863 Y93.081 E.01982
G1 X127.484 Y93.195 E.0198
G1 X128.099 Y93.341 E.01982
G1 X128.704 Y93.519 E.01977
G1 X129.3 Y93.729 E.01981
G1 X129.884 Y93.969 E.0198
G1 X130.455 Y94.24 E.01982
G1 X131.011 Y94.54 E.01981
G1 X131.55 Y94.869 E.0198
G1 X132.071 Y95.226 E.0198
G1 X132.573 Y95.609 E.0198
G1 X133.054 Y96.018 E.0198
G1 X133.513 Y96.452 E.01981
G1 X133.949 Y96.909 E.0198
G1 X134.36 Y97.389 E.01981
G1 X134.745 Y97.889 E.01979
G1 X135.104 Y98.409 E.01981
G1 X135.435 Y98.947 E.01981
G1 X135.738 Y99.501 E.0198
G1 X136.011 Y100.071 E.01982
G1 X136.254 Y100.654 E.0198
G1 X136.466 Y101.249 E.0198
G1 X136.646 Y101.854 E.01979
G1 X136.79 Y102.446 E.0191
G1 X136.79 Y102.446 F10800
G1 X136.432 Y102.574
G1 F1200
G1 X136.541 Y103.157 E.0186
G1 X136.621 Y103.764 E.0192
G1 X136.67 Y104.374 E.01919
G1 X136.687 Y104.985 E.01916
G1 X136.672 Y105.597 E.01919
G1 X136.624 Y106.207 E.01919
G1 X136.545 Y106.814 E.01919
G1 X136.435 Y107.415 E.01916
G1 X136.293 Y108.01 E.01918
G1 X136.119 Y108.597 E.0192
G1 X135.916 Y109.174 E.01918
G1 X135.683 Y109.74 E.01919
G1 X135.42 Y110.293 E.0192
G1 X135.129 Y110.831 E.01918
G1 X134.81 Y111.353 E.01918
G1 X134.464 Y111.857 E.01917
G1 X134.092 Y112.343 E.01919
G1 X133.695 Y112.809 E.01919
G1 X133.274 Y113.253 E.01918
G1 X132.831 Y113.675 E.01918
G1 X132.366 Y114.073 E.01919
G1 X131.634 Y114.617 E.0286
G1 X130.865 Y115.108 E.02861
G1 X130.319 Y115.406 E.0195
G1 X129.767 Y115.671 E.0192
G1 X129.202 Y115.905 E.01917
G1 X128.626 Y116.11 E.01917
G1 X128.039 Y116.285 E.01921
G1 X127.444 Y116.428 E.01919
G1 X126.843 Y116.541 E.01917
G1 X126.236 Y116.621 E.0192
G1 X125.626 Y116.67 E.01919
G1 X125.015 Y116.687 E.01916
G1 X124.403 Y116.672 E.01919
G1 X123.793 Y116.624 E.01919
G1 X123.186 Y116.545 E.01919
G1 X122.585 Y116.435 E.01916
G1 X121.99 Y116.293 E.01918
G1 X121.403 Y116.119 E.0192
G1 X120.826 Y115.916 E.01918
G1 X120.26 Y115.683 E.01919
G1 X119.707 Y115.42 E.0192
G1 X119.169 Y115.129 E.01918
G1 X118.647 Y114.81 E.01918
G1 X118.143 Y114.464 E.01917
G1 X117.657 Y114.092 E.01919
G1 X117.191 Y113.695 E.01919
G1 X116.747 Y113.274 E.01918
G1 X116.325 Y112.831 E.01918
G1 X115.927 Y112.366 E.01919
G1 X115.554 Y111.881 E.01918
G1 X115.207 Y111.378 E.01916
G1 X114.886 Y110.856 E.01921
G1 X114.594 Y110.319 E.01917
G1 X114.329 Y109.767 E.0192
G1 X114.095 Y109.202 E.01917
G1 X113.89 Y108.626 E.01917
G1 X113.715 Y108.039 E.01921
G1 X113.572 Y107.444 E.01919
G1 X113.459 Y106.843 E.01917
G1 X113.379 Y106.236 E.0192
G1 X113.33 Y105.626 E.01919
G1 X113.313 Y105.015 E.01916
G1 X113.328 Y104.403 E.01919
G1 X113.376 Y103.793 E.01919
G1 X113.458 Y103.167 E.0198
G1 X113.565 Y102.585 E.01855
G1 X113.707 Y101.99 E.01918
G1 X113.881 Y101.403 E.0192
G1 X114.084 Y100.826 E.01918
G1 X114.317 Y100.26 E.01919
G1 X114.58 Y99.707 E.0192
G1 X114.871 Y99.169 E.01918
G1 X115.19 Y98.647 E.01918
G1 X115.536 Y98.143 E.01917
G1 X115.908 Y97.657 E.01919
G1 X116.305 Y97.191 E.01919
G1 X116.726 Y96.747 E.01918
G1 X117.169 Y96.325 E.01918
G1 X117.634 Y95.927 E.01919
G1 X118.119 Y95.554 E.01918
G1 X118.611 Y95.215 E.01873
G1 X119.143 Y94.887 E.0196
G1 X119.681 Y94.594 E.01921
G1 X120.233 Y94.329 E.0192
G1 X120.798 Y94.095 E.01917
G1 X121.374 Y93.89 E.01917
G1 X121.961 Y93.715 E.01921
G1 X122.556 Y93.572 E.01919
G1 X123.157 Y93.459 E.01917
G1 X123.764 Y93.379 E.0192
G1 X124.374 Y93.33 E.01919
G1 X124.971 Y93.313 E.01873
G1 X125.596 Y93.328 E.0196
G1 X126.207 Y93.376 E.01922
G1 X126.814 Y93.455 E.01919
G1 X127.415 Y93.565 E.01916
G1 X128.01 Y93.707 E.01918
G1 X128.597 Y93.881 E.0192
G1 X129.174 Y94.084 E.01918
G1 X129.74 Y94.317 E.01919
G1 X130.293 Y94.58 E.0192
G1 X130.831 Y94.871 E.01918
G1 X131.353 Y95.19 E.01918
G1 X131.857 Y95.536 E.01917
G1 X132.343 Y95.908 E.01919
G1 X132.809 Y96.305 E.01919
G1 X133.253 Y96.726 E.01918
G1 X133.675 Y97.169 E.01918
G1 X134.073 Y97.634 E.01919
G1 X134.446 Y98.119 E.01918
G1 X134.793 Y98.622 E.01916
G1 X135.114 Y99.144 E.01921
G1 X135.406 Y99.681 E.01917
G1 X135.671 Y100.233 E.0192
G1 X135.905 Y100.798 E.01917
G1 X136.11 Y101.374 E.01917
G1 X136.285 Y101.961 E.01921
G1 X136.419 Y102.516 E.0179
G1 X136.419 Y102.516 F10800
G1 X136.062 Y102.644
;TYPE:External perimeter
G1 F1200
G1 X136.17 Y103.226 E.01856
G1 X136.248 Y103.813 E.01857
G1 X136.294 Y104.403 E.01856
G1 X136.31 Y104.995 E.01857
G1 X136.295 Y105.587 E.01857
G1 X136.249 Y106.177 E.01856
G1 X136.172 Y106.764 E.01856
G1 X136.064 Y107.347 E.01859
G1 X135.926 Y107.922 E.01854
G1 X135.758 Y108.49 E.01857
G1 X135.561 Y109.049 E.01858
G1 X135.334 Y109.596 E.01857
G1 X135.08 Y110.13 E.01854
G1 X134.797 Y110.651 E.01859
G1 X134.488 Y111.156 E.01856
G1 X134.153 Y111.644 E.01856
G1 X133.793 Y112.114 E.01856
G1 X133.408 Y112.564 E.01857
G1 X133.001 Y112.994 E.01856
G1 X132.572 Y113.402 E.01856
G1 X132.121 Y113.787 E.01859
G1 X131.409 Y114.314 E.02777
G1 X130.662 Y114.79 E.02777
G1 X130.139 Y115.075 E.01867
G1 X129.605 Y115.33 E.01855
G1 X129.058 Y115.557 E.01857
G1 X128.5 Y115.755 E.01856
G1 X127.932 Y115.923 E.01857
G1 X127.356 Y116.062 E.01858
G1 X126.774 Y116.17 E.01856
G1 X126.187 Y116.248 E.01857
G1 X125.597 Y116.294 E.01856
G1 X125.005 Y116.31 E.01857
G1 X124.413 Y116.295 E.01857
G1 X123.823 Y116.249 E.01856
G1 X123.236 Y116.172 E.01856
G1 X122.653 Y116.064 E.01859
G1 X122.078 Y115.926 E.01854
G1 X121.51 Y115.758 E.01857
G1 X120.951 Y115.561 E.01858
G1 X120.404 Y115.334 E.01857
G1 X119.87 Y115.08 E.01854
G1 X119.349 Y114.797 E.01859
