; generated by PrusaSlicer 2.7.4 on 2024-05-09 at 08:19:05 UTC

; 

; external perimeters extrusion width = 0.40mm
; perimeters extrusion width = 0.40mm
; infill extrusion width = 0.40mm
; solid infill extrusion width = 0.40mm
; top infill extrusion width = 0.40mm
; first layer extrusion width = 0.42mm

M73 P0 R28
M73 Q0 S29
;TYPE:Custom
; M862.3 P "MK3S" ; printer model check
M862.1 P0.4 ; nozzle diameter check
M115 U3.9.0 ; tell printer latest fw version
G90 ; use absolute coordinates
M83 ; extruder relative mode
M104 S215 ; set extruder temp
M140 S68 ; set bed temp
M190 S68 ; wait for bed temp
M109 S215 ; wait for extruder temp
G28 W ; home all without mesh bed level
G80 ; mesh bed leveling
G1 Y-3.0 F1000.0 ; go outside print area
G92 E0.0
G1 X60.0 E9.0 F1000.0 ; intro line
M73 Q0 S28
G1 X100.0 E12.5 F1000.0 ; intro line
G92 E0.0
M221 S95
G21 ; set units to millimeters
G90 ; use absolute coordinates
M83 ; use relative distances for extrusion
M900 K0.06 ; Filament gcode LA 1.5
M900 K30 ; Filament gcode LA 1.0
M107
;LAYER_CHANGE
;Z:0.2
;HEIGHT:0.2
G1 E-.8 F2100
G1 Z.8 F10800
G1 X87.314 Y99.754
G1 Z.2
G1 E.8 F2100
M204 S1000
;TYPE:Skirt/Brim
;WIDTH:0.42
G1 F1200
G1 X88.43 Y98.848 E.04507
G1 X89.557 Y98.236 E.04021
G1 X91.027 Y97.772 E.04833
G1 X91.779 Y97.659 E.02384
G1 X152.585 Y92.624 E1.91305
G1 X153.856 Y92.698 E.03992
G1 X155.012 Y92.881 E.0367
G1 X156.993 Y93.468 E.06478
G1 X158.063 Y93.944 E.03672
G1 X159.188 Y94.586 E.04061
G1 X160.828 Y95.844 E.06481
G1 X161.733 Y96.759 E.04035
G1 X162.476 Y97.675 E.03698
G1 X163.556 Y99.437 E.0648
G1 X164.032 Y100.507 E.03672
G1 X164.438 Y101.737 E.04061
G1 X164.815 Y103.768 E.06477
G1 X164.876 Y104.938 E.03673
G1 X164.815 Y106.232 E.04062
G1 X164.438 Y108.263 E.06477
G1 X164.077 Y109.377 E.03672
G1 X163.556 Y110.563 E.04062
G1 X162.476 Y112.325 E.0648
G1 X161.739 Y113.235 E.03672
G1 X160.828 Y114.156 E.04062
G1 X159.188 Y115.413 E.06479
G1 X158.174 Y115.999 E.03672
G1 X156.993 Y116.532 E.04063
G1 X155.012 Y117.119 E.06478
G1 X153.21 Y117.356 E.05699
G1 X151.79 Y117.356 E.04452
G1 X91.408 Y112.295 E1.89987
G1 X90.531 Y112.109 E.02811
G1 X89.443 Y111.713 E.0363
G1 X88.43 Y111.152 E.03631
G1 X87.518 Y110.44 E.03628
G1 X86.739 Y109.607 E.03576
G1 X86.09 Y108.649 E.03628
G1 X85.591 Y107.585 E.03685
G1 X85.273 Y106.478 E.03611
G1 X85.124 Y105.062 E.04464
G1 X85.271 Y103.532 E.04819
G1 X85.731 Y102.069 E.04809
G1 X86.348 Y100.93 E.04062
G1 X87.276 Y99.8 E.04585
;WIPE_START
G1 F8640
G1 X87.314 Y99.754 E-.01378
G1 X88.43 Y98.848 E-.33191
G1 X89.557 Y98.236 E-.29612
G1 X90.21 Y98.03 E-.15819
;WIPE_END
G1 Z.8 F10800
G1 X89.574 Y102.396
G1 Z.2
G1 E.8 F2100
;TYPE:Perimeter
;WIDTH:0.419999
G1 F1200
G1 X89.803 Y102.154 E.01045
G1 X90.214 Y101.805 E.01691
G1 X90.714 Y101.494 E.01846
G1 X91.308 Y101.256 E.02006
G1 X91.875 Y101.116 E.01831
G1 X151.966 Y96.082 E1.89071
G1 X152.504 Y96.065 E.01688
M73 P1 R28
M73 Q1 S28
G1 X153.03 Y96.082 E.0165
G1 X153.836 Y96.166 E.02541
G1 X154.358 Y96.26 E.01663
G1 X154.873 Y96.387 E.01663
G1 X155.643 Y96.637 E.02538
G1 X156.134 Y96.837 E.01662
G1 X156.612 Y97.068 E.01665
G1 X157.313 Y97.473 E.02538
G1 X157.752 Y97.771 E.01664
G1 X158.171 Y98.097 E.01665
G1 X158.773 Y98.639 E.0254
G1 X159.14 Y99.021 E.01661
G1 X159.482 Y99.426 E.01662
G1 X159.959 Y100.082 E.02543
G1 X160.238 Y100.532 E.0166
G1 X160.489 Y101 E.01665
G1 X160.818 Y101.74 E.02539
G1 X160.998 Y102.239 E.01663
G1 X161.146 Y102.748 E.01662
G1 X161.267 Y103.289 E.01738
G1 X161.378 Y104.004 E.02269
G1 X161.423 Y104.532 E.01662
G1 X161.434 Y105.062 E.01662
G1 X161.387 Y105.934 E.02738
G1 X161.315 Y106.455 E.01649
G1 X161.164 Y107.176 E.0231
G1 X161.016 Y107.701 E.0171
G1 X160.842 Y108.202 E.01663
G1 X160.631 Y108.702 E.01702
G1 X160.268 Y109.413 E.02503
G1 X159.994 Y109.867 E.01663
G1 X159.687 Y110.306 E.0168
G1 X159.181 Y110.931 E.02521
G1 X158.818 Y111.318 E.01664
G1 X158.427 Y111.685 E.01681
G1 X157.802 Y112.191 E.02521
G1 X157.367 Y112.494 E.01662
G1 X156.913 Y112.768 E.01663
G1 X156.191 Y113.136 E.02541
G1 X155.702 Y113.342 E.01664
G1 X155.201 Y113.516 E.01663
G1 X154.419 Y113.726 E.02539
G1 X153.898 Y113.825 E.01663
G1 X153.372 Y113.891 E.01662
G1 X152.562 Y113.934 E.02543
G1 X152.035 Y113.923 E.01653
G1 X92.065 Y108.9 E1.8869
G1 X91.494 Y108.803 E.01816
G1 X90.888 Y108.589 E.02015
G1 X90.384 Y108.311 E.01805
G1 X89.954 Y107.981 E.017
G1 X89.58 Y107.629 E.0161
G1 X89.213 Y107.139 E.0192
G1 X88.906 Y106.601 E.01942
G1 X88.712 Y106.045 E.01846
G1 X88.596 Y105.385 E.02101
G1 X88.571 Y104.807 E.01814
G1 X88.655 Y104.17 E.02015
G1 X88.836 Y103.582 E.01929
G1 X89.093 Y103.033 E.01901
G1 X89.429 Y102.55 E.01845
G1 X89.533 Y102.439 E.00477
G1 X89.533 Y102.439 F10800
G1 X89.301 Y102.139
G1 F1200
G1 X89.585 Y101.842 E.01288
G1 X89.992 Y101.499 E.01669
G1 X90.542 Y101.158 E.02029
G1 X91.192 Y100.897 E.02196
G1 X91.819 Y100.742 E.02025
G1 X151.934 Y95.707 E1.89146
G1 X152.504 Y95.687 E.01788
G1 X153.06 Y95.706 E.01744
G1 X153.885 Y95.793 E.02601
G1 X154.436 Y95.891 E.01755
G1 X154.98 Y96.025 E.01757
G1 X155.769 Y96.282 E.02602
G1 X156.288 Y96.492 E.01755
G1 X156.792 Y96.737 E.01757
G1 X157.51 Y97.152 E.026
G1 X157.974 Y97.466 E.01757
G1 X158.416 Y97.81 E.01756
G1 X159.033 Y98.365 E.02602
G1 X159.421 Y98.769 E.01756
G1 X159.781 Y99.197 E.01754
G1 X160.269 Y99.868 E.02601
G1 X160.565 Y100.344 E.01757
G1 X160.829 Y100.838 E.01756
G1 X161.166 Y101.596 E.02601
G1 X161.357 Y102.122 E.01755
G1 X161.512 Y102.66 E.01755
G1 X161.638 Y103.22 E.018
G1 X161.752 Y103.955 E.02332
G1 X161.8 Y104.513 E.01756
G1 X161.811 Y105.072 E.01753
G1 X161.762 Y105.973 E.02829
G1 X161.685 Y106.524 E.01744
G1 X161.53 Y107.264 E.02371
G1 X161.377 Y107.808 E.01772
G1 X161.194 Y108.337 E.01755
G1 X160.971 Y108.864 E.01794
G1 X160.6 Y109.593 E.02565
G1 X160.31 Y110.072 E.01756
G1 X159.986 Y110.536 E.01774
G1 X159.468 Y111.176 E.02582
G1 X159.085 Y111.585 E.01757
G1 X158.672 Y111.972 E.01775
G1 X158.031 Y112.49 E.02584
G1 X157.572 Y112.81 E.01754
G1 X157.093 Y113.1 E.01756
G1 X156.353 Y113.476 E.02603
G1 X155.837 Y113.694 E.01756
G1 X155.308 Y113.878 E.01756
G1 X154.507 Y114.092 E.026
G1 X153.957 Y114.198 E.01756
G1 X153.401 Y114.267 E.01757
G1 X152.572 Y114.311 E.02603
G1 X152.014 Y114.3 E.0175
G1 X92.033 Y109.276 E1.88724
G1 X91.391 Y109.167 E.02042
G1 X90.739 Y108.936 E.02169
G1 X90.178 Y108.627 E.02008
G1 X89.709 Y108.268 E.01852
G1 X89.3 Y107.882 E.01763
G1 X88.902 Y107.353 E.02076
G1 X88.561 Y106.754 E.02161
G1 X88.348 Y106.142 E.02032
G1 X88.222 Y105.434 E.02255
G1 X88.194 Y104.782 E.02046
G1 X88.284 Y104.096 E.02169
G1 X88.484 Y103.447 E.02129
G1 X88.766 Y102.844 E.02087
G1 X89.135 Y102.312 E.0203
G1 X89.259 Y102.182 E.00563
G1 X89.259 Y102.182 F10800
G1 X89.013 Y101.864
;TYPE:External perimeter
G1 F1200
G1 X89.551 Y101.354 E.02324
G1 X90.134 Y100.958 E.0221
G1 X90.603 Y100.718 E.01652
G1 X91.075 Y100.539 E.01583
G1 X91.764 Y100.369 E.02225
G1 X151.216 Y95.388 E1.8706
G1 X152.084 Y95.321 E.0273
M73 P2 R28
M73 Q2 S28
G1 X152.585 Y95.312 E.01571
G1 X153.089 Y95.33 E.01581
G1 X153.594 Y95.374 E.01589
G1 X154.097 Y95.444 E.01592
G1 X154.6 Y95.542 E.01607
G1 X155.087 Y95.664 E.01574
G1 X155.572 Y95.812 E.0159
G1 X156.048 Y95.985 E.01588
G1 X156.521 Y96.186 E.01611
G1 X156.972 Y96.406 E.01573
G1 X157.415 Y96.651 E.01587
G1 X157.845 Y96.92 E.0159
G1 X158.266 Y97.214 E.0161
G1 X158.661 Y97.523 E.01572
G1 X159.044 Y97.856 E.01591
G1 X159.408 Y98.208 E.01588
G1 X159.758 Y98.583 E.01608
G1 X160.081 Y98.967 E.01573
G1 X160.386 Y99.372 E.0159
G1 X160.67 Y99.793 E.01592
G1 X160.934 Y100.233 E.01609
G1 X161.169 Y100.675 E.0157
G1 X161.384 Y101.135 E.01592
G1 X161.574 Y101.605 E.0159
G1 X161.739 Y102.085 E.01591
G1 X161.879 Y102.572 E.01589
G1 X161.993 Y103.066 E.0159
G1 X162.082 Y103.571 E.01608
G1 X162.143 Y104.069 E.01573
G1 X162.179 Y104.575 E.01591
G1 X162.188 Y105.082 E.0159
G1 X162.137 Y106.013 E.02923
G1 X162.071 Y106.512 E.01578
G1 X161.978 Y107.015 E.01604
G1 X161.86 Y107.508 E.01589
G1 X161.716 Y107.994 E.01589
G1 X161.546 Y108.473 E.01594
G1 X161.352 Y108.941 E.01588
G1 X161.134 Y109.399 E.0159
G1 X160.892 Y109.845 E.01591
G1 X160.627 Y110.278 E.01592
G1 X160.339 Y110.696 E.01592
G1 X160.03 Y111.098 E.0159
G1 X159.701 Y111.484 E.0159
G1 X159.352 Y111.852 E.0159
G1 X158.984 Y112.201 E.0159
G1 X158.598 Y112.53 E.0159
G1 X158.196 Y112.839 E.0159
G1 X157.778 Y113.127 E.01592
G1 X157.345 Y113.392 E.01592
G1 X156.899 Y113.634 E.01591
G1 X156.441 Y113.852 E.0159
G1 X155.973 Y114.046 E.01588
G1 X155.494 Y114.216 E.01594
G1 X155.008 Y114.36 E.01589
G1 X154.515 Y114.478 E.01589
G1 X154.016 Y114.571 E.01592
G1 X153.513 Y114.637 E.01591
G1 X153.007 Y114.677 E.01591
G1 X152.5 Y114.69 E.0159
G1 X151.993 Y114.677 E.0159
G1 X92.002 Y109.651 E1.88756
G1 X91.288 Y109.53 E.02271
G1 X90.59 Y109.283 E.02322
G1 X89.973 Y108.943 E.02209
G1 X89.464 Y108.555 E.02007
G1 X89.02 Y108.134 E.01918
G1 X88.591 Y107.567 E.02229
G1 X88.216 Y106.908 E.02377
G1 X87.984 Y106.24 E.02217
G1 X87.848 Y105.484 E.02408
G1 X87.817 Y104.757 E.02282
G1 X87.913 Y104.023 E.02321
G1 X88.118 Y103.348 E.02212
G1 X88.332 Y102.864 E.01659
G1 X88.588 Y102.425 E.01593
G1 X88.977 Y101.912 E.02019
;WIPE_START
G1 F8640
G1 X89.013 Y101.864 E-.01385
G1 X89.551 Y101.354 E-.17117
G1 X90.134 Y100.958 E-.16273
G1 X90.603 Y100.718 E-.12165
G1 X91.075 Y100.539 E-.11656
G1 X91.764 Y100.369 E-.16386
G1 X91.981 Y100.351 E-.05018
;WIPE_END
G1 Z.8 F10800
G1 X151.667 Y100.936
G1 Z.2
G1 E.8 F2100
;TYPE:Perimeter
G1 F1200
G1 X152.397 Y100.841 E.02308
G1 X152.999 Y100.872 E.0189
G1 X153.573 Y100.995 E.01841
G1 X154.081 Y101.152 E.01667
G1 X154.789 Y101.521 E.02503
G1 X155.371 Y101.989 E.02342
G1 X155.722 Y102.39 E.01671
G1 X156.041 Y102.816 E.01669
G1 X156.348 Y103.419 E.02122
G1 X156.532 Y103.984 E.01863
G1 X156.624 Y104.567 E.01851
G1 X156.659 Y105.097 E.01665
G1 X156.589 Y105.769 E.02118
G1 X156.435 Y106.342 E.0186
G1 X156.195 Y106.881 E.0185
G1 X155.935 Y107.347 E.01673
G1 X155.51 Y107.872 E.02118
G1 X155.11 Y108.222 E.01667
G1 X154.704 Y108.53 E.01598
G1 X154.26 Y108.771 E.01584
G1 X153.781 Y108.944 E.01597
G1 X153.27 Y109.088 E.01665
G1 X152.597 Y109.159 E.02122
G1 X151.731 Y109.089 E.02724
G1 X151.078 Y108.912 E.02121
G1 X150.317 Y108.542 E.02653
G1 X149.629 Y108.011 E.02725
G1 X149.065 Y107.348 E.02729
G1 X148.726 Y106.755 E.02142
G1 X148.452 Y105.961 E.02634
G1 X148.341 Y105.099 E.02725
G1 X148.411 Y104.232 E.02727
G1 X148.66 Y103.398 E.02729
G1 X149.077 Y102.635 E.02726
G1 X149.505 Y102.11 E.02124
G1 X150.148 Y101.568 E.02637
G1 X150.739 Y101.229 E.02136
G1 X151.539 Y100.952 E.02654
G1 X151.608 Y100.943 E.00218
G1 X151.608 Y100.943 F10800
G1 X151.722 Y101.303
G1 F1200
G1 X152.436 Y101.216 E.02255
G1 X152.97 Y101.248 E.01677
G1 X153.476 Y101.359 E.01624
G1 X153.911 Y101.488 E.01423
G1 X154.575 Y101.832 E.02345
G1 X155.134 Y102.282 E.0225
G1 X155.641 Y102.889 E.0248
G1 X156.012 Y103.589 E.02484
G1 X156.17 Y104.091 E.0165
G1 X156.249 Y104.606 E.01634
G1 X156.284 Y105.059 E.01425
G1 X156.214 Y105.73 E.02115
G1 X156.073 Y106.234 E.01641
G1 X155.859 Y106.71 E.01636
G1 X155.641 Y107.111 E.01431
G1 X155.217 Y107.635 E.02113
G1 X154.61 Y108.142 E.0248
G1 X154.152 Y108.401 E.0165
G1 X153.665 Y108.585 E.01632
G1 X153.229 Y108.714 E.01426
G1 X152.558 Y108.784 E.02115
G1 X151.771 Y108.714 E.02477
G1 X151.185 Y108.55 E.01908
G1 X150.489 Y108.206 E.02434
G1 X149.866 Y107.718 E.02481
G1 X149.358 Y107.11 E.02484
G1 X149.058 Y106.576 E.0192
G1 X148.811 Y105.844 E.02422
G1 X148.716 Y105.059 E.02479
G1 X148.786 Y104.271 E.0248
G1 X149.019 Y103.515 E.0248
G1 X149.404 Y102.823 E.02483
G1 X149.792 Y102.355 E.01906
G1 X150.386 Y101.861 E.02422
G1 X150.919 Y101.56 E.01919
G1 X151.655 Y101.311 E.02436
G1 X151.663 Y101.31 E.00025
G1 X151.663 Y101.31 F10800
G1 X151.772 Y101.67
;TYPE:External perimeter
G1 F1200
G1 X152.476 Y101.591 E.02221
G1 X153.018 Y101.63 E.01704
G1 X153.703 Y101.81 E.02221
G1 X154.361 Y102.143 E.02312
G1 X154.897 Y102.576 E.0216
G1 X155.348 Y103.127 E.02233
G1 X155.676 Y103.76 E.02235
G1 X155.832 Y104.276 E.0169
G1 X155.909 Y104.98 E.02221
G1 X155.839 Y105.69 E.02237
G1 X155.687 Y106.212 E.01705
G1 X155.37 Y106.84 E.02206
G1 X154.924 Y107.397 E.02237
G1 X154.373 Y107.848 E.02233
G1 X153.901 Y108.109 E.01691
G1 X153.228 Y108.33 E.02221
G1 X152.52 Y108.409 E.02234
G1 X151.81 Y108.339 E.02237
G1 X151.292 Y108.188 E.01692
G1 X150.66 Y107.87 E.02218
G1 X150.103 Y107.424 E.02237
G1 X149.652 Y106.873 E.02233
G1 X149.39 Y106.396 E.01706
G1 X149.17 Y105.728 E.02205
G1 X149.091 Y105.02 E.02234
G1 X149.161 Y104.311 E.02234
G1 X149.378 Y103.631 E.02238
G1 X149.731 Y103.012 E.02234
G1 X150.078 Y102.6 E.01689
G1 X150.623 Y102.154 E.02208
G1 X151.099 Y101.891 E.01705
G1 X151.715 Y101.688 E.02034
;WIPE_START
G1 F8640
G1 X151.772 Y101.67 E-.0138
G1 X152.476 Y101.591 E-.16358
G1 X153.018 Y101.63 E-.12547
G1 X153.703 Y101.81 E-.16354
G1 X154.361 Y102.143 E-.17028
G1 X154.897 Y102.576 E-.1591
G1 X154.909 Y102.59 E-.00423
;WIPE_END
G1 Z.8 F10800
G1 X154.654 Y101.323
G1 Z.2
G1 E.8 F2100
;TYPE:Solid infill
;WIDTH:0.420365
G1 F1200
G1 X149.873 Y96.542 E.2122
G1 X149.38 Y96.583 E.01553
G1 X153.479 Y100.682 E.18193
G1 X153.226 Y100.613 E.00823
G1 X152.846 Y100.583 E.01196
G1 X148.887 Y96.624 E.17572
G1 X148.395 Y96.665 E.01549
G1 X152.302 Y100.572 E.17341
G1 X151.823 Y100.627 E.01513
G1 X147.902 Y96.707 E.17401
G1 X147.41 Y96.748 E.01549
G1 X151.373 Y100.711 E.1759
G1 X150.969 Y100.841 E.01332
G1 X146.917 Y96.789 E.17985
G1 X146.425 Y96.83 E.01549
G1 X150.585 Y100.991 E.18466
G1 X150.239 Y101.179 E.01236
G1 X145.932 Y96.872 E.19116
G1 X145.44 Y96.913 E.01549
G1 X149.918 Y101.391 E.19875
G1 X149.623 Y101.63 E.01192
G1 X144.947 Y96.954 E.20754
G1 X144.455 Y96.995 E.01549
G1 X149.338 Y101.879 E.21675
G1 X149.088 Y102.163 E.01187
G1 X143.962 Y97.037 E.22752
G1 X143.47 Y97.078 E.01549
G1 X148.854 Y102.462 E.23897
G1 X148.656 Y102.799 E.01227
G1 X142.977 Y97.119 E.25208
G1 X142.485 Y97.16 E.01549
G1 X148.466 Y103.142 E.26549
G1 X148.322 Y103.532 E.01305
M73 Q3 S28
G1 X141.992 Y97.202 E.28095
G1 X141.5 Y97.243 E.01549
M73 P3 R27
G1 X148.194 Y103.937 E.29711
G1 X148.149 Y104.08 E.0047
G1 X148.116 Y104.393 E.00988
G1 X141.007 Y97.284 E.31553
G1 X140.514 Y97.326 E.01553
G1 X148.065 Y104.876 E.33513
G1 X148.052 Y105 E.00391
G1 X148.099 Y105.444 E.01401
G1 X140.022 Y97.367 E.35849
G1 X139.529 Y97.408 E.01553
G1 X148.458 Y106.336 E.39629
;WIPE_START
G1 F8640
G1 X146.008 Y103.886 E-.8
;WIPE_END
G1 Z.8 F10800
G1 X159.798 Y100.062
G1 Z.2
G1 E.8 F2100
G1 F1200
G1 X158.618 Y98.881 E.0524
G1 X157.944 Y98.275 E.02845
G1 X157.587 Y98.001 E.01412
G1 X156.826 Y97.507 E.02847
G1 X156.588 Y97.385 E.00839
G1 X160.115 Y100.912 E.15654
G1 X160.404 Y101.481 E.02003
G1 X160.563 Y101.894 E.01389
G1 X155.606 Y96.937 E.22001
G1 X155.174 Y96.771 E.01452
G1 X154.808 Y96.673 E.01189
G1 X160.827 Y102.692 E.26715
G1 X160.963 Y103.201 E.01654
G1 X160.994 Y103.392 E.00607
G1 X154.108 Y96.506 E.30563
G1 X153.473 Y96.406 E.02017
G1 X161.094 Y104.027 E.33826
G1 X161.141 Y104.607 E.01826
G1 X152.901 Y96.368 E.36571
G1 X152.353 Y96.353 E.01721
G1 X161.141 Y105.141 E.39005
G1 X161.125 Y105.658 E.01623
M73 Q3 S27
G1 X151.843 Y96.377 E.41196
G1 X151.35 Y96.418 E.01553
G1 X161.068 Y106.136 E.43133
G1 X160.995 Y106.597 E.01465
G1 X150.858 Y96.459 E.44995
G1 X150.365 Y96.5 E.01553
G1 X160.9 Y107.035 E.46759
G1 X160.787 Y107.456 E.01368
G1 X156.569 Y103.238 E.18721
G1 X156.641 Y103.378 E.00494
G1 X156.837 Y104.04 E.02167
G1 X160.657 Y107.86 E.16955
G1 X160.509 Y108.246 E.01297
G1 X156.912 Y104.648 E.15967
G1 X156.948 Y105 E.01111
G1 X156.927 Y105.198 E.00625
G1 X160.352 Y108.622 E.152
G1 X160.172 Y108.976 E.01246
G1 X156.878 Y105.682 E.1462
G1 X156.856 Y105.894 E.00669
G1 X156.788 Y106.126 E.00759
G1 X159.991 Y109.329 E.14216
G1 X159.782 Y109.653 E.0121
G1 X156.665 Y106.537 E.13832
G1 X156.639 Y106.627 E.00294
G1 X156.497 Y106.903 E.00974
G1 X159.572 Y109.978 E.13648
G1 X159.346 Y110.285 E.01196
G1 X156.316 Y107.255 E.13449
G1 X156.23 Y107.422 E.0059
G1 X156.104 Y107.578 E.00629
G1 X159.105 Y110.578 E.13318
G1 X158.852 Y110.859 E.01187
