; generated by PrusaSlicer 2.7.4 on 2024-05-09 at 10:12:21 UTC

; 

; external perimeters extrusion width = 0.40mm
; perimeters extrusion width = 0.40mm
; infill extrusion width = 0.40mm
; solid infill extrusion width = 0.40mm
; top infill extrusion width = 0.40mm
; first layer extrusion width = 0.42mm

M73 P0 R56
M73 Q0 S56
;TYPE:Custom
; M862.3 P "MK3S" ; printer model check
M862.1 P0.4 ; nozzle diameter check
M115 U3.9.0 ; tell printer latest fw version
G90 ; use absolute coordinates
M83 ; extruder relative mode
M104 S215 ; set extruder temp
M140 S68 ; set bed temp
M190 S68 ; wait for bed temp
M109 S215 ; wait for extruder temp
G28 W ; home all without mesh bed level
G80 ; mesh bed leveling
G1 Y-3.0 F1000.0 ; go outside print area
G92 E0.0
G1 X60.0 E9.0 F1000.0 ; intro line
G1 X100.0 E12.5 F1000.0 ; intro line
G92 E0.0
M221 S95
G21 ; set units to millimeters
G90 ; use absolute coordinates
M83 ; use relative distances for extrusion
M900 K0.06 ; Filament gcode LA 1.5
M900 K30 ; Filament gcode LA 1.0
M107
;LAYER_CHANGE
;Z:0.2
;HEIGHT:0.2
G1 E-.8 F2100
G1 Z.8 F10800
G1 X109.915 Y58.876
G1 Z.2
G1 E.8 F2100
M204 S1000
;TYPE:Skirt/Brim
;WIDTH:0.42
G1 F1200
G1 X110.9 Y57.345 E.05708
G1 X112.045 Y55.919 E.05734
G1 X112.782 Y55.145 E.03351
G1 X114.113 Y53.957 E.05594
G1 X115.588 Y52.893 E.05702
G1 X117.167 Y51.989 E.05705
G1 X118.831 Y51.256 E.05701
G1 X120.443 Y50.732 E.05315
G1 X122.22 Y50.347 E.05701
G1 X124.028 Y50.151 E.05702
G1 X125.847 Y50.144 E.05703
G1 X126.941 Y50.234 E.03442
G1 X128.674 Y50.516 E.05505
G1 X130.429 Y50.993 E.05702
G1 X132.124 Y51.651 E.05701
G1 X133.742 Y52.483 E.05705
G1 X135.163 Y53.406 E.05313
G1 X136.581 Y54.545 E.05703
G1 X137.331 Y55.257 E.03242
G1 X138.543 Y56.613 E.05702
G1 X139.607 Y58.088 E.05702
G1 X140.505 Y59.657 E.05668
G1 X141.2 Y61.215 E.05349
G1 X141.768 Y62.943 E.05703
G1 X142.153 Y64.72 E.05701
G1 X142.349 Y66.528 E.05702
G1 X142.376 Y67.562 E.03243
G1 X137.359 Y148.172 E2.53236
G1 X137.119 Y150.012 E.05818
M73 P0 R55
G1 X136.577 Y151.877 E.0609
G1 X135.687 Y153.742 E.06479
G1 X135.049 Y154.724 E.03672
G1 X134.24 Y155.734 E.04057
G1 X132.837 Y157.079 E.06094
G1 X131.134 Y158.249 E.06478
G1 X130.091 Y158.781 E.03671
G1 X128.884 Y159.251 E.04061
G1 X126.998 Y159.714 E.06089
G1 X124.938 Y159.876 E.06479
G1 X123.768 Y159.815 E.03673
G1 X122.488 Y159.619 E.0406
G1 X120.623 Y159.077 E.0609
G1 X118.866 Y158.249 E.0609
G1 X117.163 Y157.079 E.06478
G1 X116.293 Y156.295 E.03672
G1 X115.422 Y155.338 E.04057
G1 X114.313 Y153.742 E.06094
G1 X113.426 Y151.885 E.06453
G1 X112.883 Y150.02 E.0609
G1 X112.641 Y148.172 E.05844
G1 X107.624 Y67.438 E2.53624
G1 X107.724 Y65.633 E.05668
G1 X107.991 Y63.948 E.05349
G1 X108.452 Y62.201 E.05665
G1 X109.096 Y60.5 E.05703
G1 X109.888 Y58.929 E.05516
;WIPE_START
G1 F8640
G1 X109.915 Y58.876 E-.01373
G1 X110.9 Y57.345 E-.42036
G1 X111.892 Y56.11 E-.36591
;WIPE_END
G1 Z.8 F10800
G1 X112.932 Y60.532
G1 Z.2
G1 E.8 F2100
;TYPE:Perimeter
;WIDTH:0.419999
G1 F1200
G1 X113.313 Y59.91 E.02287
G1 X113.726 Y59.309 E.02286
G1 X114.17 Y58.73 E.02288
G1 X114.644 Y58.175 E.02288
G1 X115.146 Y57.646 E.02287
G1 X115.675 Y57.144 E.02287
G1 X116.23 Y56.67 E.02288
G1 X116.809 Y56.226 E.02288
G1 X117.41 Y55.813 E.02286
G1 X118.032 Y55.432 E.02287
G1 X118.673 Y55.083 E.02288
G1 X119.332 Y54.769 E.02289
G1 X120.006 Y54.49 E.02287
G1 X120.694 Y54.247 E.02288
G1 X121.393 Y54.039 E.02287
G1 X122.103 Y53.869 E.02289
G1 X122.82 Y53.736 E.02286
G1 X123.543 Y53.641 E.02286
G1 X124.27 Y53.584 E.02286
G1 X125.007 Y53.565 E.02312
G1 X125.729 Y53.584 E.02265
G1 X126.457 Y53.641 E.0229
G1 X127.18 Y53.736 E.02286
G1 X127.897 Y53.869 E.02286
G1 X128.607 Y54.039 E.02289
G1 X129.306 Y54.247 E.02287
G1 X129.994 Y54.49 E.02288
G1 X130.668 Y54.769 E.02287
G1 X131.327 Y55.083 E.02289
G1 X131.968 Y55.432 E.02288
G1 X132.59 Y55.813 E.02287
G1 X133.191 Y56.226 E.02286
G1 X133.77 Y56.67 E.02288
G1 X134.325 Y57.144 E.02288
G1 X134.854 Y57.646 E.02287
G1 X135.356 Y58.175 E.02287
G1 X135.83 Y58.73 E.02288
G1 X136.274 Y59.309 E.02288
G1 X136.687 Y59.91 E.02286
G1 X137.068 Y60.532 E.02287
G1 X137.417 Y61.173 E.02288
G1 X137.731 Y61.832 E.02289
G1 X138.01 Y62.506 E.02287
G1 X138.253 Y63.194 E.02288
G1 X138.461 Y63.893 E.02287
M73 Q0 S55
G1 X138.598 Y64.465 E.01844
G1 X138.804 Y65.624 E.03691
G1 X138.874 Y66.233 E.01922
G1 X138.92 Y66.912 E.02134
G1 X138.935 Y67.5 E.01844
G1 X138.916 Y68.238 E.02315
G1 X133.929 Y147.877 E2.50191
G1 X133.887 Y148.434 E.01751
G1 X133.783 Y149.128 E.022
G1 X133.631 Y149.813 E.022
G1 X133.42 Y150.482 E.02199
G1 X133.163 Y151.134 E.02197
G1 X132.85 Y151.762 E.022
G1 X132.494 Y152.367 E.02201
G1 X132.087 Y152.938 E.02199
G1 X131.64 Y153.479 E.022
G1 X131.149 Y153.979 E.02197
G1 X130.623 Y154.444 E.02201
G1 X130.059 Y154.861 E.02199
G1 X129.468 Y155.238 E.02198
G1 X128.846 Y155.562 E.02199
G1 X128.202 Y155.842 E.02202
G1 X127.537 Y156.065 E.02199
G1 X126.858 Y156.24 E.02199
G1 X126.166 Y156.356 E.022
G1 X125.468 Y156.423 E.02199
G1 X124.766 Y156.429 E.02201
G1 X124.066 Y156.387 E.02199
G1 X123.372 Y156.283 E.022
G1 X122.687 Y156.131 E.022
G1 X122.018 Y155.92 E.02199
G1 X121.366 Y155.663 E.02197
G1 X120.738 Y155.35 E.022
G1 X120.133 Y154.994 E.02201
G1 X119.563 Y154.587 E.02196
G1 X119.018 Y154.138 E.02214
G1 X118.52 Y153.648 E.02191
G1 X118.056 Y153.123 E.02197
G1 X117.639 Y152.559 E.02199
G1 X117.262 Y151.968 E.02198
G1 X116.938 Y151.345 E.02202
G1 X116.658 Y150.702 E.02199
G1 X116.436 Y150.037 E.02198
G1 X116.26 Y149.358 E.02199
G1 X116.144 Y148.666 E.022
G1 X116.075 Y147.948 E.02262
G1 X111.084 Y68.238 E2.50414
G1 X111.065 Y67.5 E.02315
G1 X111.084 Y66.771 E.02287
G1 X111.141 Y66.043 E.0229
G1 X111.236 Y65.32 E.02286
G1 X111.369 Y64.603 E.02286
G1 X111.539 Y63.893 E.02289
G1 X111.747 Y63.194 E.02287
G1 X111.99 Y62.506 E.02288
G1 X112.267 Y61.838 E.02267
G1 X112.584 Y61.173 E.0231
G1 X112.903 Y60.585 E.02097
G1 X112.903 Y60.585 F10800
G1 X112.605 Y60.344
G1 F1200
G1 X112.996 Y59.705 E.02349
G1 X113.421 Y59.087 E.02352
G1 X113.877 Y58.493 E.02348
G1 X114.364 Y57.923 E.02351
G1 X114.879 Y57.379 E.02349
G1 X115.423 Y56.864 E.02349
G1 X115.993 Y56.377 E.02351
G1 X116.587 Y55.921 E.02348
G1 X117.205 Y55.496 E.02352
G1 X117.844 Y55.105 E.02349
G1 X118.502 Y54.747 E.02349
G1 X119.178 Y54.425 E.02348
G1 X119.871 Y54.138 E.02352
G1 X120.577 Y53.888 E.02348
G1 X121.296 Y53.675 E.02351
G1 X122.024 Y53.5 E.02348
G1 X122.761 Y53.364 E.0235
G1 X123.504 Y53.266 E.0235
G1 X124.251 Y53.207 E.02349
G1 X125.007 Y53.187 E.02371
G1 X125.749 Y53.207 E.02327
G1 X126.496 Y53.266 E.02349
G1 X127.239 Y53.364 E.0235
G1 X127.976 Y53.5 E.0235
G1 X128.704 Y53.675 E.02348
G1 X129.423 Y53.888 E.02351
G1 X130.129 Y54.138 E.02348
G1 X130.822 Y54.425 E.02352
G1 X131.498 Y54.747 E.02348
G1 X132.156 Y55.105 E.02349
G1 X132.795 Y55.496 E.02349
G1 X133.413 Y55.921 E.02352
G1 X134.007 Y56.377 E.02348
G1 X134.577 Y56.864 E.02351
G1 X135.121 Y57.379 E.02349
G1 X135.636 Y57.923 E.02349
G1 X136.123 Y58.493 E.02351
G1 X136.579 Y59.087 E.02348
G1 X137.004 Y59.705 E.02352
G1 X137.395 Y60.344 E.02349
G1 X137.753 Y61.002 E.02349
G1 X138.075 Y61.678 E.02348
G1 X138.362 Y62.371 E.02352
G1 X138.612 Y63.077 E.02348
G1 X138.825 Y63.796 E.02351
G1 X138.965 Y64.377 E.01874
G1 X139.178 Y65.575 E.03815
G1 X139.25 Y66.203 E.01982
G1 X139.297 Y66.902 E.02197
G1 X139.313 Y67.5 E.01876
M73 Q1 S55
G1 X139.293 Y68.255 E.02368
G1 X134.306 Y147.901 E2.50213
G1 X134.262 Y148.473 E.01799
M73 P1 R55
G1 X134.154 Y149.197 E.02295
G1 X133.995 Y149.91 E.0229
G1 X133.776 Y150.608 E.02294
G1 X133.508 Y151.288 E.02292
G1 X133.181 Y151.942 E.02293
G1 X132.81 Y152.572 E.02292
G1 X132.386 Y153.167 E.02291
G1 X131.921 Y153.731 E.02292
G1 X131.408 Y154.253 E.02295
G1 X130.861 Y154.737 E.0229
G1 X130.273 Y155.172 E.02293
G1 X129.656 Y155.565 E.02294
G1 X129.008 Y155.903 E.02292
G1 X128.337 Y156.194 E.02293
G1 X127.644 Y156.426 E.02291
G1 X126.936 Y156.609 E.02293
G1 X126.215 Y156.73 E.02292
G1 X125.487 Y156.8 E.02293
G1 X124.756 Y156.806 E.02292
G1 X124.027 Y156.762 E.0229
G1 X123.304 Y156.654 E.02292
G1 X122.59 Y156.495 E.02294
G1 X121.892 Y156.275 E.02295
G1 X121.212 Y156.008 E.02291
G1 X120.558 Y155.681 E.02293
G1 X119.928 Y155.31 E.02292
G1 X119.333 Y154.886 E.02291
G1 X118.766 Y154.418 E.02305
G1 X118.247 Y153.908 E.02281
G1 X117.763 Y153.361 E.0229
G1 X117.328 Y152.773 E.02293
G1 X116.935 Y152.156 E.02294
G1 X116.597 Y151.508 E.02292
G1 X116.306 Y150.837 E.02293
G1 X116.074 Y150.145 E.02288
G1 X115.891 Y149.436 E.02296
G1 X115.77 Y148.715 E.02292
G1 X115.699 Y147.975 E.02331
G1 X110.707 Y68.255 E2.50446
G1 X110.687 Y67.5 E.02368
G1 X110.707 Y66.751 E.02349
G1 X110.766 Y66.004 E.02349
G1 X110.864 Y65.261 E.0235
G1 X111 Y64.524 E.0235
G1 X111.175 Y63.796 E.02348
G1 X111.388 Y63.077 E.02351
G1 X111.638 Y62.371 E.02348
G1 X111.922 Y61.685 E.02328
G1 X112.247 Y61.002 E.02372
G1 X112.576 Y60.396 E.02162
G1 X112.576 Y60.396 F10800
G1 X112.278 Y60.155
;TYPE:External perimeter
G1 F1200
G1 X112.68 Y59.499 E.02412
G1 X113.116 Y58.865 E.02413
G1 X113.584 Y58.255 E.02411
G1 X114.083 Y57.671 E.02408
G1 X114.613 Y57.113 E.02413
G1 X115.171 Y56.583 E.02413
G1 X115.755 Y56.084 E.02408
G1 X116.365 Y55.616 E.02411
G1 X116.999 Y55.18 E.02413
G1 X117.655 Y54.778 E.02412
G1 X118.331 Y54.411 E.02412
G1 X119.025 Y54.08 E.02411
G1 X119.736 Y53.786 E.02412
G1 X120.461 Y53.529 E.02412
G1 X121.198 Y53.311 E.0241
G1 X121.946 Y53.131 E.02412
G1 X122.702 Y52.991 E.02411
G1 X123.464 Y52.891 E.0241
G1 X124.231 Y52.83 E.02412
G1 X125.007 Y52.81 E.02434
G1 X125.769 Y52.83 E.0239
G1 X126.536 Y52.891 E.02412
G1 X127.298 Y52.991 E.0241
G1 X128.054 Y53.131 E.02411
G1 X128.802 Y53.311 E.02412
G1 X129.539 Y53.529 E.0241
G1 X130.264 Y53.786 E.02412
G1 X130.975 Y54.08 E.02412
G1 X131.669 Y54.411 E.02411
G1 X132.345 Y54.778 E.02412
G1 X133.001 Y55.18 E.02412
G1 X133.635 Y55.616 E.02413
G1 X134.245 Y56.084 E.02411
G1 X134.829 Y56.583 E.02408
G1 X135.387 Y57.113 E.02413
G1 X135.917 Y57.671 E.02413
G1 X136.416 Y58.255 E.02408
G1 X136.884 Y58.865 E.02411
G1 X137.32 Y59.499 E.02413
G1 X137.722 Y60.155 E.02412
G1 X138.089 Y60.831 E.02412
G1 X138.42 Y61.525 E.02411
G1 X138.714 Y62.236 E.02412
G1 X138.971 Y62.961 E.02412
G1 X139.189 Y63.698 E.0241
G1 X139.331 Y64.289 E.01906
G1 X139.45 Y64.881 E.01893
G1 X139.552 Y65.525 E.02044
G1 X139.626 Y66.174 E.02048
G1 X139.674 Y66.892 E.02256
G1 X139.69 Y67.5 E.01907
G1 X139.67 Y68.271 E.02418
G1 X134.677 Y148.002 E2.5048
G1 X134.637 Y148.513 E.01607
G1 X134.571 Y149.016 E.01591
G1 X134.478 Y149.515 E.01592
G1 X134.36 Y150.008 E.01589
G1 X134.216 Y150.494 E.01589
G1 X134.046 Y150.973 E.01594
G1 X133.852 Y151.441 E.01588
G1 X133.634 Y151.899 E.0159
G1 X133.392 Y152.345 E.01591
G1 X133.127 Y152.778 E.01592
G1 X132.839 Y153.196 E.01592
G1 X132.53 Y153.598 E.0159
G1 X132.201 Y153.984 E.0159
G1 X131.852 Y154.352 E.0159
G1 X131.484 Y154.701 E.0159
G1 X131.098 Y155.03 E.0159
G1 X130.696 Y155.339 E.0159
G1 X130.277 Y155.627 E.01594
G1 X129.845 Y155.892 E.01589
G1 X129.399 Y156.134 E.01591
G1 X128.941 Y156.352 E.0159
G1 X128.473 Y156.546 E.01588
G1 X127.994 Y156.716 E.01594
G1 X127.508 Y156.86 E.01589
G1 X127.015 Y156.978 E.01589
G1 X126.516 Y157.071 E.01592
G1 X126.013 Y157.137 E.01591
G1 X125.507 Y157.177 E.01591
G1 X125 Y157.19 E.0159
G1 X124.493 Y157.177 E.0159
G1 X123.987 Y157.137 E.01591
G1 X123.484 Y157.071 E.01591
G1 X122.985 Y156.978 E.01592
G1 X122.492 Y156.86 E.01589
G1 X122.006 Y156.716 E.01589
G1 X121.527 Y156.546 E.01594
G1 X121.059 Y156.352 E.01588
G1 X120.601 Y156.134 E.0159
G1 X120.155 Y155.892 E.01591
G1 X119.722 Y155.627 E.01592
G1 X119.304 Y155.339 E.01592
G1 X118.902 Y155.03 E.0159
G1 X118.513 Y154.698 E.01604
G1 X118.148 Y154.352 E.01577
G1 X117.799 Y153.984 E.0159
G1 X117.47 Y153.598 E.0159
G1 X117.161 Y153.196 E.0159
G1 X116.873 Y152.777 E.01594
G1 X116.608 Y152.345 E.01589
G1 X116.366 Y151.899 E.01591
G1 X116.148 Y151.441 E.0159
G1 X115.954 Y150.973 E.01588
G1 X115.786 Y150.498 E.0158
G1 X115.64 Y150.008 E.01603
G1 X115.522 Y149.515 E.01589
G1 X115.429 Y149.016 E.01592
G1 X115.363 Y148.513 E.01591
G1 X115.323 Y148.002 E.01607
G1 X110.33 Y68.271 E2.5048
G1 X110.31 Y67.5 E.02418
G1 X110.33 Y66.731 E.02412
G1 X110.391 Y65.964 E.02412
G1 X110.491 Y65.202 E.0241
G1 X110.631 Y64.446 E.02411
G1 X110.811 Y63.698 E.02412
G1 X111.029 Y62.961 E.0241
G1 X111.286 Y62.236 E.02412
G1 X111.577 Y61.532 E.02388
G1 X111.911 Y60.831 E.02435
G1 X112.25 Y60.208 E.02224
;WIPE_START
G1 F8640
G1 X112.278 Y60.155 E-.01384
G1 X112.68 Y59.499 E-.17765
G1 X113.116 Y58.865 E-.17767
G1 X113.584 Y58.255 E-.17753
G1 X114.083 Y57.671 E-.17737
G1 X114.309 Y57.432 E-.07594
;WIPE_END
G1 Z.8 F10800
G1 X121.929 Y66.793
G1 Z.2
G1 E.8 F2100
;TYPE:Perimeter
G1 F1200
G1 X122.029 Y66.42 E.01211
G1 X122.298 Y65.86 E.01948
G1 X122.696 Y65.336 E.02063
G1 X123.082 Y64.986 E.01634
G1 X123.625 Y64.654 E.01996
G1 X124.247 Y64.43 E.02073
G1 X124.885 Y64.341 E.0202
G1 X125.418 Y64.366 E.01673
G1 X126.04 Y64.515 E.02005
G1 X126.638 Y64.797 E.02073
G1 X127.164 Y65.196 E.0207
G1 X127.596 Y65.697 E.02074
G1 X127.914 Y66.276 E.02071
G1 X128.105 Y66.908 E.0207
G1 X128.161 Y67.426 E.01634
G1 X128.111 Y68.06 E.01994
G1 X127.971 Y68.58 E.01688
G1 X127.702 Y69.14 E.01948
G1 X127.304 Y69.664 E.02063
G1 X126.803 Y70.096 E.02074
G1 X126.353 Y70.358 E.01633
G1 X125.753 Y70.57 E.01995
G1 X125.099 Y70.659 E.02069
G1 X124.44 Y70.611 E.02072
G1 X123.805 Y70.426 E.02074
G1 X123.223 Y70.114 E.0207
G1 X122.817 Y69.788 E.01633
G1 X122.404 Y69.303 E.01997
G1 X122.086 Y68.724 E.02071
G1 X121.895 Y68.092 E.0207
G1 X121.836 Y67.475 E.01943
G1 X121.889 Y66.94 E.01686
G1 X121.913 Y66.851 E.00289
G1 X121.913 Y66.851 F10800
G1 X122.242 Y67.195
G1 F1200
G1 X122.264 Y66.979 E.00681
G1 X122.403 Y66.489 E.01597
G1 X122.633 Y66.032 E.01604
G1 X122.989 Y65.573 E.01821
G1 X123.374 Y65.236 E.01604
G1 X123.814 Y64.981 E.01595
G1 X124.363 Y64.789 E.01824
G1 X124.926 Y64.716 E.0178
G1 X125.436 Y64.747 E.01602
G1 X125.943 Y64.88 E.01643
G1 X126.467 Y65.133 E.01824
G1 X126.927 Y65.49 E.01826
G1 X127.303 Y65.934 E.01824
G1 X127.578 Y66.447 E.01825
G1 X127.741 Y67.006 E.01826
G1 X127.787 Y67.515 E.01602
G1 X127.736 Y68.021 E.01595
G1 X127.572 Y68.567 E.01787
G1 X127.337 Y69.019 E.01597
G1 X127.01 Y69.427 E.01639
G1 X126.566 Y69.803 E.01824
G1 X126.125 Y70.05 E.01585
G1 X125.637 Y70.211 E.01611
G1 X125.059 Y70.284 E.01827
G1 X124.479 Y70.236 E.01825
G1 X123.922 Y70.067 E.01825
G1 X123.412 Y69.787 E.01824
G1 X123.024 Y69.466 E.01579
G1 X122.697 Y69.066 E.0162
G1 X122.422 Y68.553 E.01825
G1 X122.259 Y67.994 E.01826
G1 X122.213 Y67.485 E.01602
G1 X122.236 Y67.254 E.00728
G1 X122.236 Y67.254 F10800
G1 X122.59 Y67.495
;TYPE:External perimeter
G1 F1200
G1 X122.644 Y66.994 E.0158
G1 X122.764 Y66.605 E.01276
G1 X122.99 Y66.171 E.01534
G1 X123.306 Y65.786 E.01562
G1 X123.6 Y65.539 E.01204
G1 X124.038 Y65.291 E.01578
G1 X124.518 Y65.139 E.01579
G1 X125 Y65.091 E.01519
G1 X125.397 Y65.124 E.01249
G1 X125.882 Y65.258 E.01578
G1 X126.329 Y65.49 E.01579
G1 X126.717 Y65.81 E.01577
G1 X127.031 Y66.204 E.0158
G1 X127.256 Y66.655 E.0158
G1 X127.382 Y67.137 E.01562
G1 X127.409 Y67.52 E.01204
G1 X127.354 Y68.016 E.01565
G1 X127.236 Y68.395 E.01245
G1 X127.01 Y68.829 E.01534
G1 X126.69 Y69.217 E.01577
G1 X126.3 Y69.529 E.01566
G1 X125.962 Y69.709 E.01201
G1 X125.482 Y69.861 E.01579
G1 X124.98 Y69.909 E.01581
G1 X124.48 Y69.852 E.01578
G1 X124.002 Y69.693 E.01579
G1 X123.572 Y69.441 E.01563
G1 X123.282 Y69.189 E.01205
G1 X122.969 Y68.796 E.01575
G1 X122.744 Y68.345 E.0158
G1 X122.618 Y67.863 E.01562
G1 X122.594 Y67.555 E.00969
;WIPE_START
G1 F8640
G1 X122.59 Y67.495 E-.01388
G1 X122.644 Y66.994 E-.11635
G1 X122.764 Y66.605 E-.094
G1 X122.99 Y66.171 E-.11298
G1 X123.306 Y65.786 E-.11501
G1 X123.6 Y65.539 E-.08866
G1 X124.038 Y65.291 E-.11622
G1 X124.518 Y65.139 E-.11626
G1 X124.633 Y65.128 E-.02664
;WIPE_END
G1 Z.8 F10800
G1 X123.898 Y70.57
G1 Z.2
G1 E.8 F2100
;TYPE:Solid infill
;WIDTH:0.420248
G1 F1200
G1 X137.627 Y84.299 E.60917
G1 X137.659 Y83.797 E.01578
G1 X124.786 Y70.924 E.57119
G1 X125 Y70.948 E.00676
G1 X125.309 Y70.913 E.00976
