; generated by PrusaSlicer 2.7.4 on 2024-05-09 at 07:37:07 UTC

; 

; external perimeters extrusion width = 0.40mm
; perimeters extrusion width = 0.40mm
; infill extrusion width = 0.40mm
; solid infill extrusion width = 0.40mm
; top infill extrusion width = 0.40mm
; first layer extrusion width = 0.42mm

M73 P0 R140
M73 Q0 S140
;TYPE:Custom
; M862.3 P "MK3S" ; printer model check
M862.1 P0.4 ; nozzle diameter check
M115 U3.9.0 ; tell printer latest fw version
G90 ; use absolute coordinates
M83 ; extruder relative mode
M104 S215 ; set extruder temp
M140 S68 ; set bed temp
M190 S68 ; wait for bed temp
M109 S215 ; wait for extruder temp
G28 W ; home all without mesh bed level
G80 ; mesh bed leveling
G1 Y-3.0 F1000.0 ; go outside print area
G92 E0.0
G1 X60.0 E9.0 F1000.0 ; intro line
G1 X100.0 E12.5 F1000.0 ; intro line
G92 E0.0
M221 S95
G21 ; set units to millimeters
G90 ; use absolute coordinates
M83 ; use relative distances for extrusion
M900 K0.06 ; Filament gcode LA 1.5
M900 K30 ; Filament gcode LA 1.0
M107
;LAYER_CHANGE
;Z:0.2
;HEIGHT:0.2
G1 E-.8 F2100
G1 Z.8 F10800
G1 X86.617 Y69.412
G1 Z.2
G1 E.8 F2100
M204 S1000
;TYPE:Skirt/Brim
;WIDTH:0.42
G1 F1200
G1 X88.008 Y67.92 E.06396
G1 X89.412 Y66.617 E.06006
G1 X99.493 Y59.292 E.39071
G1 X101.277 Y58.304 E.06394
G1 X103.015 Y57.498 E.06007
G1 X114.865 Y53.647 E.39068
G1 X116.868 Y53.259 E.06397
G1 X118.77 Y53.029 E.06007
G1 X131.54 Y53.049 E.40039
G1 X133.255 Y53.278 E.05425
G1 X135.135 Y53.647 E.06007
G1 X146.985 Y57.498 E.39068
G1 X148.834 Y58.361 E.06398
G1 X150.507 Y59.292 E.06003
G1 X160.588 Y66.617 E.39071
G1 X161.992 Y67.92 E.06006
G1 X163.383 Y69.412 E.06396
G1 X170.708 Y79.493 E.39071
G1 X171.639 Y81.166 E.06003
G1 X172.502 Y83.015 E.06398
G1 X176.353 Y94.865 E.39068
G1 X176.722 Y96.745 E.06007
G1 X176.971 Y98.77 E.06397
G1 X176.971 Y111.23 E.39067
G1 X176.741 Y113.132 E.06007
G1 X176.353 Y115.135 E.06397
G1 X172.502 Y126.985 E.39068
G1 X171.639 Y128.834 E.06398
G1 X170.708 Y130.507 E.06003
G1 X163.383 Y140.588 E.39071
G1 X162.08 Y141.992 E.06006
G1 X160.588 Y143.383 E.06396
G1 X150.507 Y150.708 E.39071
G1 X148.834 Y151.639 E.06003
G1 X146.985 Y152.502 E.06398
G1 X135.135 Y156.353 E.39068
G1 X133.255 Y156.722 E.06007
G1 X131.23 Y156.971 E.06397
G1 X118.77 Y156.971 E.39067
G1 X116.868 Y156.741 E.06007
M73 P0 R139
G1 X114.865 Y156.353 E.06397
G1 X103.015 Y152.502 E.39068
G1 X101.166 Y151.639 E.06398
G1 X99.493 Y150.708 E.06003
G1 X89.412 Y143.383 E.39071
G1 X88.008 Y142.08 E.06006
G1 X86.617 Y140.588 E.06396
G1 X79.292 Y130.507 E.39071
G1 X78.361 Y128.834 E.06003
G1 X77.498 Y126.985 E.06398
G1 X73.647 Y115.135 E.39068
G1 X73.278 Y113.255 E.06007
G1 X73.029 Y111.23 E.06397
G1 X73.029 Y98.77 E.39067
G1 X73.259 Y96.868 E.06007
G1 X73.647 Y94.865 E.06397
G1 X77.498 Y83.015 E.39068
G1 X78.361 Y81.166 E.06398
G1 X79.292 Y79.493 E.06003
G1 X86.581 Y69.46 E.38883
;WIPE_START
G1 F8640
G1 X86.617 Y69.412 E-.01385
G1 X88.008 Y67.92 E-.471
G1 X89.008 Y66.991 E-.31515
;WIPE_END
G1 Z.8 F10800
G1 X89.852 Y70.972
G1 Z.2
G1 E.8 F2100
;TYPE:Perimeter
;WIDTH:0.419999
G1 F1200
G1 X90.397 Y70.397 E.02484
G1 X90.972 Y69.852 E.02484
G1 X93.999 Y71.552 E.10885
G1 X94.984 Y71.955 E.03337
G1 X95.887 Y72.163 E.02905
G1 X96.518 Y72.224 E.01988
G1 X97.153 Y72.219 E.01991
G1 X97.784 Y72.148 E.01991
G1 X98.428 Y72.002 E.0207
G1 X99.326 Y71.671 E.03001
G1 X100.13 Y71.225 E.02883
G1 X100.64 Y70.848 E.01989
G1 X101.108 Y70.419 E.01991
G1 X101.544 Y69.923 E.02071
G1 X102.062 Y69.156 E.02902
G1 X102.305 Y68.679 E.01678
G1 X102.655 Y67.689 E.03292
G1 X102.782 Y67.066 E.01994
G1 X102.843 Y66.417 E.02044
G1 X102.811 Y65.484 E.02927
G1 X102.721 Y64.919 E.01794
G1 X102.088 Y61.776 E.10053
G1 X102.784 Y61.398 E.02483
G1 X103.499 Y61.057 E.02484
G1 X105.672 Y63.413 E.10049
G1 X106.004 Y63.751 E.01486
G1 X106.39 Y64.092 E.01615
G1 X106.906 Y64.461 E.01989
G1 X107.371 Y64.729 E.01683
G1 X107.871 Y64.945 E.01708
G1 X108.341 Y65.131 E.01585
G1 X108.955 Y65.29 E.01989
G1 X109.608 Y65.385 E.02069
G1 X110.534 Y65.401 E.02904
G1 X111.335 Y65.294 E.02534
G1 X112.061 Y65.095 E.0236
G1 X112.762 Y64.826 E.02354
G1 X113.241 Y64.575 E.01696
G1 X113.771 Y64.225 E.01991
G1 X114.261 Y63.822 E.01989
G1 X114.706 Y63.37 E.01989
G1 X115.101 Y62.873 E.01991
G1 X115.453 Y62.316 E.02066
G1 X115.845 Y61.476 E.02906
G1 X116.039 Y60.853 E.02046
G1 X116.197 Y59.996 E.02732
G1 X116.566 Y56.811 E.10053
G1 X117.345 Y56.667 E.02484
G1 X118.13 Y56.564 E.02482
G1 X119.58 Y59.719 E.10887
G1 X120.14 Y60.623 E.03334
G1 X120.748 Y61.322 E.02905
G1 X121.223 Y61.743 E.0199
G1 X121.739 Y62.112 E.01989
G1 X122.291 Y62.425 E.0199
G1 X122.873 Y62.678 E.0199
G1 X123.478 Y62.869 E.01989
G1 X124.1 Y62.996 E.0199
G1 X124.732 Y63.057 E.01991
G1 X125.391 Y63.049 E.02066
G1 X126.309 Y62.92 E.02907
G1 X126.921 Y62.751 E.01991
G1 X127.511 Y62.519 E.01988
G1 X128.095 Y62.212 E.02069
G1 X128.854 Y61.681 E.02904
G1 X129.322 Y61.252 E.01991
G1 X129.743 Y60.777 E.0199
G1 X130.112 Y60.26 E.01992
G1 X130.42 Y59.719 E.01952
G1 X131.87 Y56.564 E.10887
G1 X132.655 Y56.667 E.02482
G1 X133.434 Y56.811 E.02484
G1 X133.852 Y60.347 E.11164
G1 X133.989 Y60.966 E.01988
G1 X134.19 Y61.568 E.0199
G1 X134.453 Y62.146 E.01991
G1 X134.79 Y62.713 E.02068
G1 X135.36 Y63.443 E.02904
G1 X135.813 Y63.888 E.01991
G1 X136.495 Y64.397 E.02668
G1 X137.124 Y64.774 E.02299
G1 X137.706 Y65.027 E.0199
G1 X138.311 Y65.218 E.01989
G1 X138.933 Y65.345 E.0199
G1 X139.565 Y65.406 E.01991
G1 X140.199 Y65.401 E.01988
G1 X140.83 Y65.33 E.01991
G1 X141.473 Y65.185 E.02067
G1 X142.23 Y64.917 E.02518
G1 X143.196 Y64.393 E.03446
G1 X143.926 Y63.822 E.02906
G1 X144.331 Y63.416 E.01798
G1 X146.502 Y61.057 E.10052
G1 X147.216 Y61.398 E.02481
G1 X147.913 Y61.776 E.02486
G1 X147.283 Y64.919 E.10051
G1 X147.205 Y65.386 E.01485
G1 X147.157 Y65.899 E.01615
G1 X147.172 Y66.63 E.02292
G1 X147.239 Y67.188 E.01762
G1 X147.463 Y68.088 E.02908
G1 X147.695 Y68.678 E.01988
G1 X147.988 Y69.241 E.0199
G1 X148.338 Y69.771 E.01991
G1 X148.741 Y70.261 E.01989
G1 X149.193 Y70.706 E.01989
G1 X149.711 Y71.114 E.02067
G1 X150.505 Y71.592 E.02906
G1 X151.087 Y71.845 E.0199
G1 X151.692 Y72.036 E.01989
G1 X152.314 Y72.163 E.0199
G1 X152.946 Y72.224 E.01991
G1 X153.599 Y72.217 E.02048
G1 X154.211 Y72.148 E.01931
G1 X154.782 Y72.025 E.01831
G1 X155.276 Y71.853 E.0164
G1 X156.001 Y71.552 E.02461
G1 X159.028 Y69.852 E.10885
G1 X159.603 Y70.397 E.02484
G1 X160.148 Y70.972 E.02484
G1 X158.448 Y73.999 E.10885
G1 X158.155 Y74.659 E.02264
G1 X157.976 Y75.213 E.01825
G1 X157.797 Y76.221 E.0321
G1 X157.77 Y76.836 E.0193
G1 X157.808 Y77.469 E.01988
G1 X157.919 Y78.119 E.02068
G1 X158.19 Y79.005 E.02905
G1 X158.453 Y79.583 E.01991
G1 X158.775 Y80.13 E.0199
G1 X159.152 Y80.64 E.01989
G1 X159.581 Y81.108 E.01991
G1 X160.056 Y81.529 E.0199
G1 X160.572 Y81.898 E.01989
G1 X161.124 Y82.211 E.0199
G1 X161.706 Y82.464 E.0199
G1 X162.311 Y82.655 E.01989
G1 X163.037 Y82.793 E.02317
G1 X163.565 Y82.843 E.01663
G1 X164.309 Y82.827 E.02333
G1 X164.819 Y82.769 E.01609
G1 X168.224 Y82.087 E.10888
G1 X168.602 Y82.784 E.02486
G1 X168.943 Y83.498 E.02481
G1 X166.584 Y85.669 E.10052
G1 X166.043 Y86.233 E.0245
G1 X165.704 Y86.664 E.01719
G1 X165.271 Y87.371 E.02599
G1 X164.869 Y88.341 E.03292
G1 X164.71 Y88.955 E.01989
G1 X164.616 Y89.582 E.01988
G1 X164.588 Y90.217 E.01993
G1 X164.626 Y90.85 E.01988
G1 X164.741 Y91.512 E.02107
G1 X165.006 Y92.38 E.02846
G1 X165.271 Y92.964 E.02011
G1 X165.607 Y93.53 E.02064
G1 X166.178 Y94.261 E.02908
G1 X166.63 Y94.706 E.01989
G1 X167.051 Y95.047 E.01699
G1 X167.474 Y95.314 E.01568
G1 X168.037 Y95.634 E.0203
G1 X168.524 Y95.845 E.01664
G1 X169.129 Y96.036 E.01989
G1 X169.74 Y96.162 E.01956
G1 X173.189 Y96.566 E.10888
G1 X173.333 Y97.345 E.02484
G1 X173.436 Y98.13 E.02482
G1 X170.281 Y99.58 E.10887
G1 X169.497 Y100.053 E.02871
G1 X169.095 Y100.381 E.01627
G1 X168.601 Y100.833 E.02099
G1 X168.257 Y101.223 E.01631
G1 X167.888 Y101.739 E.01989
G1 X167.575 Y102.291 E.0199
G1 X167.315 Y102.897 E.02068
G1 X167.059 Y103.788 E.02907
G1 X166.965 Y104.415 E.01988
G1 X166.956 Y105.296 E.02762
G1 X167.019 Y105.997 E.02207
G1 X167.156 Y106.617 E.01991
G1 X167.322 Y107.126 E.01679
G1 X167.731 Y108.001 E.03028
G1 X168.319 Y108.854 E.03248
G1 X168.748 Y109.322 E.01991
G1 X169.243 Y109.757 E.02066
G1 X170.011 Y110.275 E.02905
G1 X170.522 Y110.535 E.01798
G1 X173.436 Y111.87 E.1005
G1 X173.337 Y112.628 E.02397
G1 X173.189 Y113.434 E.02569
G1 X170.004 Y113.803 E.10053
G1 X169.318 Y113.919 E.02181
G1 X168.432 Y114.19 E.02905
G1 X167.854 Y114.453 E.01991
G1 X167.307 Y114.775 E.0199
G1 X166.797 Y115.152 E.01989
G1 X166.329 Y115.581 E.01991
G1 X165.908 Y116.056 E.0199
G1 X165.539 Y116.572 E.01989
G1 X165.271 Y117.036 E.0168
G1 X165.112 Y117.399 E.01243
G1 X164.843 Y118.103 E.02363
G1 X164.695 Y118.713 E.01968
G1 X164.616 Y119.248 E.01696
G1 X164.588 Y119.882 E.0199
G1 X164.626 Y120.516 E.01991
G1 X164.71 Y121.045 E.01679
G1 X165.008 Y122.052 E.03293
G1 X165.271 Y122.63 E.01991
G1 X165.564 Y123.134 E.01828
G1 X165.879 Y123.55 E.01636
G1 X166.39 Y124.147 E.02464
G1 X168.943 Y126.501 E.10888
G1 X168.602 Y127.216 E.02484
G1 X168.224 Y127.913 E.02486
G1 X164.732 Y127.218 E.11164
G1 X164.101 Y127.156 E.01988
G1 X163.466 Y127.162 E.01991
G1 X162.933 Y127.218 E.0168
G1 X161.912 Y127.463 E.03292
G1 X161.322 Y127.695 E.01988
G1 X160.844 Y127.938 E.01681
G1 X159.979 Y128.533 E.03292
G1 X159.511 Y128.961 E.01988
G1 X159.09 Y129.437 E.01992
G1 X158.721 Y129.953 E.01989
G1 X158.408 Y130.505 E.0199
G1 X158.155 Y131.087 E.0199
G1 X157.964 Y131.692 E.01989
G1 X157.837 Y132.314 E.0199
G1 X157.776 Y132.946 E.01991
G1 X157.784 Y133.605 E.02066
G1 X157.898 Y134.46 E.02705
G1 X158.198 Y135.448 E.03237
G1 X158.575 Y136.235 E.02736
G1 X160.148 Y139.028 E.10051
G1 X159.603 Y139.603 E.02484
G1 X159.028 Y140.148 E.02484
G1 X156.001 Y138.448 E.10885
G1 X155.04 Y138.051 E.0326
G1 X154.401 Y137.889 E.02067
G1 X153.481 Y137.776 E.02906
G1 X152.847 Y137.781 E.01988
G1 X152.217 Y137.852 E.01988
G1 X151.597 Y137.989 E.01991
G1 X150.995 Y138.19 E.0199
G1 X150.417 Y138.453 E.01991
G1 X149.87 Y138.775 E.0199
G1 X149.36 Y139.152 E.01989
G1 X148.876 Y139.599 E.02066
G1 X148.28 Y140.309 E.02907
G1 X147.938 Y140.844 E.01991
G1 X147.655 Y141.412 E.0199
G1 X147.432 Y142.006 E.01989
G1 X147.273 Y142.621 E.01992
G1 X147.189 Y143.15 E.01679
G1 X147.169 Y143.623 E.01484
M73 Q0 S139
G1 X147.162 Y144.199 E.01806
G1 X147.231 Y144.819 E.01956
G1 X147.913 Y148.224 E.10888
G1 X147.216 Y148.602 E.02486
G1 X146.501 Y148.943 E.02484
G1 X144.067 Y146.313 E.11236
G1 X143.456 Y145.791 E.0252
G1 X143.037 Y145.521 E.01563
G1 X142.504 Y145.21 E.01935
G1 X141.96 Y144.973 E.01861
G1 X141.33 Y144.777 E.02069
G1 X140.417 Y144.616 E.02907
G1 X139.783 Y144.588 E.0199
G1 X139.15 Y144.626 E.01988
G1 X138.524 Y144.731 E.0199
G1 X137.818 Y144.936 E.02305
G1 X137.133 Y145.234 E.02342
G1 X136.489 Y145.593 E.02312
G1 X135.979 Y145.97 E.01989
G1 X135.511 Y146.398 E.01988
G1 X135.09 Y146.874 E.01992
G1 X134.712 Y147.407 E.02049
G1 X134.384 Y147.996 E.02114
G1 X134.127 Y148.609 E.02084
G1 X133.941 Y149.237 E.02054
G1 X133.838 Y149.74 E.0161
G1 X133.434 Y153.189 E.10888
G1 X132.655 Y153.333 E.02484
G1 X131.87 Y153.436 E.02482
G1 X130.535 Y150.522 E.1005
G1 X130.166 Y149.833 E.02451
G1 X129.82 Y149.327 E.01922
G1 X129.431 Y148.865 E.01894
G1 X129.005 Y148.449 E.01867
G1 X128.524 Y148.066 E.01928
G1 X127.989 Y147.725 E.01989
G1 X127.42 Y147.441 E.01994
G1 X126.821 Y147.217 E.02005
G1 X126.188 Y147.056 E.02048
G1 X125.268 Y146.943 E.02906
G1 X124.633 Y146.948 E.01991
G1 X124.003 Y147.019 E.01988
G1 X123.383 Y147.156 E.01991
G1 X122.758 Y147.368 E.02069
G1 X121.926 Y147.774 E.02903
G1 X121.476 Y148.066 E.01682
G1 X121.086 Y148.388 E.01586
G1 X120.678 Y148.748 E.01706
G1 X120.204 Y149.296 E.02272
G1 X119.872 Y149.767 E.01807
G1 X119.58 Y150.281 E.01854
G1 X118.13 Y153.436 E.10887
G1 X117.345 Y153.333 E.02482
G1 X116.566 Y153.189 E.02484
G1 X116.197 Y150.004 E.10053
G1 X116.127 Y149.556 E.01422
G1 X115.979 Y148.975 E.0188
G1 X115.81 Y148.432 E.01783
G1 X115.547 Y147.854 E.01991
G1 X115.279 Y147.39 E.0168
G1 X114.622 Y146.539 E.03371
G1 X113.944 Y145.908 E.02904
G1 X113.428 Y145.539 E.01989
G1 X112.964 Y145.271 E.0168
G1 X112.601 Y145.112 E.01243
G1 X111.896 Y144.843 E.02366
G1 X111.287 Y144.695 E.01965
G1 X110.752 Y144.616 E.01696
G1 X110.118 Y144.588 E.0199
G1 X109.484 Y144.626 E.01991
G1 X108.955 Y144.71 E.01679
G1 X107.931 Y145.016 E.03351
G1 X107.371 Y145.271 E.01929
G1 X106.823 Y145.593 E.01993
G1 X106.313 Y145.97 E.01989
G1 X105.853 Y146.39 E.01953
G1 X103.499 Y148.943 E.10888
G1 X102.784 Y148.602 E.02484
G1 X102.087 Y148.224 E.02486
G1 X102.782 Y144.732 E.11164
G1 X102.844 Y144.101 E.01988
G1 X102.842 Y143.514 E.01841
G1 X102.702 Y142.506 E.03191
G1 X102.537 Y141.912 E.01933
G1 X102.305 Y141.322 E.01988
G1 X102.065 Y140.85 E.0166
G1 X101.467 Y139.979 E.03313
G1 X101.039 Y139.511 E.01988
G1 X100.563 Y139.09 E.01992
G1 X100.047 Y138.721 E.01989
G1 X99.495 Y138.408 E.0199
G1 X98.913 Y138.155 E.0199
G1 X98.307 Y137.964 E.01992
G1 X97.681 Y137.836 E.02003
G1 X97.153 Y137.781 E.01664
G1 X96.103 Y137.808 E.03293
G1 X95.574 Y137.892 E.01679
G1 X94.546 Y138.2 E.03365
G1 X93.765 Y138.575 E.02716
G1 X90.972 Y140.148 E.10051
G1 X90.397 Y139.603 E.02484
G1 X89.852 Y139.028 E.02484
G1 X91.601 Y135.9 E.11237
G1 X91.909 Y135.157 E.02522
G1 X92.167 Y134.073 E.03494
G1 X92.224 Y133.482 E.01862
G1 X92.219 Y132.847 E.01991
G1 X92.148 Y132.217 E.01988
G1 X92.011 Y131.597 E.01991
G1 X91.81 Y130.995 E.0199
G1 X91.547 Y130.417 E.01991
G1 X91.225 Y129.87 E.0199
G1 X90.831 Y129.342 E.02066
G1 X90.187 Y128.675 E.02907
G1 X89.691 Y128.28 E.01988
G1 X89.156 Y127.938 E.01991
G1 X88.588 Y127.655 E.0199
G1 X87.995 Y127.433 E.01985
G1 X87.476 Y127.294 E.01685
G1 X86.908 Y127.198 E.01806
G1 X85.8 Y127.162 E.03476
G1 X85.181 Y127.231 E.01953
G1 X81.776 Y127.913 E.10888
G1 X81.398 Y127.216 E.02486
G1 X81.057 Y126.501 E.02484
G1 X83.671 Y124.085 E.11161
G1 X84.141 Y123.542 E.02252
G1 X84.461 Y123.093 E.01729
G1 X84.79 Y122.504 E.02115
G1 X85.027 Y121.96 E.01861
G1 X85.218 Y121.354 E.01992
G1 X85.347 Y120.708 E.02065
G1 X85.412 Y119.783 E.02907
G1 X85.374 Y119.15 E.01988
G1 X85.269 Y118.524 E.0199
G1 X85.064 Y117.818 E.02305
G1 X84.826 Y117.238 E.01966
G1 X84.575 Y116.759 E.01696
G1 X84.225 Y116.229 E.01991
G1 X83.822 Y115.739 E.01989
G1 X83.369 Y115.294 E.01991
G1 X82.852 Y114.886 E.02065
G1 X82.167 Y114.466 E.02519
G1 X81.152 Y114.045 E.03445
G1 X80.26 Y113.838 E.02871
G1 X76.811 Y113.434 E.10888
G1 X76.667 Y112.655 E.02484
G1 X76.564 Y111.87 E.02482
G1 X79.478 Y110.535 E.1005
G1 X80.074 Y110.226 E.02105
G1 X80.674 Y109.819 E.02273
G1 X81.094 Y109.472 E.01708
G1 X81.539 Y109.02 E.01989
G1 X81.934 Y108.524 E.01988
G1 X82.275 Y107.989 E.01989
G1 X82.559 Y107.421 E.01991
G1 X82.781 Y106.827 E.01988
G1 X82.941 Y106.212 E.01992
G1 X83.036 Y105.554 E.02085
G1 X83.052 Y104.633 E.02888
G1 X82.981 Y104.003 E.01988
G1 X82.844 Y103.383 E.01991
G1 X82.632 Y102.759 E.02066
G1 X82.286 Y102.034 E.02519
G1 X81.668 Y101.132 E.03428
G1 X81.252 Y100.678 E.01931
G1 X80.777 Y100.257 E.0199
G1 X80.261 Y99.888 E.01989
G1 X79.719 Y99.58 E.01955
G1 X76.564 Y98.13 E.10887
G1 X76.667 Y97.345 E.02482
G1 X76.811 Y96.566 E.02484
G1 X80.347 Y96.148 E.11164
G1 X80.966 Y96.011 E.01988
G1 X81.524 Y95.828 E.01841
G1 X82.439 Y95.383 E.0319
G1 X82.953 Y95.043 E.01932
G1 X83.461 Y94.621 E.02071
G1 X84.092 Y93.944 E.02902
G1 X84.461 Y93.428 E.01989
G1 X84.774 Y92.876 E.0199
G1 X85.027 Y92.294 E.0199
G1 X85.218 Y91.689 E.01989
G1 X85.345 Y91.067 E.0199
G1 X85.406 Y90.435 E.01991
G1 X85.401 Y89.801 E.01988
G1 X85.33 Y89.17 E.01991
G1 X85.193 Y88.55 E.01991
G1 X84.992 Y87.949 E.01987
G1 X84.729 Y87.37 E.01994
G1 X84.393 Y86.804 E.02064
G1 X83.822 Y86.074 E.02906
G1 X83.416 Y85.669 E.01798
G1 X81.057 Y83.498 E.10052
G1 X81.398 Y82.784 E.02481
G1 X81.776 Y82.087 E.02486
G1 X84.919 Y82.717 E.10051
G1 X85.386 Y82.795 E.01485
G1 X85.899 Y82.843 E.01615
G1 X86.534 Y82.838 E.01991
G1 X87.067 Y82.782 E.0168
G1 X88.088 Y82.537 E.03292
G1 X88.678 Y82.305 E.01988
G1 X89.241 Y82.012 E.0199
