; generated by PrusaSlicer 2.7.4 on 2024-05-09 at 10:06:06 UTC

; 

; external perimeters extrusion width = 0.40mm
; perimeters extrusion width = 0.40mm
; infill extrusion width = 0.40mm
; solid infill extrusion width = 0.40mm
; top infill extrusion width = 0.40mm
; first layer extrusion width = 0.42mm

M73 P0 R50
M73 Q0 S51
;TYPE:Custom
; M862.3 P "MK3S" ; printer model check
M862.1 P0.4 ; nozzle diameter check
M115 U3.9.0 ; tell printer latest fw version
G90 ; use absolute coordinates
M83 ; extruder relative mode
M104 S215 ; set extruder temp
M140 S68 ; set bed temp
M190 S68 ; wait for bed temp
M109 S215 ; wait for extruder temp
G28 W ; home all without mesh bed level
G80 ; mesh bed leveling
G1 Y-3.0 F1000.0 ; go outside print area
G92 E0.0
G1 X60.0 E9.0 F1000.0 ; intro line
G1 X100.0 E12.5 F1000.0 ; intro line
M73 Q0 S50
G92 E0.0
M221 S95
G21 ; set units to millimeters
G90 ; use absolute coordinates
M83 ; use relative distances for extrusion
M900 K0.06 ; Filament gcode LA 1.5
M900 K30 ; Filament gcode LA 1.0
M107
;LAYER_CHANGE
;Z:0.2
;HEIGHT:0.2
G1 E-.8 F2100
G1 Z.8 F10800
G1 X115.469 Y96.527
G1 Z.2
G1 E.8 F2100
M204 S1000
;TYPE:Skirt/Brim
;WIDTH:0.42
G1 F1200
G1 X116.412 Y95.572 E.04208
G1 X118.115 Y94.265 E.06731
G1 X119.274 Y93.604 E.04183
G1 X120.497 Y93.068 E.04187
G1 X121.63 Y92.7 E.03735
G1 X122.934 Y92.415 E.04185
G1 X124.261 Y92.268 E.04186
G1 X125.595 Y92.26 E.04183
G1 X126.924 Y92.393 E.04188
G1 X128.231 Y92.663 E.04185
G1 X130.253 Y93.379 E.06726
G1 X131.314 Y93.919 E.03733
G1 X132.438 Y94.64 E.04187
G1 X133.48 Y95.474 E.04185
G1 X134.429 Y96.413 E.04186
G1 X135.735 Y98.115 E.06727
G1 X136.396 Y99.274 E.04183
G1 X136.932 Y100.497 E.04187
G1 X137.337 Y101.769 E.04186
G1 X137.606 Y103.069 E.04162
G1 X137.732 Y104.259 E.03752
G1 X137.74 Y105.595 E.04189
G1 X137.46 Y107.722 E.06727
G1 X137.107 Y109.01 E.04187
G1 X136.621 Y110.253 E.04185
G1 X136.009 Y111.439 E.04185
G1 X135.279 Y112.549 E.04166
G1 X134.429 Y113.587 E.04207
G1 X133.587 Y114.429 E.03734
G1 X132.554 Y115.275 E.04186
G1 X131.439 Y116.009 E.04186
G1 X129.503 Y116.932 E.06725
G1 X128.231 Y117.337 E.04186
G1 X127.066 Y117.585 E.03735
G1 X125.739 Y117.732 E.04186
G1 X124.405 Y117.74 E.04183
G1 X123.076 Y117.607 E.04188
G1 X121.769 Y117.337 E.04185
G1 X119.747 Y116.621 E.06726
G1 X118.686 Y116.081 E.03733
G1 X117.562 Y115.36 E.04187
G1 X116.52 Y114.526 E.04185
G1 X115.572 Y113.588 E.04181
G1 X114.265 Y111.885 E.06731
G1 X113.604 Y110.726 E.04183
G1 X113.068 Y109.503 E.04187
G1 X112.663 Y108.231 E.04186
G1 X112.394 Y106.935 E.0415
G1 X112.268 Y105.742 E.03761
G1 X112.26 Y104.406 E.04189
G1 X112.391 Y103.086 E.04159
G1 X112.662 Y101.772 E.04207
G1 X113.379 Y99.747 E.06735
G1 X113.986 Y98.57 E.04152
G1 X114.719 Y97.454 E.04186
G1 X115.431 Y96.573 E.03552
G1 X115.431 Y96.573 F10800
G1 X115.724 Y96.81
G1 F1200
G1 X115.755 Y96.772 E.00154
G1 X116.672 Y95.845 E.04088
G1 X118.312 Y94.587 E.06481
G1 X119.437 Y93.944 E.04063
G1 X120.623 Y93.423 E.04062
G1 X121.857 Y93.029 E.04062
G1 X123.125 Y92.766 E.0406
G1 X124.414 Y92.637 E.04062
G1 X125.586 Y92.637 E.03675
G1 X126.875 Y92.766 E.04062
G1 X128.143 Y93.029 E.0406
G1 X130.091 Y93.719 E.0648
G1 X131.242 Y94.313 E.04061
G1 X132.325 Y95.024 E.04062
G1 X133.235 Y95.761 E.03672
G1 X134.156 Y96.672 E.04062
G1 X135.414 Y98.312 E.06481
G1 X136.056 Y99.437 E.04061
G1 X136.577 Y100.623 E.04062
G1 X136.971 Y101.857 E.04062
G1 X137.232 Y103.119 E.04041
G1 X137.356 Y104.289 E.03689
G1 X137.363 Y105.586 E.04067
G1 X137.234 Y106.875 E.04062
G1 X136.973 Y108.133 E.04028
G1 X136.281 Y110.091 E.06511
G1 X135.687 Y111.242 E.04061
G1 X134.98 Y112.319 E.04039
G1 X134.156 Y113.328 E.04085
G1 X133.328 Y114.156 E.03671
G1 X132.325 Y114.976 E.04062
G1 X131.242 Y115.687 E.04062
G1 X129.377 Y116.577 E.06479
G1 X128.263 Y116.938 E.03672
G1 X126.998 Y117.214 E.0406
G1 X125.71 Y117.356 E.04063
G1 X124.414 Y117.363 E.04064
G1 X123.125 Y117.234 E.04062
G1 X121.857 Y116.971 E.0406
G1 X119.909 Y116.281 E.0648
G1 X118.866 Y115.749 E.03671
G1 X117.776 Y115.049 E.04062
G1 X116.765 Y114.239 E.04062
G1 X115.845 Y113.329 E.04057
G1 X114.586 Y111.688 E.06485
G1 X113.944 Y110.563 E.04061
G1 X113.423 Y109.377 E.04062
G1 X113.029 Y108.143 E.04062
G1 X112.768 Y106.885 E.04028
G1 X112.644 Y105.712 E.03698
G1 X112.637 Y104.416 E.04064
G1 X112.765 Y103.135 E.04036
G1 X113.029 Y101.86 E.04082
G1 X113.719 Y99.909 E.06489
G1 X114.308 Y98.767 E.04029
G1 X115.018 Y97.684 E.0406
G1 X115.686 Y96.857 E.03333
;WIPE_START
G1 F8640
G1 X115.724 Y96.81 E-.01396
G1 X115.755 Y96.772 E-.01132
G1 X116.672 Y95.845 E-.30108
G1 X118.299 Y94.596 E-.47364
;WIPE_END
G1 Z.8 F10800
G1 X118.361 Y99.031
G1 Z.2
G1 E.8 F2100
;TYPE:Perimeter
;WIDTH:0.419999
G1 F1200
G1 X118.682 Y98.682 E.01487
G1 X119.199 Y98.207 E.02201
G1 X119.748 Y97.771 E.02198
G1 X120.334 Y97.383 E.02204
G1 X120.943 Y97.038 E.02195
G1 X121.584 Y96.747 E.02207
G1 X122.239 Y96.502 E.02193
G1 X122.923 Y96.313 E.02225
G1 X123.602 Y96.175 E.02172
G1 X124.262 Y96.098 E.02083
G1 X124.923 Y96.074 E.02074
G1 X125.68 Y96.099 E.02375
G1 X126.203 Y96.149 E.01647
G1 X126.858 Y96.26 E.02083
G1 X127.542 Y96.437 E.02215
G1 X128.202 Y96.658 E.02182
G1 X128.847 Y96.939 E.02206
G1 X129.468 Y97.262 E.02195
G1 X130.06 Y97.639 E.02201
G1 X130.623 Y98.056 E.02197
G1 X131.149 Y98.521 E.02201
G1 X131.64 Y99.021 E.02197
G1 X132.086 Y99.562 E.02198
G1 X132.494 Y100.133 E.022
G1 X132.85 Y100.738 E.02201
G1 X133.163 Y101.366 E.022
G1 X133.42 Y102.019 E.022
G1 X133.631 Y102.687 E.02196
G1 X133.783 Y103.372 E.022
G1 X133.887 Y104.066 E.022
G1 X133.929 Y104.766 E.02199
G1 X133.905 Y105.701 E.02933
G1 X133.825 Y106.398 E.022
G1 X133.686 Y107.085 E.02198
G1 X133.498 Y107.761 E.022
G1 X133.252 Y108.418 E.022
G1 X132.962 Y109.057 E.022
G1 X132.616 Y109.667 E.02199
G1 X132.229 Y110.252 E.02199
G1 X131.792 Y110.801 E.022
G1 X131.318 Y111.318 E.02199
G1 X130.801 Y111.792 E.02199
G1 X130.252 Y112.229 E.022
G1 X129.667 Y112.616 E.02199
G1 X129.057 Y112.962 E.02199
G1 X128.418 Y113.253 E.02202
G1 X127.761 Y113.498 E.02199
G1 X127.085 Y113.686 E.022
G1 X126.398 Y113.825 E.02198
G1 X125.701 Y113.905 E.022
G1 X125 Y113.935 E.022
G1 X124.299 Y113.905 E.022
G1 X123.602 Y113.825 E.022
G1 X122.915 Y113.686 E.02198
G1 X122.239 Y113.498 E.022
G1 X121.582 Y113.252 E.022
G1 X120.943 Y112.962 E.022
G1 X120.333 Y112.616 E.02199
G1 X119.748 Y112.229 E.02199
G1 X119.199 Y111.792 E.022
G1 X118.682 Y111.318 E.02199
G1 X118.208 Y110.801 E.02199
G1 X117.771 Y110.252 E.022
G1 X117.384 Y109.667 E.02199
G1 X117.038 Y109.057 E.02199
G1 X116.748 Y108.419 E.02197
G1 X116.502 Y107.761 E.02203
G1 X116.314 Y107.085 E.022
G1 X116.175 Y106.398 E.02198
G1 X116.095 Y105.701 E.022
G1 X116.065 Y105 E.022
G1 X116.095 Y104.299 E.022
G1 X116.175 Y103.602 E.022
G1 X116.314 Y102.915 E.02198
G1 X116.502 Y102.239 E.022
G1 X116.748 Y101.581 E.02203
G1 X117.038 Y100.943 E.02197
G1 X117.384 Y100.333 E.02199
G1 X117.771 Y99.748 E.02199
G1 X118.208 Y99.199 E.022
G1 X118.321 Y99.076 E.00524
G1 X118.321 Y99.076 F10800
G1 X118.083 Y98.777
G1 F1200
G1 X118.415 Y98.415 E.0154
G1 X118.955 Y97.921 E.02295
G1 X119.526 Y97.466 E.02289
G1 X120.137 Y97.062 E.02297
G1 X120.772 Y96.702 E.02289
G1 X121.44 Y96.398 E.02301
G1 X122.122 Y96.143 E.02283
G1 X122.822 Y95.949 E.02278
G1 X123.318 Y95.844 E.0159
G1 X123.822 Y95.765 E.016
G1 X124.507 Y95.7 E.02157
G1 X125.244 Y95.694 E.02311
G1 X125.979 Y95.739 E.02309
G1 X126.66 Y95.84 E.02159
G1 X127.159 Y95.944 E.01598
G1 X127.649 Y96.075 E.0159
G1 X128.337 Y96.306 E.02276
G1 X129.01 Y96.598 E.023
G1 X129.656 Y96.935 E.02285
G1 X130.274 Y97.328 E.02296
G1 X130.861 Y97.763 E.02291
G1 X131.409 Y98.248 E.02294
G1 X131.921 Y98.769 E.0229
G1 X132.386 Y99.333 E.02292
G1 X132.81 Y99.928 E.02291
G1 X133.182 Y100.558 E.02294
G1 X133.508 Y101.212 E.02291
G1 X133.776 Y101.893 E.02295
G1 X133.995 Y102.59 E.02291
G1 X134.154 Y103.304 E.02294
G1 X134.262 Y104.027 E.02292
G1 X134.306 Y104.756 E.0229
G1 X134.313 Y105 E.00765
G1 X134.281 Y105.731 E.02294
G1 X134.198 Y106.457 E.02291
G1 X134.052 Y107.173 E.02291
G1 X133.857 Y107.878 E.02293
G1 X133.601 Y108.563 E.02293
G1 X133.298 Y109.228 E.02291
G1 X132.938 Y109.864 E.02291
G1 X132.534 Y110.474 E.02294
G1 X132.079 Y111.046 E.02292
G1 X131.585 Y111.585 E.02292
G1 X131.046 Y112.079 E.02292
G1 X130.474 Y112.534 E.02292
G1 X129.864 Y112.938 E.02294
G1 X129.228 Y113.298 E.02291
G1 X128.562 Y113.601 E.02294
G1 X127.878 Y113.857 E.0229
G1 X127.173 Y114.052 E.02293
G1 X126.457 Y114.198 E.02291
G1 X125.73 Y114.281 E.02294
G1 X125 Y114.313 E.02291
G1 X124.269 Y114.281 E.02294
G1 X123.543 Y114.198 E.02291
G1 X122.827 Y114.052 E.02291
G1 X122.122 Y113.857 E.02293
G1 X121.437 Y113.601 E.02293
G1 X120.772 Y113.298 E.02291
G1 X120.136 Y112.938 E.02291
G1 X119.526 Y112.534 E.02294
G1 X118.954 Y112.079 E.02292
G1 X118.415 Y111.585 E.02292
G1 X117.921 Y111.046 E.02292
G1 X117.466 Y110.474 E.02292
G1 X117.062 Y109.864 E.02294
G1 X116.702 Y109.228 E.02291
G1 X116.399 Y108.563 E.02291
G1 X116.143 Y107.878 E.02293
G1 X115.948 Y107.173 E.02293
G1 X115.802 Y106.457 E.02291
G1 X115.719 Y105.73 E.02294
G1 X115.687 Y105 E.02291
G1 X115.719 Y104.269 E.02294
G1 X115.802 Y103.543 E.02291
G1 X115.948 Y102.827 E.02291
G1 X116.143 Y102.122 E.02293
G1 X116.399 Y101.437 E.02293
G1 X116.702 Y100.772 E.02291
G1 X117.063 Y100.135 E.02296
G1 X117.466 Y99.526 E.0229
G1 X117.921 Y98.954 E.02292
G1 X118.043 Y98.821 E.00566
G1 X118.043 Y98.821 F10800
G1 X117.799 Y98.516
;TYPE:External perimeter
G1 F1200
G1 X118.148 Y98.148 E.0159
G1 X118.516 Y97.799 E.0159
G1 X118.902 Y97.47 E.0159
G1 X119.304 Y97.161 E.0159
G1 X119.723 Y96.873 E.01594
G1 X120.155 Y96.608 E.01589
G1 X120.601 Y96.366 E.01591
G1 X121.059 Y96.148 E.0159
G1 X121.527 Y95.954 E.01588
G1 X122.006 Y95.784 E.01594
G1 X122.492 Y95.64 E.01589
G1 X122.985 Y95.522 E.01589
G1 X123.484 Y95.429 E.01592
G1 X123.987 Y95.363 E.01591
G1 X124.491 Y95.324 E.01585
G1 X125.254 Y95.317 E.02392
G1 X126.015 Y95.363 E.0239
G1 X126.78 Y95.478 E.02426
G1 X127.269 Y95.583 E.01568
G1 X127.756 Y95.714 E.01581
G1 X128.237 Y95.87 E.01585
G1 X128.709 Y96.052 E.01586
G1 X129.172 Y96.258 E.01589
G1 X129.623 Y96.488 E.01587
G1 X130.062 Y96.741 E.01589
G1 X130.487 Y97.018 E.01591
G1 X130.897 Y97.316 E.01589
G1 X131.291 Y97.635 E.01589
G1 X131.668 Y97.974 E.0159
G1 X132.027 Y98.333 E.01592
G1 X132.366 Y98.709 E.01587
G1 X132.685 Y99.103 E.01589
G1 X132.983 Y99.514 E.01592
G1 X133.259 Y99.939 E.01589
G1 X133.513 Y100.378 E.0159
G1 X133.743 Y100.83 E.0159
G1 X133.949 Y101.293 E.01589
G1 X134.131 Y101.767 E.01592
G1 X134.288 Y102.249 E.01589
G1 X134.419 Y102.739 E.0159
G1 X134.524 Y103.235 E.0159
G1 X134.604 Y103.736 E.01591
G1 X134.657 Y104.24 E.01589
G1 X134.683 Y104.746 E.01589
G1 X134.677 Y105.507 E.02386
G1 X134.637 Y106.013 E.01591
G1 X134.571 Y106.516 E.01591
G1 X134.478 Y107.015 E.01592
G1 X134.36 Y107.508 E.01589
G1 X134.216 Y107.994 E.01589
G1 X134.046 Y108.473 E.01594
G1 X133.852 Y108.941 E.01588
G1 X133.634 Y109.399 E.0159
G1 X133.392 Y109.845 E.01591
G1 X133.127 Y110.277 E.01589
G1 X132.839 Y110.696 E.01594
G1 X132.53 Y111.098 E.0159
G1 X132.201 Y111.484 E.0159
G1 X131.852 Y111.852 E.0159
G1 X131.484 Y112.201 E.0159
G1 X131.098 Y112.53 E.0159
G1 X130.696 Y112.839 E.0159
G1 X130.277 Y113.127 E.01594
G1 X129.845 Y113.392 E.01589
G1 X129.399 Y113.634 E.01591
G1 X128.941 Y113.852 E.0159
G1 X128.473 Y114.046 E.01588
G1 X127.994 Y114.216 E.01594
G1 X127.508 Y114.36 E.01589
G1 X127.015 Y114.478 E.01589
G1 X126.516 Y114.571 E.01592
G1 X126.013 Y114.637 E.01591
G1 X125.507 Y114.677 E.01591
G1 X125 Y114.69 E.0159
G1 X124.493 Y114.677 E.0159
G1 X123.987 Y114.637 E.01591
G1 X123.484 Y114.571 E.01591
G1 X122.985 Y114.478 E.01592
G1 X122.492 Y114.36 E.01589
G1 X122.006 Y114.216 E.01589
G1 X121.527 Y114.046 E.01594
G1 X121.059 Y113.852 E.01588
G1 X120.601 Y113.634 E.0159
G1 X120.155 Y113.392 E.01591
G1 X119.723 Y113.127 E.01589
G1 X119.304 Y112.839 E.01594
G1 X118.902 Y112.53 E.0159
G1 X118.516 Y112.201 E.0159
G1 X118.148 Y111.852 E.0159
G1 X117.799 Y111.484 E.0159
G1 X117.47 Y111.098 E.0159
G1 X117.161 Y110.696 E.0159
G1 X116.873 Y110.277 E.01594
G1 X116.608 Y109.845 E.01589
G1 X116.366 Y109.399 E.01591
G1 X116.148 Y108.941 E.0159
G1 X115.954 Y108.474 E.01586
G1 X115.784 Y107.994 E.01597
G1 X115.64 Y107.508 E.01589
G1 X115.522 Y107.015 E.01589
G1 X115.429 Y106.516 E.01592
G1 X115.363 Y106.013 E.01591
G1 X115.323 Y105.507 E.01591
G1 X115.31 Y105 E.0159
G1 X115.323 Y104.493 E.0159
G1 X115.363 Y103.987 E.01591
G1 X115.429 Y103.484 E.01591
G1 X115.522 Y102.987 E.01585
G1 X115.64 Y102.492 E.01596
G1 X115.784 Y102.006 E.01589
G1 X115.954 Y101.527 E.01594
G1 X116.148 Y101.059 E.01588
G1 X116.366 Y100.601 E.0159
G1 X116.608 Y100.155 E.01591
G1 X116.873 Y99.723 E.01589
G1 X117.161 Y99.304 E.01594
G1 X117.47 Y98.902 E.0159
G1 X117.76 Y98.562 E.01401
;WIPE_START
G1 F8640
G1 X117.799 Y98.516 E-.01393
G1 X118.148 Y98.148 E-.11711
G1 X118.516 Y97.799 E-.11711
G1 X118.902 Y97.47 E-.11711
G1 X119.304 Y97.161 E-.11708
G1 X119.723 Y96.873 E-.1174
G1 X120.155 Y96.608 E-.11702
G1 X120.472 Y96.436 E-.08324
;WIPE_END
G1 Z.8 F10800
G1 X120.094 Y112.326
G1 Z.2
G1 E.8 F2100
;TYPE:Solid infill
;WIDTH:0.427058
G1 F1200
G1 X118.571 Y110.791 E.06907
G1 X118 Y110.086 E.02898
G1 X117.507 Y109.326 E.02894
G1 X117.371 Y109.059 E.00957
G1 X120.951 Y112.64 E.16174
G1 X121.072 Y112.709 E.00445
G1 X121.949 Y113.094 E.03059
G1 X116.922 Y108.067 E.22708
G1 X116.771 Y107.674 E.01345
G1 X116.661 Y107.263 E.01359
G1 X122.753 Y113.355 E.27519
G1 X123.444 Y113.503 E.02257
G1 X116.498 Y106.557 E.31376
G1 X116.396 Y105.912 E.02086
G1 X124.076 Y113.591 E.3469
G1 X124.668 Y113.641 E.01898
G1 X116.365 Y105.337 E.37508
G1 X116.353 Y104.782 E.01773
G1 X125.212 Y113.641 E.40018
G1 X125.453 Y113.641 E.0077
G1 X125.726 Y113.612 E.00877
G1 X116.388 Y104.274 E.42181
G1 X116.44 Y103.782 E.0158
G1 X126.218 Y113.56 E.44169
G1 X126.678 Y113.477 E.01493
G1 X116.523 Y103.322 E.45872
G1 X116.618 Y102.874 E.01463
M73 P1 R50
M73 Q1 S50
G1 X127.126 Y113.382 E.47466
G1 X127.545 Y113.258 E.01396
G1 X116.742 Y102.455 E.48799
G1 X116.875 Y102.045 E.01377
G1 X127.955 Y113.125 E.5005
G1 X128.349 Y112.975 E.01347
G1 X117.03 Y101.657 E.51128
G1 X117.198 Y101.281 E.01315
G1 X128.719 Y112.802 E.52042
G1 X129.079 Y112.619 E.0129
G1 X117.379 Y100.919 E.52851
G1 X117.578 Y100.574 E.01272
G1 X129.43 Y112.426 E.53537
G1 X129.759 Y112.212 E.01254
G1 X117.78 Y100.234 E.54109
G1 X118.002 Y99.912 E.01249
G1 X130.088 Y111.998 E.54594
G1 X130.388 Y111.755 E.01233
G1 X118.245 Y99.612 E.54852
G1 X118.488 Y99.312 E.01233
G1 X130.688 Y111.512 E.55109
G1 X130.97 Y111.25 E.01229
G1 X118.75 Y99.03 E.552
G1 X119.022 Y98.759 E.01226
G1 X131.241 Y110.978 E.55195
G1 X131.504 Y110.698 E.01227
G1 X119.302 Y98.496 E.55118
G1 X119.602 Y98.253 E.01233
G1 X131.747 Y110.398 E.54861
G1 X131.99 Y110.098 E.01233
G1 X119.902 Y98.01 E.54604
G1 X120.231 Y97.795 E.01255
G1 X132.205 Y109.769 E.54089
G1 X132.419 Y109.44 E.01254
G1 X120.56 Y97.581 E.53569
G1 X120.909 Y97.387 E.01275
G1 X132.613 Y109.091 E.52869
G1 X132.797 Y108.731 E.01291
G1 X121.269 Y97.203 E.52074
G1 X121.643 Y97.033 E.01312
G1 X132.967 Y108.357 E.51152
G1 X133.117 Y107.965 E.01341
G1 X122.035 Y96.883 E.50059
G1 X122.437 Y96.741 E.01362
G1 X133.261 Y107.566 E.48896
G1 X133.379 Y107.14 E.01412
G1 X122.865 Y96.627 E.47491
G1 X123.303 Y96.521 E.01439
G1 X133.474 Y106.692 E.45944
G1 X133.559 Y106.233 E.01491
G1 X123.772 Y96.446 E.4421
G1 X124.251 Y96.383 E.01543
G1 X133.61 Y105.742 E.42276
G1 X133.641 Y105.453 E.00928
G1 X133.641 Y105.229 E.00715
G1 X124.77 Y96.358 E.40072
G1 X125.315 Y96.359 E.01741
G1 X133.641 Y104.686 E.37612
G1 X133.593 Y104.095 E.01894
G1 X125.893 Y96.395 E.34782
G1 X126.534 Y96.492 E.02071
M73 P1 R49
G1 X133.508 Y103.466 E.31503
G1 X133.361 Y102.776 E.02253
G1 X127.224 Y96.639 E.27722
G1 X128.026 Y96.898 E.02692
G1 X133.089 Y101.96 E.22868
G1 X132.904 Y101.481 E.0164
G1 X132.647 Y100.976 E.0181
G1 X129.008 Y97.337 E.16438
G1 X129.714 Y97.744 E.02603
G1 X130.085 Y97.999 E.01438
G1 X130.763 Y98.548 E.02787
G1 X132.338 Y100.124 E.07117
M106 S255
