; generated by PrusaSlicer 2.5.2+linux-x64-GTK3 on 2023-06-12 at 15:03:28 UTC


;
;
; 

; external perimeters extrusion width = 0.45mm
; perimeters extrusion width = 0.45mm
; infill extrusion width = 0.45mm
; solid infill extrusion width = 0.45mm
; top infill extrusion width = 0.40mm
; support material extrusion width = 0.35mm
; first layer extrusion width = 0.42mm

; external perimeters extrusion width = 0.45mm
; perimeters extrusion width = 0.45mm
; infill extrusion width = 0.45mm
; solid infill extrusion width = 0.45mm
; top infill extrusion width = 0.40mm
; support material extrusion width = 0.35mm
; first layer extrusion width = 0.42mm

; external perimeters extrusion width = 0.45mm
; perimeters extrusion width = 0.45mm
; infill extrusion width = 0.45mm
; solid infill extrusion width = 0.45mm
; top infill extrusion width = 0.40mm
; support material extrusion width = 0.35mm
; first layer extrusion width = 0.42mm

; external perimeters extrusion width = 0.45mm
; perimeters extrusion width = 0.45mm
; infill extrusion width = 0.45mm
; solid infill extrusion width = 0.45mm
; top infill extrusion width = 0.40mm
; support material extrusion width = 0.35mm
; first layer extrusion width = 0.42mm

; external perimeters extrusion width = 0.45mm
; perimeters extrusion width = 0.45mm
; infill extrusion width = 0.45mm
; solid infill extrusion width = 0.45mm
; top infill extrusion width = 0.40mm
; support material extrusion width = 0.35mm
; first layer extrusion width = 0.42mm

; external perimeters extrusion width = 0.45mm
; perimeters extrusion width = 0.45mm
; infill extrusion width = 0.45mm
; solid infill extrusion width = 0.45mm
; top infill extrusion width = 0.40mm
; support material extrusion width = 0.35mm
; first layer extrusion width = 0.42mm

M73 P0 R127
M73 Q0 S127
M201 X1000 Y1000 Z200 E5000 ; sets maximum accelerations, mm/sec^2
M203 X200 Y200 Z12 E120 ; sets maximum feedrates, mm / sec
M204 P1250 R1250 T1250 ; sets acceleration (P, T) and retract acceleration (R), mm/sec^2
M205 X8.00 Y8.00 Z0.40 E4.50 ; sets the jerk limits, mm/sec
M205 S0 T0 ; sets the minimum extruding and travel feed rate, mm/sec
M107
;TYPE:Custom
M862.3 P "MK3S" ; printer model check
M862.1 P0.4 ; nozzle diameter check
M115 U3.12.2 ; tell printer latest fw version
G90 ; use absolute coordinates
M83 ; extruder relative mode
M104 S215 ; set extruder temp
M140 S60 ; set bed temp
M190 S60 ; wait for bed temp
M109 S215 ; wait for extruder temp
G28 W ; home all without mesh bed level
G80 ; mesh bed leveling

G1 Z0.2 F720
G1 Y-3 F1000 ; go outside print area
G92 E0
G1 X60 E9 F1000 ; intro line
G1 X100 E12.5 F1000 ; intro line

G92 E0
M221 S95

; Don't change E values below. Excessive value can damage the printer.
M907 E430 ; set extruder motor current
G21 ; set units to millimeters
G90 ; use absolute coordinates
M83 ; use relative distances for extrusion
M900 K0.05 ; Filament gcode LA 1.5
M900 K30 ; Filament gcode LA 1.0
M107
;LAYER_CHANGE
;Z:0.2
;HEIGHT:0.2
;BEFORE_LAYER_CHANGE
G92 E0.0
;0.2


G1 E-.8 F2100
M73 P0 R126
G1 Z.4 F720
;AFTER_LAYER_CHANGE
;0.2
G1 X78.699 Y37.803 F10800
G1 Z.2 F720
G1 E.8 F2100
M204 S800
;TYPE:Skirt/Brim
;WIDTH:0.42
G1 F1200
G1 X79.746 Y36.928 E.04278
G1 X80.658 Y36.735 E.02922
G1 X127.846 Y36.237 E1.47963
G1 X144.071 Y36.237 E.50873
G1 X168.909 Y37.195 E.77936
G1 X170.2 Y37.637 E.04278
G1 X171.035 Y38.716 E.04278
G1 X171.194 Y39.567 E.02715
G1 X171.262 Y124.127 E2.65133
G1 X169.491 Y170.218 E1.44623
G1 X169.049 Y171.509 E.04278
G1 X167.971 Y172.345 E.04278
G1 X167.127 Y172.504 E.0269
G1 X120.579 Y172.739 E1.45951
G1 X80.567 Y172.739 E1.25455
G1 X79.26 Y172.347 E.04278
G1 X78.384 Y171.301 E.04278
G1 X78.19 Y170.362 E.03008
G1 X78.306 Y39.109 E4.11533
G1 X78.682 Y37.86 E.0409
M204 S1000
; printing object button-tactile-cover.stl id:5 copy 0
;WIPE_START
G1 F8640
G1 X79.746 Y36.928 E-.32671
G1 X80.658 Y36.735 E-.21519
G1 X81.602 Y36.725 E-.2181
;WIPE_END
G1 E-.04 F2100
G1 Z.6 F720
G1 X81.847 Y40.276 F10800
G1 Z.2 F720
G1 E.8 F2100
M204 S800
;TYPE:Perimeter
;WIDTH:0.419999
G1 F1200
G1 X119.519 Y40.276 E1.18117
G1 X119.519 Y77.948 E1.18117
G1 X81.847 Y77.948 E1.18117
G1 X81.847 Y40.336 E1.17929
M204 S1000
G1 X81.47 Y39.899 F10800
M204 S800
G1 F1200
G1 X119.896 Y39.899 E1.20481
G1 X119.896 Y78.325 E1.20481
G1 X81.47 Y78.325 E1.20481
G1 X81.47 Y39.959 E1.20293
M204 S1000
G1 X81.093 Y39.522 F10800
M204 S800
;TYPE:External perimeter
G1 F1200
G1 X120.273 Y39.522 E1.22846
G1 X120.273 Y78.702 E1.22846
G1 X81.093 Y78.702 E1.22846
G1 X81.093 Y39.582 E1.22658
M204 S1000
G1 X81.479 Y39.626 F10800
;WIPE_START
G1 F8640
G1 X84.384 Y39.577 E-.76
;WIPE_END
G1 E-.04 F2100
G1 Z.6 F720
G1 X101.562 Y54.648 F10800
G1 Z.2 F720
G1 E.8 F2100
M204 S800
;TYPE:Perimeter
G1 F1200
G1 X102.279 Y54.84 E.02328
G1 X103.051 Y55.214 E.02691
G1 X103.545 Y55.559 E.01888
G1 X104.14 Y56.137 E.026
G1 X104.636 Y56.838 E.02692
G1 X104.903 Y57.377 E.01888
G1 X105.145 Y58.17 E.026
G1 X105.243 Y59.023 E.02693
G1 X105.217 Y59.625 E.01888
G1 X105.047 Y60.437 E.026
G1 X104.722 Y61.231 E.02693
G1 X104.409 Y61.746 E.01889
G1 X103.869 Y62.376 E.026
G1 X103.201 Y62.915 E.0269
G1 X102.444 Y63.319 E.02693
G1 X101.624 Y63.575 E.02692
G1 X100.772 Y63.672 E.02691
G1 X99.915 Y63.608 E.02692
G1 X99.087 Y63.385 E.02691
G1 X98.537 Y63.139 E.01888
G1 X97.845 Y62.683 E.026
G1 X97.466 Y62.328 E.01627
G1 X97.13 Y61.975 E.01529
G1 X96.822 Y61.546 E.01655
G1 X96.476 Y60.874 E.02371
G1 X96.22 Y60.054 E.02691
G1 X96.123 Y59.201 E.02693
G1 X96.187 Y58.344 E.02693
G1 X96.41 Y57.516 E.02691
G1 X96.785 Y56.744 E.02691
G1 X97.298 Y56.055 E.02692
G1 X97.931 Y55.475 E.02693
G1 X98.661 Y55.024 E.0269
G1 X99.463 Y54.717 E.02691
G1 X100.052 Y54.593 E.01889
G1 X100.571 Y54.552 E.0163
G1 X101.504 Y54.632 E.02937
M204 S1000
G1 X101.472 Y55.008 F10800
M204 S800
G1 F1200
G1 X102.174 Y55.202 E.02283
G1 X102.88 Y55.55 E.0247
G1 X103.323 Y55.864 E.01703
G1 X103.873 Y56.404 E.02415
G1 X104.324 Y57.05 E.02471
G1 X104.562 Y57.538 E.01703
G1 X104.783 Y58.275 E.02415
G1 X104.868 Y59.059 E.02471
G1 X104.84 Y59.601 E.01703
G1 X104.679 Y60.354 E.02415
G1 X104.376 Y61.082 E.02471
G1 X104.09 Y61.544 E.01704
M73 Q0 S126
G1 X103.586 Y62.126 E.02415
G1 X102.97 Y62.617 E.02469
G1 X102.273 Y62.983 E.02471
G1 X101.519 Y63.213 E.0247
G1 X100.736 Y63.297 E.0247
G1 X99.951 Y63.233 E.0247
G1 X99.192 Y63.023 E.0247
G1 X98.698 Y62.798 E.01703
G1 X98.057 Y62.371 E.02415
G1 X97.492 Y61.821 E.02471
G1 X97.168 Y61.385 E.01703
G1 X96.812 Y60.702 E.02414
G1 X96.582 Y59.949 E.0247
G1 X96.498 Y59.165 E.02471
G1 X96.562 Y58.38 E.02471
G1 X96.772 Y57.621 E.02469
G1 X97.121 Y56.915 E.02469
G1 X97.596 Y56.286 E.02471
G1 X98.18 Y55.758 E.02471
G1 X98.853 Y55.348 E.02469
G1 X99.591 Y55.072 E.0247
G1 X100.123 Y54.964 E.01704
G1 X100.633 Y54.926 E.01605
G1 X101.414 Y54.992 E.02456
M204 S1000
G1 X101.378 Y55.367 F10800
M204 S800
;TYPE:External perimeter
G1 F1200
G1 X102.069 Y55.564 E.02253
G1 X102.709 Y55.886 E.02248
G1 X103.124 Y56.188 E.0161
G1 X103.606 Y56.67 E.02138
G1 X104.012 Y57.261 E.02249
G1 X104.231 Y57.726 E.0161
G1 X104.421 Y58.381 E.02137
G1 X104.492 Y59.094 E.02249
G1 X104.462 Y59.598 E.01583
G1 X104.311 Y60.272 E.02165
G1 X104.029 Y60.932 E.02249
G1 X103.754 Y61.366 E.01611
G1 X103.303 Y61.877 E.02137
G1 X102.739 Y62.319 E.02247
G1 X102.102 Y62.647 E.02249
G1 X101.414 Y62.851 E.02248
G1 X100.701 Y62.921 E.02248
G1 X99.986 Y62.857 E.02248
G1 X99.297 Y62.66 E.02248
G1 X98.832 Y62.442 E.0161
G1 X98.269 Y62.059 E.02137
G1 X97.759 Y61.554 E.02249
G1 X97.457 Y61.138 E.0161
G1 X97.148 Y60.531 E.02137
G1 X96.944 Y59.844 E.02248
G1 X96.873 Y59.13 E.02249
G1 X96.938 Y58.415 E.02249
G1 X97.135 Y57.726 E.02247
G1 X97.457 Y57.086 E.02247
G1 X97.894 Y56.517 E.02249
G1 X98.43 Y56.041 E.02249
G1 X99.045 Y55.673 E.02247
G1 X99.718 Y55.427 E.02248
G1 X100.216 Y55.331 E.0159
G1 X100.649 Y55.304 E.01361
G1 X101.318 Y55.362 E.02103
M204 S1000
G1 X101.641 Y55.066 F10800
;WIPE_START
G1 F8640
G1 X102.069 Y55.564 E-.17954
G1 X102.709 Y55.886 E-.16555
G1 X103.124 Y56.188 E-.11856
G1 X103.606 Y56.67 E-.15742
G1 X103.947 Y57.166 E-.13894
;WIPE_END
G1 E-.04 F2100
G1 Z.6 F720
G1 X118.586 Y40.446 F10800
G1 Z.2 F720
G1 E.8 F2100
M204 S800
;TYPE:Solid infill
;WIDTH:0.420414
G1 F1200
G1 X119.179 Y41.039 E.02634
G1 X119.179 Y41.573 E.01676
G1 X118.222 Y40.616 E.04251
G1 X117.688 Y40.616 E.01676
G1 X119.179 Y42.107 E.06621
G1 X119.179 Y42.641 E.01676
G1 X117.154 Y40.616 E.08991
G1 X116.62 Y40.616 E.01676
G1 X119.179 Y43.175 E.1136
G1 X119.179 Y43.709 E.01676
G1 X116.086 Y40.616 E.1373
G1 X115.552 Y40.616 E.01676
G1 X119.179 Y44.243 E.161
G1 X119.179 Y44.776 E.01676
G1 X115.019 Y40.616 E.1847
G1 X114.485 Y40.616 E.01676
G1 X119.179 Y45.31 E.2084
G1 X119.179 Y45.844 E.01676
G1 X113.951 Y40.616 E.23209
G1 X113.417 Y40.616 E.01676
G1 X119.179 Y46.378 E.25579
G1 X119.179 Y46.912 E.01676
G1 X112.883 Y40.616 E.27949
G1 X112.349 Y40.616 E.01676
G1 X119.179 Y47.446 E.30319
G1 X119.179 Y47.98 E.01676
G1 X111.815 Y40.616 E.32689
G1 X111.282 Y40.616 E.01676
G1 X119.179 Y48.513 E.35059
G1 X119.179 Y49.047 E.01676
G1 X110.748 Y40.616 E.37428
G1 X110.214 Y40.616 E.01676
G1 X119.179 Y49.581 E.39798
G1 X119.179 Y50.115 E.01676
M73 P0 R125
G1 X109.68 Y40.616 E.42168
G1 X109.146 Y40.616 E.01676
G1 X119.179 Y50.649 E.44538
G1 X119.179 Y51.183 E.01676
G1 X108.612 Y40.616 E.46908
G1 X108.078 Y40.616 E.01676
G1 X119.179 Y51.717 E.49277
G1 X119.179 Y52.25 E.01676
G1 X107.545 Y40.616 E.51647
G1 X107.011 Y40.616 E.01676
G1 X119.179 Y52.784 E.54017
G1 X119.179 Y53.318 E.01676
G1 X106.477 Y40.616 E.56387
G1 X105.943 Y40.616 E.01676
G1 X119.179 Y53.852 E.58757
G1 X119.179 Y54.386 E.01676
G1 X105.409 Y40.616 E.61127
G1 X104.875 Y40.616 E.01676
G1 X119.179 Y54.92 E.63496
G1 X119.179 Y55.454 E.01676
G1 X104.341 Y40.616 E.65866
G1 X103.808 Y40.616 E.01676
G1 X119.179 Y55.987 E.68236
G1 X119.179 Y56.521 E.01676
G1 X103.274 Y40.616 E.70606
G1 X102.74 Y40.616 E.01676
M73 P1 R125
M73 Q1 S126
G1 X119.179 Y57.055 E.72976
G1 X119.179 Y57.589 E.01676
G1 X102.206 Y40.616 E.75345
G1 X101.672 Y40.616 E.01676
G1 X119.179 Y58.123 E.77715
G1 X119.179 Y58.657 E.01676
G1 X101.138 Y40.616 E.80085
G1 X100.604 Y40.616 E.01676
G1 X119.179 Y59.191 E.82455
G1 X119.179 Y59.724 E.01676
G1 X100.071 Y40.616 E.84825
G1 X99.537 Y40.616 E.01676
G1 X119.179 Y60.258 E.87194
G1 X119.179 Y60.792 E.01676
G1 X99.003 Y40.616 E.89564
G1 X98.469 Y40.616 E.01676
G1 X119.179 Y61.326 E.91934
G1 X119.179 Y61.86 E.01676
G1 X97.935 Y40.616 E.94304
G1 X97.401 Y40.616 E.01676
G1 X119.179 Y62.394 E.96674
G1 X119.179 Y62.928 E.01676
G1 X96.867 Y40.616 E.99044
G1 X96.334 Y40.616 E.01676
G1 X119.179 Y63.461 E1.01413
G1 X119.179 Y63.995 E.01676
G1 X95.8 Y40.616 E1.03783
G1 X95.266 Y40.616 E.01676
G1 X119.179 Y64.529 E1.06153
G1 X119.179 Y65.063 E.01676
G1 X94.732 Y40.616 E1.08523
G1 X94.198 Y40.616 E.01676
G1 X119.179 Y65.597 E1.10893
G1 X119.179 Y66.131 E.01676
G1 X93.664 Y40.616 E1.13262
G1 X93.13 Y40.616 E.01676
G1 X119.179 Y66.665 E1.15632
G1 X119.179 Y67.198 E.01676
G1 X92.597 Y40.616 E1.18002
G1 X92.063 Y40.616 E.01676
G1 X119.179 Y67.732 E1.20372
G1 X119.179 Y68.266 E.01676
G1 X91.529 Y40.616 E1.22742
G1 X90.995 Y40.616 E.01676
G1 X119.179 Y68.8 E1.25111
G1 X119.179 Y69.334 E.01676
G1 X90.461 Y40.616 E1.27481
G1 X89.927 Y40.616 E.01676
M73 Q1 S125
G1 X119.179 Y69.868 E1.29851
G1 X119.179 Y70.402 E.01676
G1 X89.393 Y40.616 E1.32221
G1 X88.86 Y40.616 E.01676
G1 X119.179 Y70.935 E1.34591
G1 X119.179 Y71.469 E.01676
G1 X105.327 Y57.617 E.61489
G1 X105.5 Y58.191 E.01882
G1 X105.514 Y58.338 E.00462
G1 X119.179 Y72.003 E.6066
G1 X119.179 Y72.537 E.01676
G1 X105.571 Y58.929 E.60407
M73 P1 R124
G1 X105.587 Y59.092 E.00515
G1 X105.562 Y59.454 E.01138
G1 X119.179 Y73.071 E.60447
G1 X119.179 Y73.605 E.01676
G1 X105.507 Y59.932 E.60693
G1 X105.41 Y60.369 E.01405
G1 X119.179 Y74.139 E.61123
G1 X119.179 Y74.672 E.01676
G1 X105.287 Y60.78 E.6167
G1 X105.124 Y61.151 E.01272
G1 X119.179 Y75.206 E.62393
G1 X119.179 Y75.74 E.01676
G1 X104.954 Y61.515 E.63148
G1 X104.748 Y61.843 E.01216
G1 X119.179 Y76.274 E.6406
G1 X119.179 Y76.808 E.01676
G1 X104.513 Y62.142 E.65102
G1 X104.267 Y62.429 E.01188
G1 X119.179 Y77.342 E.66196
G1 X119.179 Y77.609 E.00838
G1 X118.912 Y77.609 E.00838
G1 X104.009 Y62.705 E.66158
G1 X103.71 Y62.94 E.01193
G1 X118.378 Y77.609 E.65115
G1 X117.845 Y77.609 E.01676
G1 X103.411 Y63.175 E.64073
G1 X103.313 Y63.252 E.00391
G1 X103.075 Y63.373 E.00837
G1 X117.311 Y77.609 E.63193
G1 X116.777 Y77.609 E.01676
G1 X102.721 Y63.553 E.62393
G1 X102.489 Y63.672 E.00819
G1 X102.347 Y63.713 E.00464
G1 X116.243 Y77.609 E.61684
G1 X115.709 Y77.609 E.01676
G1 X101.934 Y63.833 E.6115
G1 X101.602 Y63.929 E.01083
G1 X101.505 Y63.939 E.00306
G1 X115.175 Y77.609 E.60682
G1 X114.641 Y77.609 E.01676
G1 X101.018 Y63.985 E.60477
G1 X100.683 Y64.016 E.01056
G1 X100.498 Y63.999 E.00583
G1 X114.108 Y77.609 E.60414
G1 X113.574 Y77.609 E.01676
G1 X99.908 Y63.943 E.60661
G1 X99.763 Y63.929 E.00459
G1 X99.188 Y63.757 E.01884
G1 X113.21 Y77.778 E.62243
M204 S1000
;WIPE_START
G1 F8640
G1 X110.882 Y75.451 E-.76
;WIPE_END
G1 E-.04 F2100
G1 Z.6 F720
G1 X102.419 Y54.709 F10800
G1 Z.2 F720
G1 E.8 F2100
M204 S800
G1 F1200
G1 X88.326 Y40.616 E.62561
G1 X87.792 Y40.616 E.01676
G1 X101.459 Y54.283 E.60669
G1 X100.88 Y54.237 E.01824
G1 X87.258 Y40.616 E.60467
G1 X86.724 Y40.616 E.01676
G1 X100.338 Y54.23 E.60432
G1 X99.86 Y54.285 E.01511
G1 X86.19 Y40.616 E.6068
G1 X85.656 Y40.616 E.01676
M73 P2 R124
G1 X99.417 Y54.377 E.61086
G1 X99.026 Y54.519 E.01308
M73 Q2 S125
G1 X85.123 Y40.616 E.61716
G1 X84.589 Y40.616 E.01676
G1 X98.634 Y54.661 E.62346
G1 X98.292 Y54.853 E.0123
G1 X84.055 Y40.616 E.63201
G1 X83.521 Y40.616 E.01676
G1 X97.957 Y55.052 E.64082
G1 X97.799 Y55.145 E.00575
G1 X97.648 Y55.277 E.00629
G1 X82.987 Y40.616 E.65082
G1 X82.453 Y40.616 E.01676
G1 X97.364 Y55.526 E.66188
G1 X97.09 Y55.786 E.01185
G1 X82.186 Y40.883 E.66158
G1 X82.186 Y41.416 E.01676
G1 X96.855 Y56.085 E.65115
G1 X96.62 Y56.384 E.01193
G1 X82.186 Y41.95 E.64073
G1 X82.186 Y42.484 E.01676
G1 X96.422 Y56.72 E.63193
G1 X96.242 Y57.073 E.01246
G1 X82.186 Y43.018 E.62393
G1 X82.186 Y43.552 E.01676
G1 X96.082 Y57.448 E.61684
G1 X95.962 Y57.861 E.01352
G1 X82.186 Y44.086 E.6115
G1 X82.186 Y44.62 E.01676
G1 X95.856 Y58.29 E.60682
G1 X95.81 Y58.777 E.01538
G1 X82.186 Y45.153 E.60477
G1 X82.186 Y45.687 E.01676
G1 X95.796 Y59.297 E.60414
G1 X95.852 Y59.887 E.01859
G1 X82.186 Y46.221 E.60662
G1 X82.186 Y46.755 E.01676
G1 X96.28 Y60.848 E.62561
M204 S1000
;WIPE_START
G1 F8640
G1 X93.952 Y58.521 E-.76
;WIPE_END
G1 E-.04 F2100
G1 Z.6 F720
G1 X82.017 Y47.119 F10800
G1 Z.2 F720
G1 E.8 F2100
M204 S800
G1 F1200
G1 X112.506 Y77.609 E1.35344
G1 X111.972 Y77.609 E.01676
G1 X82.186 Y47.823 E1.32221
G1 X82.186 Y48.357 E.01676
M73 Q2 S124
G1 X111.438 Y77.609 E1.29851
G1 X110.904 Y77.609 E.01676
G1 X82.186 Y48.89 E1.27481
G1 X82.186 Y49.424 E.01676
G1 X110.371 Y77.609 E1.25111
G1 X109.837 Y77.609 E.01676
G1 X82.186 Y49.958 E1.22741
G1 X82.186 Y50.492 E.01676
M73 P2 R123
G1 X109.303 Y77.609 E1.20372
G1 X108.769 Y77.609 E.01676
G1 X82.186 Y51.026 E1.18002
G1 X82.186 Y51.56 E.01676
G1 X108.235 Y77.609 E1.15632
G1 X107.701 Y77.609 E.01676
G1 X82.186 Y52.094 E1.13262
G1 X82.186 Y52.627 E.01676
G1 X107.167 Y77.609 E1.10892
G1 X106.634 Y77.609 E.01676
G1 X82.186 Y53.161 E1.08523
G1 X82.186 Y53.695 E.01676
G1 X106.1 Y77.609 E1.06153
G1 X105.566 Y77.609 E.01676
G1 X82.186 Y54.229 E1.03783
G1 X82.186 Y54.763 E.01676
G1 X105.032 Y77.609 E1.01413
G1 X104.498 Y77.609 E.01676
G1 X82.186 Y55.297 E.99043
G1 X82.186 Y55.831 E.01676
G1 X103.964 Y77.609 E.96673
G1 X103.43 Y77.609 E.01676
G1 X82.186 Y56.364 E.94304
G1 X82.186 Y56.898 E.01676
G1 X102.897 Y77.609 E.91934
G1 X102.363 Y77.609 E.01676
G1 X82.186 Y57.432 E.89564
G1 X82.186 Y57.966 E.01676
G1 X101.829 Y77.609 E.87194
G1 X101.295 Y77.609 E.01676
G1 X82.186 Y58.5 E.84824
G1 X82.186 Y59.034 E.01676
G1 X100.761 Y77.609 E.82455
G1 X100.227 Y77.609 E.01676
G1 X82.186 Y59.568 E.80085
G1 X82.186 Y60.101 E.01676
G1 X99.693 Y77.609 E.77715
G1 X99.16 Y77.609 E.01676
