; generated by PrusaSlicer 2.4.2 on 2023-06-12 at 23:20:45 UTC

; 

; external perimeters extrusion width = 0.45mm
; perimeters extrusion width = 0.45mm
; infill extrusion width = 0.45mm
; solid infill extrusion width = 0.45mm
; top infill extrusion width = 0.40mm
; support material extrusion width = 0.35mm
; first layer extrusion width = 0.42mm

M73 P0 R48
M73 Q0 S48
M107
;TYPE:Custom
; M862.3 P "MK3S" ; printer model check
M862.1 P0.4 ; nozzle diameter check
M115 U3.9.0 ; tell printer latest fw version
G90 ; use absolute coordinates
M83 ; extruder relative mode
M104 S215 ; set extruder temp
M140 S60 ; set bed temp
M190 S60 ; wait for bed temp
M109 S215 ; wait for extruder temp
G28 W ; home all without mesh bed level
G80 ; mesh bed leveling
G1 Y-3.0 F1000.0 ; go outside print area
G92 E0.0
G1 X60.0 E9.0 F1000.0 ; intro line
G1 X100.0 E12.5 F1000.0 ; intro line
G92 E0.0
M221 S95
G21 ; set units to millimeters
G90 ; use absolute coordinates
M83 ; use relative distances for extrusion
M900 K0.06 ; Filament gcode LA 1.5
M900 K30 ; Filament gcode LA 1.0
M107
;LAYER_CHANGE
;Z:0.2
;HEIGHT:0.2
;BEFORE_LAYER_CHANGE
G92 E0.0
;0.2


G1 E-.8 F2100
G1 Z.6 F720
;AFTER_LAYER_CHANGE
;0.2
G1 X103.015 Y83.693 F10800
G1 Z.2 F720
G1 E.8 F2100
M204 S800
;TYPE:Skirt/Brim
;WIDTH:0.42
G1 F1200
G1 X104.06 Y82.817 E.04278
G1 X105 Y82.623 E.03008
G1 X145 Y82.623 E1.25417
G1 X146.307 Y83.015 E.04278
G1 X147.183 Y84.06 E.04278
G1 X147.377 Y85 E.03008
G1 X147.377 Y125 E1.25417
G1 X146.985 Y126.307 E.04278
G1 X145.94 Y127.183 E.04278
G1 X145 Y127.377 E.03008
G1 X105 Y127.377 E1.25417
G1 X103.693 Y126.985 E.04278
G1 X102.817 Y125.94 E.04278
G1 X102.623 Y125 E.03008
G1 X102.623 Y85 E1.25417
G1 X102.997 Y83.75 E.0409
M204 S1000
; printing object button-adafruit-base.stl id:0 copy 0
;WIPE_START
G1 F8640
G1 X104.06 Y82.817 E-.32671
G1 X105 Y82.623 E-.22155
G1 X105.917 Y82.623 E-.21174
;WIPE_END
G1 E-.04 F2100
G1 Z.8 F720
G1 X125.381 Y98.942 F10800
G1 Z.2 F720
G1 E.8 F2100
M204 S800
;TYPE:Support material
G1 F1200
G1 X126.137 Y99.038 E.0239
G1 X126.51 Y99.121 E.01196
G1 X126.876 Y99.227 E.01195
G1 X127.589 Y99.51 E.02407
G1 X127.686 Y99.53 E.00308
G1 X131.52 Y99.53 E.12022
G1 X131.52 Y110.47 E.34302
G1 X127.686 Y110.47 E.12022
G1 X127.589 Y110.49 E.00308
G1 X126.876 Y110.773 E.02407
G1 X126.137 Y110.962 E.0239
G1 X125.381 Y111.058 E.0239
G1 X125 Y111.07 E.01196
G1 X124.619 Y111.058 E.01196
G1 X123.863 Y110.962 E.0239
G1 X123.124 Y110.773 E.0239
G1 X122.411 Y110.49 E.02407
G1 X122.314 Y110.47 E.00308
G1 X118.48 Y110.47 E.12022
G1 X118.48 Y99.53 E.34302
G1 X122.314 Y99.53 E.12022
G1 X122.411 Y99.51 E.00308
G1 X123.124 Y99.227 E.02407
G1 X123.863 Y99.038 E.0239
G1 X124.619 Y98.942 E.0239
G1 X125.325 Y98.94 E.02213
M204 S1000
G1 X130.866 Y110.3 F10800
M204 S800
G1 F1200
G1 X130.866 Y99.869 E.32705
G1 X130.447 Y99.869 E.01314
G1 X130.447 Y110.131 E.32173
G1 X130.028 Y110.131 E.01314
G1 X130.028 Y99.869 E.32173
G1 X129.609 Y99.869 E.01314
G1 X129.609 Y110.131 E.32173
G1 X129.19 Y110.131 E.01314
G1 X129.19 Y99.869 E.32173
G1 X128.771 Y99.869 E.01314
G1 X128.771 Y110.131 E.32173
G1 X128.352 Y110.131 E.01314
G1 X128.352 Y99.869 E.32173
G1 X127.933 Y99.869 E.01314
G1 X127.933 Y110.131 E.32173
G1 X127.651 Y110.131 E.00884
G1 X127.514 Y110.159 E.00439
G1 X127.514 Y99.841 E.32351
G1 X127.095 Y99.667 E.01423
G1 X127.095 Y110.333 E.33443
G1 X126.676 Y110.477 E.01389
G1 X126.676 Y99.523 E.34348
G1 X126.257 Y99.412 E.01359
G1 X126.257 Y110.588 E.3504
G1 X125.838 Y110.666 E.01336
G1 X125.838 Y99.334 E.35531
G1 X125.419 Y99.287 E.01322
G1 X125.419 Y110.713 E.35827
G1 X125 Y110.73 E.01315
G1 X125 Y99.27 E.35933
G1 X124.581 Y99.287 E.01315
G1 X124.581 Y110.713 E.35827
G1 X124.162 Y110.666 E.01322
G1 X124.162 Y99.334 E.35531
G1 X123.743 Y99.412 E.01336
G1 X123.743 Y110.588 E.3504
G1 X123.324 Y110.477 E.01359
M73 P1 R48
M73 Q1 S48
G1 X123.324 Y99.523 E.34347
G1 X122.905 Y99.667 E.01389
G1 X122.905 Y110.333 E.33443
G1 X122.486 Y110.159 E.01423
G1 X122.486 Y99.841 E.32351
G1 X122.349 Y99.869 E.00439
G1 X122.067 Y99.869 E.00884
G1 X122.067 Y110.131 E.32173
G1 X121.648 Y110.131 E.01314
G1 X121.648 Y99.869 E.32173
G1 X121.229 Y99.869 E.01314
G1 X121.229 Y110.131 E.32173
G1 X120.81 Y110.131 E.01314
G1 X120.81 Y99.869 E.32173
G1 X120.391 Y99.869 E.01314
G1 X120.391 Y110.131 E.32173
G1 X119.972 Y110.131 E.01314
G1 X119.972 Y99.869 E.32173
G1 X119.553 Y99.869 E.01314
G1 X119.553 Y110.131 E.32173
G1 X119.134 Y110.131 E.01314
G1 X119.134 Y99.7 E.32705
M204 S1000
;WIPE_START
G1 F8640
G1 X119.134 Y102.991 E-.76
;WIPE_END
G1 E-.04 F2100
G1 Z.8 F720
G1 X133.164 Y97.886 F10800
G1 Z.2 F720
G1 E.8 F2100
M204 S800
;TYPE:Perimeter
G1 F1200
G1 X133.164 Y112.114 E.44612
G1 X127.958 Y112.114 E.16324
G1 X127.396 Y112.334 E.0189
G1 X126.919 Y112.472 E.0156
G1 X126.446 Y112.578 E.0152
G1 X125.967 Y112.654 E.0152
G1 X125.498 Y112.698 E.01476
G1 X125.001 Y112.715 E.01561
G1 X124.516 Y112.7 E.01522
G1 X124.033 Y112.654 E.0152
G1 X123.554 Y112.578 E.0152
G1 X123.081 Y112.472 E.0152
G1 X122.604 Y112.334 E.0156
G1 X122.042 Y112.114 E.0189
G1 X116.836 Y112.114 E.16324
G1 X116.836 Y97.886 E.44612
G1 X122.042 Y97.886 E.16324
G1 X122.604 Y97.666 E.0189
G1 X123.081 Y97.528 E.0156
G1 X123.554 Y97.422 E.0152
G1 X124.033 Y97.346 E.0152
G1 X124.516 Y97.3 E.0152
G1 X124.986 Y97.286 E.01476
G1 X125.484 Y97.3 E.01561
G1 X125.967 Y97.346 E.01522
G1 X126.446 Y97.422 E.0152
G1 X126.919 Y97.528 E.0152
G1 X127.396 Y97.666 E.0156
G1 X127.958 Y97.886 E.0189
G1 X133.104 Y97.886 E.16136
M204 S1000
G1 X132.787 Y98.263 F10800
M204 S800
G1 F1200
G1 X132.787 Y111.737 E.42247
G1 X127.887 Y111.737 E.15364
G1 X127.275 Y111.976 E.0206
G1 X126.825 Y112.107 E.0147
G1 X126.375 Y112.208 E.01445
G1 X125.92 Y112.28 E.01445
G1 X125.474 Y112.322 E.01402
G1 X125.001 Y112.337 E.01486
G1 X124.539 Y112.323 E.01447
G1 X124.08 Y112.28 E.01445
G1 X123.625 Y112.208 E.01445
G1 X123.175 Y112.107 E.01445
G1 X122.725 Y111.976 E.0147
G1 X122.113 Y111.737 E.0206
G1 X117.213 Y111.737 E.15364
G1 X117.213 Y98.263 E.42247
G1 X122.113 Y98.263 E.15364
G1 X122.725 Y98.024 E.0206
G1 X123.175 Y97.893 E.0147
G1 X123.625 Y97.793 E.01445
G1 X124.08 Y97.72 E.01445
G1 X124.539 Y97.677 E.01445
G1 X124.986 Y97.663 E.01402
G1 X125.46 Y97.677 E.01486
G1 X125.92 Y97.72 E.01447
G1 X126.375 Y97.792 E.01445
G1 X126.825 Y97.893 E.01445
G1 X127.275 Y98.024 E.0147
G1 X127.887 Y98.263 E.0206
G1 X132.727 Y98.263 E.15176
M204 S1000
G1 X132.41 Y98.64 F10800
M204 S800
;TYPE:External perimeter
G1 F1200
G1 X132.41 Y111.36 E.39883
G1 X127.816 Y111.36 E.14405
G1 X127.154 Y111.619 E.02229
G1 X126.731 Y111.742 E.0138
G1 X126.304 Y111.837 E.01371
G1 X125.872 Y111.905 E.01371
G1 X125.45 Y111.945 E.01329
G1 X125 Y111.96 E.01412
G1 X124.563 Y111.946 E.01372
G1 X124.128 Y111.905 E.01371
G1 X123.696 Y111.837 E.01371
G1 X123.269 Y111.742 E.01371
G1 X122.846 Y111.619 E.0138
G1 X122.184 Y111.36 E.02229
G1 X117.59 Y111.36 E.14405
G1 X117.59 Y98.64 E.39883
G1 X122.184 Y98.64 E.14405
G1 X122.846 Y98.381 E.02229
G1 X123.269 Y98.258 E.0138
G1 X123.696 Y98.163 E.01371
G1 X124.128 Y98.095 E.01371
G1 X124.563 Y98.054 E.01371
G1 X124.987 Y98.04 E.01329
G1 X125.437 Y98.054 E.01412
G1 X125.872 Y98.095 E.01372
G1 X126.304 Y98.163 E.01371
G1 X126.731 Y98.258 E.01371
G1 X127.154 Y98.381 E.0138
G1 X127.816 Y98.64 E.02229
G1 X132.35 Y98.64 E.14217
M204 S1000
G1 X132.81 Y98.647 F10800
;WIPE_START
G1 F8640
M73 P1 R47
G1 X132.366 Y101.931 E-.76
;WIPE_END
G1 E-.04 F2100
G1 Z.8 F720
G1 X143.836 Y86.164 F10800
G1 Z.2 F720
G1 E.8 F2100
M204 S800
;TYPE:Perimeter
G1 F1200
G1 X143.836 Y123.836 E1.18117
G1 X106.164 Y123.836 E1.18117
G1 X106.164 Y86.164 E1.18117
G1 X143.776 Y86.164 E1.17929
M204 S1000
M73 Q1 S47
G1 X144.213 Y85.787 F10800
M204 S800
G1 F1200
G1 X144.213 Y124.213 E1.20482
G1 X105.787 Y124.213 E1.20482
G1 X105.787 Y85.787 E1.20482
G1 X144.153 Y85.787 E1.20293
M204 S1000
M73 P2 R47
M73 Q2 S47
G1 X144.59 Y85.41 F10800
M204 S800
;TYPE:External perimeter
G1 F1200
G1 X144.59 Y124.59 E1.22846
G1 X105.41 Y124.59 E1.22846
G1 X105.41 Y85.41 E1.22846
G1 X144.53 Y85.41 E1.22658
M204 S1000
G1 X144.486 Y85.796 F10800
;WIPE_START
G1 F8640
G1 X144.535 Y88.701 E-.76
;WIPE_END
G1 E-.04 F2100
G1 Z.8 F720
G1 X143.723 Y87.043 F10800
G1 Z.2 F720
G1 E.8 F2100
M204 S800
;TYPE:Solid infill
;WIDTH:0.421557
G1 F1200
G1 X143.127 Y86.447 E.02653
G1 X142.591 Y86.447 E.01686
G1 X143.553 Y87.409 E.04282
G1 X143.553 Y87.944 E.01686
G1 X142.056 Y86.447 E.06666
G1 X141.52 Y86.447 E.01686
G1 X143.553 Y88.48 E.0905
G1 X143.553 Y89.015 E.01686
G1 X140.985 Y86.447 E.11434
G1 X140.449 Y86.447 E.01686
G1 X143.553 Y89.551 E.13819
G1 X143.553 Y90.086 E.01686
G1 X139.914 Y86.447 E.16203
G1 X139.379 Y86.447 E.01686
G1 X143.553 Y90.621 E.18587
G1 X143.553 Y91.157 E.01686
G1 X138.843 Y86.447 E.20971
G1 X138.308 Y86.447 E.01686
G1 X143.553 Y91.692 E.23355
G1 X143.553 Y92.228 E.01686
G1 X137.772 Y86.447 E.2574
G1 X137.237 Y86.447 E.01686
G1 X143.553 Y92.763 E.28124
G1 X143.553 Y93.299 E.01686
G1 X136.701 Y86.447 E.30508
G1 X136.166 Y86.447 E.01686
G1 X143.553 Y93.834 E.32892
G1 X143.553 Y94.37 E.01686
G1 X135.63 Y86.447 E.35276
G1 X135.095 Y86.447 E.01686
G1 X143.553 Y94.905 E.3766
G1 X143.553 Y95.441 E.01686
G1 X134.559 Y86.447 E.40045
G1 X134.024 Y86.447 E.01686
G1 X143.553 Y95.976 E.42429
G1 X143.553 Y96.512 E.01686
G1 X133.488 Y86.447 E.44813
G1 X132.953 Y86.447 E.01686
G1 X143.553 Y97.047 E.47197
G1 X143.553 Y97.583 E.01686
G1 X132.417 Y86.447 E.49581
G1 X131.882 Y86.447 E.01686
G1 X143.553 Y98.118 E.51966
G1 X143.553 Y98.654 E.01686
G1 X131.346 Y86.447 E.5435
G1 X130.811 Y86.447 E.01686
G1 X143.553 Y99.189 E.56734
G1 X143.553 Y99.725 E.01686
G1 X130.275 Y86.447 E.59118
G1 X129.74 Y86.447 E.01686
G1 X143.553 Y100.26 E.61502
G1 X143.553 Y100.795 E.01686
G1 X129.205 Y86.447 E.63886
G1 X128.669 Y86.447 E.01686
G1 X143.553 Y101.331 E.66271
G1 X143.553 Y101.866 E.01686
G1 X128.134 Y86.447 E.68655
G1 X127.598 Y86.447 E.01686
G1 X143.553 Y102.402 E.71039
G1 X143.553 Y102.937 E.01686
M73 P3 R47
M73 Q3 S47
G1 X127.063 Y86.447 E.73423
G1 X126.527 Y86.447 E.01686
G1 X143.553 Y103.473 E.75807
G1 X143.553 Y104.008 E.01686
G1 X125.992 Y86.447 E.78192
G1 X125.456 Y86.447 E.01686
G1 X143.553 Y104.544 E.80576
G1 X143.553 Y105.079 E.01686
G1 X124.921 Y86.447 E.8296
G1 X124.385 Y86.447 E.01686
G1 X143.553 Y105.615 E.85344
G1 X143.553 Y106.15 E.01686
G1 X123.85 Y86.447 E.87728
G1 X123.314 Y86.447 E.01686
G1 X143.553 Y106.686 E.90113
G1 X143.553 Y107.221 E.01686
G1 X122.779 Y86.447 E.92497
G1 X122.243 Y86.447 E.01686
G1 X143.553 Y107.757 E.94881
G1 X143.553 Y108.292 E.01686
G1 X133.447 Y98.186 E.44997
G1 X133.447 Y98.721 E.01686
G1 X143.553 Y108.828 E.44997
G1 X143.553 Y109.363 E.01686
G1 X133.447 Y99.257 E.44997
G1 X133.447 Y99.792 E.01686
G1 X143.553 Y109.899 E.44997
G1 X143.553 Y110.434 E.01686
G1 X133.447 Y100.328 E.44997
G1 X133.447 Y100.863 E.01686
M73 P3 R46
G1 X143.553 Y110.969 E.44997
G1 X143.553 Y111.505 E.01686
G1 X133.447 Y101.399 E.44997
G1 X133.447 Y101.934 E.01686
G1 X143.553 Y112.04 E.44997
G1 X143.553 Y112.576 E.01686
G1 X133.447 Y102.47 E.44997
G1 X133.447 Y103.005 E.01686
G1 X143.553 Y113.111 E.44997
G1 X143.553 Y113.647 E.01686
G1 X133.447 Y103.541 E.44997
G1 X133.447 Y104.076 E.01686
G1 X143.553 Y114.182 E.44997
G1 X143.553 Y114.718 E.01686
G1 X133.447 Y104.612 E.44997
G1 X133.447 Y105.147 E.01686
M73 Q3 S46
G1 X143.553 Y115.253 E.44997
G1 X143.553 Y115.789 E.01686
G1 X133.447 Y105.683 E.44997
G1 X133.447 Y106.218 E.01686
G1 X143.553 Y116.324 E.44997
G1 X143.553 Y116.86 E.01686
G1 X133.447 Y106.754 E.44997
G1 X133.447 Y107.289 E.01686
G1 X143.553 Y117.395 E.44997
G1 X143.553 Y117.931 E.01686
G1 X133.447 Y107.825 E.44997
G1 X133.447 Y108.36 E.01686
G1 X143.553 Y118.466 E.44997
G1 X143.553 Y119.002 E.01686
G1 X133.447 Y108.895 E.44997
G1 X133.447 Y109.431 E.01686
M73 P4 R46
M73 Q4 S46
G1 X143.553 Y119.537 E.44997
G1 X143.553 Y120.073 E.01686
G1 X133.447 Y109.966 E.44997
G1 X133.447 Y110.502 E.01686
G1 X143.553 Y120.608 E.44997
G1 X143.553 Y121.143 E.01686
G1 X133.447 Y111.037 E.44997
G1 X133.447 Y111.573 E.01686
G1 X143.553 Y121.679 E.44997
G1 X143.553 Y122.214 E.01686
G1 X133.447 Y112.108 E.44997
G1 X133.447 Y112.397 E.00909
G1 X133.2 Y112.397 E.00777
G1 X143.553 Y122.75 E.46096
G1 X143.553 Y123.285 E.01686
G1 X132.665 Y112.397 E.4848
G1 X132.129 Y112.397 E.01686
G1 X143.285 Y123.553 E.49672
G1 X142.75 Y123.553 E.01686
G1 X131.594 Y112.397 E.49672
G1 X131.058 Y112.397 E.01686
G1 X142.214 Y123.553 E.49672
G1 X141.679 Y123.553 E.01686
G1 X130.523 Y112.397 E.49672
G1 X129.987 Y112.397 E.01686
G1 X141.143 Y123.553 E.49672
G1 X140.608 Y123.553 E.01686
G1 X129.452 Y112.397 E.49672
G1 X128.916 Y112.397 E.01686
G1 X140.072 Y123.553 E.49672
G1 X139.537 Y123.553 E.01686
G1 X128.381 Y112.397 E.49672
G1 X128.011 Y112.397 E.01164
G1 X127.892 Y112.444 E.00403
G1 X139.001 Y123.553 E.49465
G1 X138.466 Y123.553 E.01686
G1 X127.507 Y112.594 E.48795
G1 X127.094 Y112.716 E.01357
G1 X137.931 Y123.553 E.48252
G1 X137.395 Y123.553 E.01686
G1 X126.662 Y112.82 E.47791
G1 X126.208 Y112.902 E.0145
G1 X136.86 Y123.553 E.47424
G1 X136.324 Y123.553 E.01686
G1 X125.731 Y112.96 E.47164
G1 X125.226 Y112.99 E.01594
G1 X135.789 Y123.553 E.47031
G1 X135.253 Y123.553 E.01686
G1 X124.688 Y112.988 E.47041
G1 X124.11 Y112.945 E.01825
G1 X134.718 Y123.553 E.47231
G1 X134.182 Y123.553 E.01686
G1 X123.481 Y112.851 E.47649
G1 X122.77 Y112.676 E.02303
G1 X133.647 Y123.553 E.48428
G1 X133.111 Y123.553 E.01686
G1 X121.955 Y112.397 E.49672
G1 X121.42 Y112.397 E.01686
G1 X132.576 Y123.553 E.49672
G1 X132.04 Y123.553 E.01686
G1 X120.884 Y112.397 E.49672
G1 X120.349 Y112.397 E.01686
G1 X131.505 Y123.553 E.49672
G1 X130.969 Y123.553 E.01686
G1 X119.813 Y112.397 E.49672
G1 X119.278 Y112.397 E.01686
G1 X130.434 Y123.553 E.49672
G1 X129.898 Y123.553 E.01686
G1 X118.742 Y112.397 E.49672
G1 X118.207 Y112.397 E.01686
G1 X129.363 Y123.553 E.49672
G1 X128.827 Y123.553 E.01686
G1 X117.671 Y112.397 E.49672
G1 X117.136 Y112.397 E.01686
M73 P5 R46
M73 Q5 S46
G1 X128.462 Y123.723 E.50428
M204 S1000
;WIPE_START
G1 F8640
G1 X126.134 Y121.395 E-.76
;WIPE_END
G1 E-.04 F2100
G1 Z.8 F720
G1 X133.034 Y97.773 F10800
G1 Z.2 F720
G1 E.8 F2100
M204 S800
G1 F1200
G1 X121.708 Y86.447 E.50428
G1 X121.172 Y86.447 E.01686
G1 X132.329 Y97.603 E.49672
G1 X131.793 Y97.603 E.01686
G1 X120.637 Y86.447 E.49672
G1 X120.101 Y86.447 E.01686
G1 X131.258 Y97.603 E.49672
G1 X130.722 Y97.603 E.01686
G1 X119.566 Y86.447 E.49672
G1 X119.031 Y86.447 E.01686
G1 X130.187 Y97.603 E.49672
G1 X129.651 Y97.603 E.01686
G1 X118.495 Y86.447 E.49672
G1 X117.96 Y86.447 E.01686
G1 X129.116 Y97.603 E.49672
G1 X128.58 Y97.603 E.01686
G1 X117.424 Y86.447 E.49672
G1 X116.889 Y86.447 E.01686
G1 X128.045 Y97.603 E.49672
G1 X127.488 Y97.398 E.01869
G1 X127.23 Y97.324 E.00845
G1 X116.353 Y86.447 E.48428
G1 X115.818 Y86.447 E.01686
G1 X126.519 Y97.149 E.47649
G1 X125.89 Y97.055 E.02003
G1 X115.282 Y86.447 E.47231
G1 X114.747 Y86.447 E.01686
G1 X125.312 Y97.012 E.47043
G1 X124.774 Y97.009 E.01695
G1 X114.211 Y86.447 E.47029
G1 X113.676 Y86.447 E.01686
G1 X124.269 Y97.04 E.47164
G1 X123.791 Y97.098 E.01514
G1 X113.14 Y86.447 E.47424
G1 X112.605 Y86.447 E.01686
G1 X123.338 Y97.18 E.47791
G1 X122.906 Y97.284 E.01398
G1 X112.069 Y86.447 E.48252
G1 X111.534 Y86.447 E.01686
G1 X122.493 Y97.406 E.48795
G1 X122.108 Y97.556 E.01301
G1 X110.998 Y86.447 E.49465
G1 X110.463 Y86.447 E.01686
M73 P5 R45
G1 X121.619 Y97.603 E.49672
G1 X121.084 Y97.603 E.01686
G1 X109.927 Y86.447 E.49672
G1 X109.392 Y86.447 E.01686
G1 X120.548 Y97.603 E.49672
G1 X120.013 Y97.603 E.01686
G1 X108.857 Y86.447 E.49672
G1 X108.321 Y86.447 E.01686
G1 X119.477 Y97.603 E.49672
G1 X118.942 Y97.603 E.01686
G1 X107.786 Y86.447 E.49672
G1 X107.25 Y86.447 E.01686
G1 X118.406 Y97.603 E.49672
G1 X117.871 Y97.603 E.01686
M73 Q5 S45
G1 X106.715 Y86.447 E.49672
G1 X106.447 Y86.447 E.00843
G1 X106.447 Y86.715 E.00843
G1 X117.335 Y97.603 E.4848
G1 X116.8 Y97.603 E.01686
G1 X106.447 Y87.25 E.46096
G1 X106.447 Y87.786 E.01686
G1 X116.553 Y97.892 E.44997
G1 X116.553 Y98.427 E.01686
