; generated by PrusaSlicer 2.5.2+linux-x64-GTK3 on 2023-06-12 at 22:11:48 UTC


;
;
; 

; external perimeters extrusion width = 0.45mm
; perimeters extrusion width = 0.45mm
; infill extrusion width = 0.45mm
; solid infill extrusion width = 0.45mm
; top infill extrusion width = 0.40mm
; support material extrusion width = 0.35mm
; first layer extrusion width = 0.42mm

M73 P0 R42
M73 Q0 S42
M201 X1000 Y1000 Z200 E5000 ; sets maximum accelerations, mm/sec^2
M203 X200 Y200 Z12 E120 ; sets maximum feedrates, mm / sec
M204 P1250 R1250 T1250 ; sets acceleration (P, T) and retract acceleration (R), mm/sec^2
M205 X8.00 Y8.00 Z0.40 E4.50 ; sets the jerk limits, mm/sec
M205 S0 T0 ; sets the minimum extruding and travel feed rate, mm/sec
M107
;TYPE:Custom
M862.3 P "MK3S" ; printer model check
M862.1 P0.4 ; nozzle diameter check
M115 U3.12.2 ; tell printer latest fw version
G90 ; use absolute coordinates
M83 ; extruder relative mode
M104 S215 ; set extruder temp
M140 S60 ; set bed temp
M190 S60 ; wait for bed temp
M109 S215 ; wait for extruder temp
G28 W ; home all without mesh bed level
G80 ; mesh bed leveling

G1 Z0.2 F720
G1 Y-3 F1000 ; go outside print area
G92 E0
G1 X60 E9 F1000 ; intro line
G1 X100 E12.5 F1000 ; intro line

G92 E0
M221 S95

; Don't change E values below. Excessive value can damage the printer.
M907 E430 ; set extruder motor current
G21 ; set units to millimeters
G90 ; use absolute coordinates
M83 ; use relative distances for extrusion
M900 K0.05 ; Filament gcode LA 1.5
M900 K30 ; Filament gcode LA 1.0
M107
;LAYER_CHANGE
;Z:0.2
;HEIGHT:0.2
;BEFORE_LAYER_CHANGE
G92 E0.0
;0.2


G1 E-.8 F2100
G1 Z.4 F720
;AFTER_LAYER_CHANGE
;0.2
G1 X103.015 Y83.693 F10800
G1 Z.2 F720
G1 E.8 F2100
M204 S800
;TYPE:Skirt/Brim
;WIDTH:0.42
G1 F1200
G1 X104.06 Y82.817 E.04278
G1 X105 Y82.623 E.03008
G1 X145 Y82.623 E1.25417
G1 X146.307 Y83.015 E.04278
G1 X147.183 Y84.06 E.04278
G1 X147.377 Y85 E.03008
G1 X147.377 Y125 E1.25417
G1 X146.985 Y126.307 E.04278
G1 X145.94 Y127.183 E.04278
G1 X145 Y127.377 E.03008
G1 X105 Y127.377 E1.25417
G1 X103.693 Y126.985 E.04278
G1 X102.817 Y125.94 E.04278
G1 X102.623 Y125 E.03008
G1 X102.623 Y85 E1.25417
G1 X102.997 Y83.75 E.0409
M204 S1000
; printing object button-adafruit-base.stl id:0 copy 0
;WIPE_START
G1 F8640
G1 X104.06 Y82.817 E-.32671
G1 X105 Y82.623 E-.22155
G1 X105.917 Y82.623 E-.21174
;WIPE_END
G1 E-.04 F2100
G1 Z.6 F720
G1 X125.375 Y99.042 F10800
G1 Z.2 F720
G1 E.8 F2100
M204 S800
;TYPE:Support material
G1 F1200
G1 X125.748 Y99.077 E.01176
G1 X126.485 Y99.218 E.02351
G1 X126.845 Y99.322 E.01176
G1 X127.338 Y99.51 E.01654
G1 X127.434 Y99.53 E.00308
G1 X131.52 Y99.53 E.12811
G1 X131.52 Y110.47 E.34302
G1 X127.434 Y110.47 E.12811
G1 X127.338 Y110.49 E.00308
G1 X126.845 Y110.678 E.01654
G1 X126.119 Y110.864 E.02351
G1 X125.375 Y110.958 E.0235
G1 X125 Y110.97 E.01176
G1 X124.252 Y110.923 E.02351
G1 X123.881 Y110.864 E.01176
G1 X123.155 Y110.678 E.02351
G1 X122.662 Y110.49 E.01654
G1 X122.566 Y110.47 E.00308
G1 X118.48 Y110.47 E.12811
G1 X118.48 Y99.53 E.34302
G1 X122.566 Y99.53 E.12811
G1 X122.662 Y99.51 E.00308
G1 X123.155 Y99.322 E.01654
G1 X123.881 Y99.136 E.02351
G1 X124.625 Y99.042 E.02351
G1 X125.318 Y99.04 E.02173
M204 S1000
G1 X130.866 Y110.3 F10800
M204 S800
G1 F1200
G1 X130.866 Y99.869 E.32705
G1 X130.447 Y99.869 E.01314
G1 X130.447 Y110.131 E.32173
G1 X130.028 Y110.131 E.01314
G1 X130.028 Y99.869 E.32173
G1 X129.609 Y99.869 E.01314
G1 X129.609 Y110.131 E.32173
G1 X129.19 Y110.131 E.01314
G1 X129.19 Y99.869 E.32173
G1 X128.771 Y99.869 E.01314
G1 X128.771 Y110.131 E.32173
G1 X128.352 Y110.131 E.01314
G1 X128.352 Y99.869 E.32173
G1 X127.933 Y99.869 E.01314
G1 X127.933 Y110.131 E.32173
G1 X127.514 Y110.131 E.01314
G1 X127.514 Y99.869 E.32173
G1 X127.399 Y99.869 E.0036
G1 X127.235 Y99.835 E.00526
G1 X127.095 Y99.775 E.00478
G1 X127.095 Y110.225 E.32767
G1 X126.676 Y110.373 E.01393
G1 X126.676 Y99.627 E.33695
G1 X126.257 Y99.515 E.0136
G1 X126.257 Y110.485 E.34398
G1 X125.838 Y110.565 E.01337
M73 P1 R42
M73 Q1 S42
G1 X125.838 Y99.435 E.34897
G1 X125.419 Y99.387 E.01322
G1 X125.419 Y110.613 E.35198
G1 X125 Y110.63 E.01315
G1 X125 Y99.37 E.35306
G1 X124.581 Y99.387 E.01315
G1 X124.581 Y110.613 E.35198
G1 X124.162 Y110.565 E.01322
G1 X124.162 Y99.435 E.34897
G1 X123.743 Y99.515 E.01337
G1 X123.743 Y110.485 E.34398
G1 X123.324 Y110.373 E.0136
G1 X123.324 Y99.627 E.33695
G1 X122.905 Y99.775 E.01393
G1 X122.905 Y110.225 E.32767
G1 X122.765 Y110.165 E.00478
G1 X122.601 Y110.131 E.00526
G1 X122.486 Y110.131 E.0036
G1 X122.486 Y99.869 E.32173
G1 X122.067 Y99.869 E.01314
G1 X122.067 Y110.131 E.32173
G1 X121.648 Y110.131 E.01314
G1 X121.648 Y99.869 E.32173
G1 X121.229 Y99.869 E.01314
G1 X121.229 Y110.131 E.32173
G1 X120.81 Y110.131 E.01314
G1 X120.81 Y99.869 E.32173
G1 X120.391 Y99.869 E.01314
G1 X120.391 Y110.131 E.32173
G1 X119.972 Y110.131 E.01314
G1 X119.972 Y99.869 E.32173
G1 X119.553 Y99.869 E.01314
M73 P1 R41
G1 X119.553 Y110.131 E.32173
G1 X119.134 Y110.131 E.01314
G1 X119.134 Y99.7 E.32705
M204 S1000
;WIPE_START
G1 F8640
G1 X119.134 Y102.991 E-.76
;WIPE_END
G1 E-.04 F2100
G1 Z.6 F720
G1 X106.164 Y86.164 F10800
G1 Z.2 F720
G1 E.8 F2100
M204 S800
;TYPE:Perimeter
;WIDTH:0.419999
G1 F1200
G1 X143.836 Y86.164 E1.18117
G1 X143.836 Y123.836 E1.18117
G1 X106.164 Y123.836 E1.18117
M73 Q1 S41
G1 X106.164 Y86.224 E1.17929
M204 S1000
G1 X105.787 Y85.787 F10800
M204 S800
G1 F1200
G1 X144.213 Y85.787 E1.20481
G1 X144.213 Y124.213 E1.20481
G1 X105.787 Y124.213 E1.20481
G1 X105.787 Y85.847 E1.20293
M204 S1000
G1 X105.41 Y85.41 F10800
M204 S800
;TYPE:External perimeter
M73 P2 R41
M73 Q2 S41
G1 F1200
G1 X144.59 Y85.41 E1.22846
G1 X144.59 Y124.59 E1.22846
G1 X105.41 Y124.59 E1.22846
G1 X105.41 Y85.47 E1.22658
M204 S1000
G1 X105.796 Y85.514 F10800
;WIPE_START
G1 F8640
G1 X108.701 Y85.465 E-.76
;WIPE_END
G1 E-.04 F2100
G1 Z.6 F720
G1 X132.409 Y112.085 F10800
G1 Z.2 F720
G1 E.8 F2100
M204 S800
;TYPE:Perimeter
G1 F1200
G1 X132.221 Y112.114 E.00594
G1 X127.682 Y112.114 E.14234
G1 X126.958 Y112.356 E.02393
G1 X126.013 Y112.545 E.03022
G1 X125.059 Y112.612 E.02998
G1 X124.105 Y112.56 E.02997
G1 X123.164 Y112.388 E.02998
G1 X122.318 Y112.114 E.02788
G1 X117.779 Y112.114 E.14234
G1 X117.451 Y112.055 E.01043
G1 X117.18 Y111.899 E.00982
G1 X116.964 Y111.646 E.01044
G1 X116.844 Y111.298 E.01152
G1 X116.836 Y111.171 E.00398
G1 X116.836 Y98.829 E.387
G1 X116.91 Y98.462 E.01172
G1 X117.101 Y98.173 E.01087
G1 X117.352 Y97.988 E.00978
G1 X117.666 Y97.893 E.01029
G1 X117.779 Y97.886 E.00353
G1 X122.318 Y97.886 E.14234
G1 X123.042 Y97.644 E.02393
G1 X123.987 Y97.455 E.03022
G1 X124.926 Y97.388 E.02951
G1 X125.894 Y97.44 E.03039
G1 X126.836 Y97.612 E.03002
G1 X127.682 Y97.886 E.02788
G1 X132.221 Y97.886 E.14234
G1 X132.549 Y97.945 E.01043
G1 X132.82 Y98.101 E.00982
G1 X133.036 Y98.354 E.01044
G1 X133.156 Y98.702 E.01152
G1 X133.164 Y98.829 E.00398
G1 X133.164 Y111.171 E.387
G1 X133.09 Y111.538 E.01172
G1 X132.899 Y111.827 E.01087
G1 X132.648 Y112.012 E.00978
G1 X132.466 Y112.067 E.00595
M204 S1000
G1 X132.328 Y111.719 F10800
M204 S800
G1 F1200
G1 X132.221 Y111.737 E.0034
G1 X127.62 Y111.737 E.14426
G1 X126.838 Y111.998 E.02585
G1 X125.942 Y112.175 E.02864
G1 X125.036 Y112.236 E.02849
G1 X124.128 Y112.183 E.02849
G1 X123.235 Y112.018 E.02849
G1 X122.38 Y111.737 E.02822
G1 X117.779 Y111.737 E.14426
G1 X117.523 Y111.676 E.00825
G1 X117.328 Y111.514 E.00793
G1 X117.218 Y111.247 E.00905
G1 X117.213 Y111.171 E.00239
G1 X117.213 Y98.829 E.387
G1 X117.29 Y98.544 E.00924
G1 X117.468 Y98.356 E.00814
G1 X117.711 Y98.267 E.00811
G1 X117.779 Y98.263 E.00212
G1 X122.38 Y98.263 E.14426
G1 X123.162 Y98.002 E.02585
G1 X124.058 Y97.825 E.02864
G1 X124.95 Y97.764 E.02803
G1 X125.871 Y97.816 E.02892
G1 X126.765 Y97.982 E.02852
G1 X127.62 Y98.263 E.02822
G1 X132.221 Y98.263 E.14426
G1 X132.477 Y98.324 E.00825
G1 X132.672 Y98.486 E.00793
G1 X132.782 Y98.753 E.00905
G1 X132.787 Y98.829 E.00239
G1 X132.787 Y111.171 E.387
G1 X132.71 Y111.456 E.00924
G1 X132.532 Y111.644 E.00814
G1 X132.385 Y111.698 E.00491
M204 S1000
G1 X132.221 Y111.36 F10800
M204 S800
;TYPE:External perimeter
G1 F1200
G1 X127.559 Y111.36 E.14618
G1 X126.719 Y111.641 E.02778
G1 X125.872 Y111.804 E.02706
G1 X125.012 Y111.86 E.02701
G1 X124.152 Y111.807 E.02701
G1 X123.306 Y111.647 E.02701
G1 X122.441 Y111.36 E.02857
G1 X117.779 Y111.36 E.14618
G1 X117.643 Y111.303 E.00461
G1 X117.59 Y111.171 E.00444
G1 X117.59 Y98.829 E.387
G1 X117.659 Y98.683 E.00505
G1 X117.779 Y98.64 E.00399
G1 X122.441 Y98.64 E.14618
G1 X123.281 Y98.359 E.02778
G1 X124.128 Y98.196 E.02706
G1 X124.974 Y98.141 E.02656
G1 X125.848 Y98.193 E.02745
G1 X126.694 Y98.353 E.02702
G1 X127.559 Y98.64 E.02857
G1 X132.221 Y98.64 E.14618
G1 X132.357 Y98.697 E.00461
G1 X132.41 Y98.829 E.00444
G1 X132.41 Y111.171 E.387
G1 X132.341 Y111.317 E.00505
G1 X132.278 Y111.34 E.00211
M204 S1000
G1 X132.118 Y111.746 F10800
;WIPE_START
G1 F8640
G1 X128.987 Y111.354 E-.76
;WIPE_END
G1 E-.04 F2100
G1 Z.6 F720
G1 X143.666 Y87.097 F10800
G1 Z.2 F720
G1 E.8 F2100
M204 S800
;TYPE:Solid infill
;WIDTH:0.420414
G1 F1200
G1 X143.073 Y86.504 E.02634
G1 X142.539 Y86.504 E.01676
G1 X143.496 Y87.461 E.04251
G1 X143.496 Y87.995 E.01676
G1 X142.005 Y86.504 E.06621
G1 X141.471 Y86.504 E.01676
G1 X143.496 Y88.529 E.08991
G1 X143.496 Y89.063 E.01676
G1 X140.937 Y86.504 E.1136
G1 X140.403 Y86.504 E.01676
G1 X143.496 Y89.597 E.1373
G1 X143.496 Y90.13 E.01676
G1 X139.87 Y86.504 E.161
G1 X139.336 Y86.504 E.01676
G1 X143.496 Y90.664 E.1847
G1 X143.496 Y91.198 E.01676
G1 X138.802 Y86.504 E.2084
G1 X138.268 Y86.504 E.01676
G1 X143.496 Y91.732 E.23209
G1 X143.496 Y92.266 E.01676
G1 X137.734 Y86.504 E.25579
G1 X137.2 Y86.504 E.01676
G1 X143.496 Y92.8 E.27949
G1 X143.496 Y93.334 E.01676
G1 X136.666 Y86.504 E.30319
G1 X136.133 Y86.504 E.01676
G1 X143.496 Y93.867 E.32689
G1 X143.496 Y94.401 E.01676
G1 X135.599 Y86.504 E.35059
G1 X135.065 Y86.504 E.01676
G1 X143.496 Y94.935 E.37428
G1 X143.496 Y95.469 E.01676
G1 X134.531 Y86.504 E.39798
G1 X133.997 Y86.504 E.01676
G1 X143.496 Y96.003 E.42168
G1 X143.496 Y96.537 E.01676
G1 X133.463 Y86.504 E.44538
G1 X132.929 Y86.504 E.01676
M73 P3 R41
M73 Q3 S41
G1 X143.496 Y97.071 E.46908
G1 X143.496 Y97.604 E.01676
G1 X132.396 Y86.504 E.49277
G1 X131.862 Y86.504 E.01676
G1 X143.496 Y98.138 E.51647
G1 X143.496 Y98.672 E.01676
G1 X131.328 Y86.504 E.54017
G1 X130.794 Y86.504 E.01676
G1 X143.496 Y99.206 E.56387
G1 X143.496 Y99.74 E.01676
G1 X130.26 Y86.504 E.58757
G1 X129.726 Y86.504 E.01676
G1 X143.496 Y100.274 E.61127
G1 X143.496 Y100.808 E.01676
G1 X129.192 Y86.504 E.63496
G1 X128.659 Y86.504 E.01676
G1 X143.496 Y101.341 E.65866
G1 X143.496 Y101.875 E.01676
G1 X128.125 Y86.504 E.68236
G1 X127.591 Y86.504 E.01676
G1 X143.496 Y102.409 E.70606
G1 X143.496 Y102.943 E.01676
G1 X127.057 Y86.504 E.72976
G1 X126.523 Y86.504 E.01676
G1 X143.496 Y103.477 E.75345
G1 X143.496 Y104.011 E.01676
G1 X125.989 Y86.504 E.77715
G1 X125.455 Y86.504 E.01676
G1 X143.496 Y104.545 E.80085
G1 X143.496 Y105.078 E.01676
G1 X124.922 Y86.504 E.82455
G1 X124.388 Y86.504 E.01676
M73 P3 R40
G1 X143.496 Y105.612 E.84825
G1 X143.496 Y106.146 E.01676
G1 X123.854 Y86.504 E.87194
G1 X123.32 Y86.504 E.01676
G1 X143.496 Y106.68 E.89564
G1 X143.496 Y107.214 E.01676
G1 X122.786 Y86.504 E.91934
G1 X122.252 Y86.504 E.01676
M73 Q3 S40
G1 X143.496 Y107.748 E.94304
G1 X143.496 Y108.282 E.01676
G1 X121.718 Y86.504 E.96674
G1 X121.185 Y86.504 E.01676
M73 P4 R40
M73 Q4 S40
G1 X132.235 Y97.554 E.49055
G1 X132.374 Y97.555 E.00436
G1 X132.667 Y97.625 E.00945
G1 X132.925 Y97.756 E.00908
G1 X133.144 Y97.937 E.00891
G1 X133.331 Y98.184 E.00972
G1 X133.459 Y98.489 E.01039
G1 X133.504 Y98.822 E.01057
G1 X143.496 Y108.815 E.44359
G1 X143.496 Y109.349 E.01676
G1 X133.504 Y99.356 E.44359
G1 X133.504 Y99.89 E.01676
G1 X143.496 Y109.883 E.44359
G1 X143.496 Y110.417 E.01676
G1 X133.504 Y100.424 E.44359
G1 X133.504 Y100.958 E.01676
G1 X143.496 Y110.951 E.44359
G1 X143.496 Y111.485 E.01676
G1 X133.504 Y101.492 E.44359
G1 X133.504 Y102.026 E.01676
G1 X143.496 Y112.019 E.44359
G1 X143.496 Y112.552 E.01676
G1 X133.504 Y102.559 E.44359
G1 X133.504 Y103.093 E.01676
G1 X143.496 Y113.086 E.44359
G1 X143.496 Y113.62 E.01676
G1 X133.504 Y103.627 E.44359
G1 X133.504 Y104.161 E.01676
G1 X143.496 Y114.154 E.44359
G1 X143.496 Y114.688 E.01676
G1 X133.504 Y104.695 E.44359
G1 X133.504 Y105.229 E.01676
G1 X143.496 Y115.222 E.44359
G1 X143.496 Y115.756 E.01676
G1 X133.504 Y105.763 E.44359
G1 X133.504 Y106.296 E.01676
G1 X143.496 Y116.289 E.44359
G1 X143.496 Y116.823 E.01676
G1 X133.504 Y106.83 E.44359
G1 X133.504 Y107.364 E.01676
G1 X143.496 Y117.357 E.44359
G1 X143.496 Y117.891 E.01676
G1 X133.504 Y107.898 E.44359
G1 X133.504 Y108.432 E.01676
G1 X143.496 Y118.425 E.44359
G1 X143.496 Y118.959 E.01676
G1 X133.504 Y108.966 E.44359
G1 X133.504 Y109.5 E.01676
G1 X143.496 Y119.493 E.44359
G1 X143.496 Y120.026 E.01676
G1 X133.504 Y110.033 E.44359
G1 X133.504 Y110.567 E.01676
G1 X143.496 Y120.56 E.44359
G1 X143.496 Y121.094 E.01676
G1 X133.504 Y111.101 E.44359
G1 X133.459 Y111.511 E.01294
G1 X133.436 Y111.567 E.0019
G1 X143.496 Y121.628 E.44661
G1 X143.496 Y122.162 E.01676
G1 X133.253 Y111.919 E.4547
G1 X133.146 Y112.06 E.00556
G1 X132.992 Y112.191 E.00636
G1 X143.496 Y122.696 E.4663
G1 X143.496 Y123.23 E.01676
G1 X132.642 Y112.375 E.48185
G1 X132.524 Y112.418 E.00395
G1 X132.187 Y112.454 E.01064
G1 X143.23 Y123.496 E.4902
G1 X142.696 Y123.496 E.01676
G1 X131.653 Y112.454 E.4902
G1 X131.119 Y112.454 E.01676
G1 X142.162 Y123.496 E.4902
G1 X141.628 Y123.496 E.01676
G1 X130.585 Y112.454 E.4902
G1 X130.051 Y112.454 E.01676
M73 P5 R40
M73 Q5 S40
G1 X141.094 Y123.496 E.4902
G1 X140.56 Y123.496 E.01676
G1 X129.517 Y112.454 E.4902
G1 X128.983 Y112.454 E.01676
G1 X140.026 Y123.496 E.4902
G1 X139.493 Y123.496 E.01676
G1 X128.45 Y112.454 E.4902
G1 X127.916 Y112.454 E.01676
G1 X138.959 Y123.496 E.4902
G1 X138.425 Y123.496 E.01676
G1 X127.471 Y112.542 E.48626
G1 X127.07 Y112.676 E.01325
G1 X137.891 Y123.496 E.48033
G1 X137.357 Y123.496 E.01676
G1 X126.63 Y112.769 E.4762
G1 X126.184 Y112.857 E.01426
G1 X136.823 Y123.496 E.47229
G1 X136.289 Y123.496 E.01676
G1 X125.698 Y112.906 E.47013
G1 X125.199 Y112.94 E.01571
G1 X135.756 Y123.496 E.4686
G1 X135.222 Y123.496 E.01676
G1 X124.655 Y112.93 E.46905
G1 X124.082 Y112.89 E.01805
G1 X134.688 Y123.496 E.47081
G1 X134.154 Y123.496 E.01676
G1 X123.44 Y112.783 E.47558
G1 X122.975 Y112.691 E.01488
G1 X122.734 Y112.611 E.00797
G1 X133.62 Y123.496 E.48323
G1 X133.086 Y123.496 E.01676
G1 X122.043 Y112.453 E.49022
G1 X121.508 Y112.452 E.01679
G1 X132.552 Y123.496 E.49026
G1 X132.019 Y123.496 E.01676
G1 X120.973 Y112.451 E.4903
G1 X120.438 Y112.45 E.01679
G1 X131.485 Y123.496 E.49034
G1 X130.951 Y123.496 E.01676
G1 X119.904 Y112.449 E.49039
G1 X119.369 Y112.448 E.01679
G1 X130.417 Y123.496 E.49043
G1 X129.883 Y123.496 E.01676
G1 X118.834 Y112.448 E.49047
G1 X118.299 Y112.447 E.01679
G1 X129.519 Y123.666 E.49804
M204 S1000
;WIPE_START
G1 F8640
G1 X127.192 Y121.339 E-.76
;WIPE_END
G1 E-.04 F2100
G1 Z.6 F720
G1 X131.871 Y97.723 F10800
G1 Z.2 F720
G1 E.8 F2100
M204 S800
G1 F1200
G1 X120.651 Y86.504 E.49805
G1 X120.117 Y86.504 E.01676
G1 X131.166 Y97.552 E.49047
G1 X130.631 Y97.552 E.01679
G1 X119.583 Y86.504 E.49043
G1 X119.049 Y86.504 E.01676
G1 X130.096 Y97.551 E.49039
G1 X129.561 Y97.55 E.01679
G1 X118.515 Y86.504 E.49034
G1 X117.981 Y86.504 E.01676
G1 X129.027 Y97.549 E.4903
G1 X128.492 Y97.548 E.01679
G1 X117.448 Y86.504 E.49026
G1 X116.914 Y86.504 E.01676
M73 P6 R40
M73 Q6 S40
G1 X127.957 Y97.547 E.49022
G1 X127.737 Y97.547 E.00691
M73 P6 R39
G1 X127.266 Y97.389 E.0156
G1 X116.38 Y86.504 E.48322
G1 X115.846 Y86.504 E.01676
G1 X126.56 Y97.217 E.47558
G1 X126.067 Y97.12 E.01575
G1 X125.919 Y97.111 E.00466
G1 X115.312 Y86.504 E.47086
G1 X114.778 Y86.504 E.01676
G1 X125.35 Y97.076 E.4693
G1 X124.798 Y97.057 E.01735
G1 X114.244 Y86.504 E.46848
G1 X113.711 Y86.504 E.01676
G1 X124.3 Y97.093 E.47008
G1 X123.816 Y97.143 E.01528
G1 X113.177 Y86.504 E.47229
G1 X112.643 Y86.504 E.01676
