; generated by PrusaSlicer 2.7.4 on 2024-05-05 at 03:47:27 UTC

; 

; external perimeters extrusion width = 0.40mm
; perimeters extrusion width = 0.40mm
; infill extrusion width = 0.40mm
; solid infill extrusion width = 0.40mm
; top infill extrusion width = 0.40mm
; first layer extrusion width = 0.42mm

M73 P0 R110
M73 Q0 S111
;TYPE:Custom
; M862.3 P "MK3S" ; printer model check
M862.1 P0.4 ; nozzle diameter check
M115 U3.9.0 ; tell printer latest fw version
G90 ; use absolute coordinates
M83 ; extruder relative mode
M104 S215 ; set extruder temp
M140 S68 ; set bed temp
M190 S68 ; wait for bed temp
M109 S215 ; wait for extruder temp
G28 W ; home all without mesh bed level
G80 ; mesh bed leveling
G1 Y-3.0 F1000.0 ; go outside print area
G92 E0.0
G1 X60.0 E9.0 F1000.0 ; intro line
G1 X100.0 E12.5 F1000.0 ; intro line
G92 E0.0
M221 S95
G21 ; set units to millimeters
G90 ; use absolute coordinates
M83 ; use relative distances for extrusion
M900 K0.06 ; Filament gcode LA 1.5
M900 K30 ; Filament gcode LA 1.0
M107
;LAYER_CHANGE
;Z:0.2
;HEIGHT:0.2
G1 E-.8 F2100
G1 Z.8 F10800
G1 X88.432 Y76.221
G1 Z.2
G1 E.8 F2100
M204 S1000
;TYPE:Skirt/Brim
;WIDTH:0.42
G1 F1200
G1 X89.082 Y75.642 E.02729
G1 X100.455 Y68.781 E.41646
G1 X101.311 Y68.468 E.02858
G1 X102.008 Y68.358 E.02212
G1 X104.635 Y68.187 E.08254
G1 X145.71 Y68.188 E1.28788
G1 X147.768 Y68.306 E.06463
G1 X148.698 Y68.595 E.03053
G1 X160.962 Y75.403 E.4398
G1 X161.686 Y76.024 E.02991
G1 X162.076 Y76.527 E.01996
G1 X163.455 Y78.682 E.08022
G1 X164.608 Y81.132 E.0849
G1 X164.791 Y81.641 E.01696
G1 X164.931 Y82.446 E.02562
G1 X164.892 Y96.985 E.45586
G1 X156.973 Y139.931 E1.36924
G1 X156.351 Y141.145 E.04277
G1 X154.635 Y141.877 E.05849
G1 X94.635 Y141.877 E1.88126
G1 X93.328 Y141.485 E.04278
G1 X92.29 Y139.886 E.05977
G1 X85.065 Y95.743 E1.40249
G1 X85.065 Y83.257 E.39149
G1 X85.159 Y82.594 E.021
G1 X85.663 Y81.132 E.04849
G1 X86.231 Y79.82 E.04483
G1 X86.816 Y78.682 E.04012
G1 X88.107 Y76.647 E.07556
G1 X88.396 Y76.268 E.01494
;WIPE_START
G1 F8640
G1 X88.432 Y76.221 E-.01367
G1 X89.082 Y75.642 E-.201
G1 X91.253 Y74.332 E-.58533
;WIPE_END
G1 Z.8 F10800
G1 X128.743 Y95.763
G1 Z.2
G1 E.8 F2100
;TYPE:Perimeter
;WIDTH:0.419999
G1 F1200
G1 X128.993 Y95.403 E.01374
G1 X129.35 Y94.794 E.02213
G1 X129.659 Y94.184 E.02144
G1 X129.933 Y93.545 E.0218
G1 X130.167 Y92.891 E.02178
G1 X130.359 Y92.223 E.02179
G1 X130.509 Y91.544 E.0218
G1 X130.616 Y90.857 E.0218
G1 X130.679 Y90.165 E.02179
G1 X130.699 Y89.47 E.0218
G1 X130.675 Y88.776 E.02177
G1 X130.608 Y88.084 E.0218
G1 X130.498 Y87.398 E.02178
G1 X130.344 Y86.72 E.0218
G1 X130.149 Y86.053 E.02179
G1 X129.911 Y85.4 E.02179
G1 X129.634 Y84.762 E.02181
G1 X129.316 Y84.144 E.02179
G1 X128.743 Y83.237 E.03364
G1 X128.889 Y82.83 E.01356
G1 X129.312 Y81.854 E.03335
G1 X129.795 Y80.906 E.03336
G1 X130.336 Y79.99 E.03336
G1 X130.823 Y79.275 E.02712
G1 X131.134 Y78.853 E.01644
G1 X131.702 Y78.905 E.01788
G1 X132.397 Y78.91 E.02179
G1 X133.091 Y78.872 E.02179
G1 X133.781 Y78.79 E.02179
G1 X134.465 Y78.665 E.0218
G1 X135.139 Y78.498 E.02177
G1 X135.802 Y78.288 E.02181
G1 X136.45 Y78.037 E.02179
G1 X137.081 Y77.746 E.02179
G1 X137.693 Y77.416 E.0218
G1 X138.283 Y77.048 E.0218
G1 X138.848 Y76.644 E.02178
G1 X139.392 Y76.201 E.022
G1 X139.902 Y75.728 E.02181
G1 X140.377 Y75.23 E.02158
G1 X140.827 Y74.695 E.02192
G1 X141.241 Y74.133 E.02189
G1 X141.614 Y73.555 E.02157
G1 X141.954 Y72.949 E.02179
G1 X142.255 Y72.322 E.02181
G1 X142.513 Y72.263 E.0083
G1 X143.572 Y72.163 E.03335
G1 X144.65 Y72.129 E.03382
G1 X146.076 Y72.143 E.04471
G1 X146.962 Y72.188 E.02782
G1 X147.388 Y73.079 E.03097
G1 X147.687 Y73.606 E.019
G1 X148.07 Y74.19 E.0219
G1 X148.483 Y74.745 E.02169
G1 X148.933 Y75.275 E.0218
G1 X149.42 Y75.778 E.02195
G1 X149.929 Y76.244 E.02164
G1 X150.47 Y76.68 E.02179
G1 X151.037 Y77.081 E.02177
G1 X151.629 Y77.446 E.02181
G1 X152.243 Y77.772 E.0218
G1 X152.875 Y78.06 E.02178
G1 X153.525 Y78.307 E.0218
G1 X154.189 Y78.514 E.02181
G1 X154.864 Y78.678 E.02178
G1 X155.548 Y78.799 E.02178
G1 X156.239 Y78.877 E.0218
G1 X156.933 Y78.911 E.02179
G1 X157.751 Y78.893 E.02565
G1 X158.321 Y78.849 E.01793
G1 X159.053 Y78.745 E.02318
G1 X159.336 Y79.11 E.01448
G1 X159.934 Y79.99 E.03336
G1 X160.476 Y80.906 E.03337
G1 X160.958 Y81.852 E.03329
G1 X161.179 Y82.369 E.01763
G1 X161.132 Y82.422 E.00222
G1 X160.667 Y83.021 E.02378
G1 X160.216 Y83.702 E.02561
G1 X159.926 Y84.196 E.01796
G1 X159.612 Y84.816 E.02179
G1 X159.338 Y85.455 E.0218
G1 X159.104 Y86.109 E.02178
G1 X158.912 Y86.777 E.02179
G1 X158.762 Y87.456 E.0218
G1 X158.655 Y88.143 E.0218
G1 X158.592 Y88.835 E.02179
G1 X158.572 Y89.53 E.0218
G1 X158.595 Y90.224 E.02177
G1 X158.663 Y90.916 E.0218
G1 X158.773 Y91.602 E.02178
G1 X158.927 Y92.28 E.0218
G1 X159.122 Y92.947 E.02179
G1 X159.359 Y93.6 E.02178
G1 X159.637 Y94.238 E.02182
G1 X159.954 Y94.856 E.02178
G1 X160.353 Y95.517 E.02421
G1 X160.855 Y96.224 E.02719
G1 X161.179 Y96.631 E.01631
G1 X160.958 Y97.148 E.01763
G1 X160.476 Y98.094 E.03329
G1 X159.934 Y99.01 E.03337
G1 X159.522 Y99.616 E.02298
G1 X159.053 Y100.255 E.02485
G1 X158.262 Y100.144 E.02504
G1 X157.447 Y100.094 E.0256
G1 X156.874 Y100.09 E.01797
G1 X156.18 Y100.128 E.02179
G1 X155.49 Y100.21 E.02179
G1 X154.806 Y100.335 E.0218
G1 X154.132 Y100.502 E.02177
G1 X153.469 Y100.712 E.02181
G1 X152.82 Y100.963 E.02182
G1 X152.183 Y101.257 E.022
G1 X151.578 Y101.584 E.02156
G1 X150.988 Y101.952 E.0218
G1 X150.423 Y102.356 E.02178
M73 Q0 S110
G1 X149.884 Y102.795 E.0218
G1 X149.373 Y103.267 E.02181
G1 X148.894 Y103.77 E.02178
G1 X148.446 Y104.302 E.02181
G1 X148.033 Y104.863 E.02184
G1 X147.657 Y105.445 E.02173
G1 X147.317 Y106.051 E.02179
G1 X146.962 Y106.812 E.02633
G1 X146.699 Y106.837 E.00828
G1 X145.619 Y106.871 E.03388
G1 X144.652 Y106.871 E.03032
G1 X143.572 Y106.837 E.03388
G1 X142.284 Y106.701 E.04061
G1 X141.926 Y105.999 E.02471
G1 X141.584 Y105.394 E.02179
G1 X141.199 Y104.806 E.02204
G1 X140.788 Y104.255 E.02155
G1 X140.338 Y103.726 E.02178
G1 X139.855 Y103.225 E.02182
G1 X139.342 Y102.756 E.02179
G1 X138.801 Y102.32 E.02179
G1 X138.233 Y101.919 E.0218
G1 X137.642 Y101.554 E.02178
G1 X137.028 Y101.227 E.02181
G1 X136.389 Y100.937 E.022
G1 X135.746 Y100.693 E.02156
G1 X135.082 Y100.486 E.02181
G1 X134.407 Y100.322 E.02178
G1 X133.722 Y100.201 E.02181
G1 X133.032 Y100.123 E.02177
G1 X132.326 Y100.089 E.02216
G1 X131.643 Y100.098 E.02142
G1 X131.125 Y100.136 E.01629
G1 X130.934 Y99.89 E.00977
G1 X130.336 Y99.01 E.03336
G1 X129.795 Y98.094 E.03336
G1 X129.312 Y97.146 E.03336
G1 X128.937 Y96.281 E.02956
G1 X128.764 Y95.819 E.01547
G1 X128.764 Y95.819 F10800
G1 X128.322 Y95.706
G1 F1200
G1 X128.668 Y95.211 E.01894
G1 X129.014 Y94.623 E.02139
G1 X129.313 Y94.034 E.02071
G1 X129.578 Y93.418 E.02103
G1 X129.805 Y92.786 E.02106
G1 X129.991 Y92.14 E.02108
G1 X130.136 Y91.485 E.02103
G1 X130.24 Y90.822 E.02104
G1 X130.302 Y90.153 E.02107
G1 X130.322 Y89.482 E.02105
G1 X130.3 Y88.811 E.02105
G1 X130.236 Y88.143 E.02104
G1 X130.13 Y87.48 E.02105
G1 X129.982 Y86.825 E.02105
G1 X129.794 Y86.181 E.02103
G1 X129.565 Y85.549 E.02108
G1 X129.298 Y84.934 E.02102
G1 X128.992 Y84.336 E.02106
G1 X128.644 Y83.751 E.02134
G1 X128.322 Y83.294 E.01753
G1 X128.539 Y82.692 E.02006
G1 X128.971 Y81.693 E.03413
G1 X129.464 Y80.724 E.03409
G1 X130.018 Y79.788 E.0341
G1 X130.629 Y78.889 E.03408
G1 X130.963 Y78.458 E.0171
G1 X131.706 Y78.528 E.0234
G1 X132.377 Y78.534 E.02104
G1 X133.047 Y78.497 E.02104
G1 X133.714 Y78.419 E.02106
G1 X134.375 Y78.299 E.02106
G1 X135.026 Y78.138 E.02103
G1 X135.667 Y77.936 E.02107
G1 X136.293 Y77.694 E.02104
G1 X136.903 Y77.414 E.02104
G1 X137.494 Y77.096 E.02104
G1 X138.064 Y76.741 E.02105
G1 X138.611 Y76.351 E.02106
G1 X139.136 Y75.924 E.02122
G1 X139.63 Y75.467 E.0211
G1 X140.089 Y74.987 E.02082
G1 X140.524 Y74.47 E.02118
G1 X140.925 Y73.928 E.02114
G1 X141.286 Y73.37 E.02084
G1 X141.614 Y72.785 E.02103
G1 X141.994 Y71.963 E.02839
G1 X142.466 Y71.889 E.01498
G1 X143.548 Y71.786 E.03408
G1 X144.645 Y71.752 E.03441
G1 X145.813 Y71.758 E.03662
G1 X146.722 Y71.786 E.02851
G1 X147.227 Y71.834 E.01591
G1 X147.391 Y72.236 E.01361
G1 X147.717 Y72.894 E.02302
G1 X148.003 Y73.401 E.01825
G1 X148.373 Y73.966 E.02118
G1 X148.771 Y74.501 E.02091
G1 X149.205 Y75.014 E.02107
G1 X149.675 Y75.501 E.02122
G1 X150.166 Y75.951 E.02088
G1 X150.688 Y76.373 E.02105
G1 X151.236 Y76.761 E.02105
G1 X151.807 Y77.113 E.02103
G1 X152.4 Y77.43 E.02108
G1 X153.011 Y77.708 E.02105
G1 X153.638 Y77.948 E.02105
G1 X154.279 Y78.147 E.02104
G1 X154.931 Y78.306 E.02104
G1 X155.592 Y78.424 E.02105
G1 X156.259 Y78.5 E.02105
G1 X156.929 Y78.534 E.02103
G1 X157.723 Y78.517 E.0249
G1 X158.575 Y78.434 E.02684
G1 X159.207 Y78.329 E.02009
G1 X159.642 Y78.889 E.02223
G1 X160.253 Y79.788 E.03408
G1 X160.807 Y80.724 E.0341
G1 X161.3 Y81.692 E.03406
G1 X161.62 Y82.441 E.02554
G1 X161.414 Y82.672 E.0097
G1 X160.979 Y83.233 E.02226
G1 X160.54 Y83.894 E.02488
G1 X160.262 Y84.367 E.0172
G1 X159.958 Y84.966 E.02106
G1 X159.692 Y85.582 E.02104
G1 X159.466 Y86.214 E.02104
G1 X159.28 Y86.859 E.02105
G1 X159.135 Y87.515 E.02106
G1 X159.031 Y88.178 E.02104
G1 X158.969 Y88.847 E.02107
G1 X158.949 Y89.518 E.02105
G1 X158.971 Y90.189 E.02105
G1 X159.035 Y90.857 E.02104
G1 X159.141 Y91.52 E.02105
G1 X159.289 Y92.175 E.02105
G1 X159.477 Y92.819 E.02103
G1 X159.706 Y93.451 E.02108
G1 X159.973 Y94.066 E.02102
G1 X160.279 Y94.664 E.02106
G1 X160.665 Y95.305 E.02346
G1 X161.153 Y95.993 E.02645
G1 X161.62 Y96.559 E.02301
G1 X161.3 Y97.308 E.02554
G1 X160.807 Y98.276 E.03406
G1 X160.253 Y99.212 E.0341
G1 X159.642 Y100.111 E.03408
G1 X159.207 Y100.671 E.02223
G1 X158.9 Y100.61 E.00981
G1 X158.235 Y100.52 E.02104
G1 X157.443 Y100.471 E.02488
G1 X156.894 Y100.466 E.01721
G1 X156.223 Y100.503 E.02107
G1 X155.557 Y100.581 E.02102
G1 X154.896 Y100.701 E.02106
G1 X154.244 Y100.862 E.02106
G1 X153.604 Y101.064 E.02104
G1 X152.977 Y101.306 E.02107
G1 X152.362 Y101.59 E.02124
G1 X151.777 Y101.904 E.02082
G1 X151.207 Y102.259 E.02105
G1 X150.66 Y102.649 E.02106
G1 X150.139 Y103.072 E.02104
G1 X149.646 Y103.528 E.02106
G1 X149.182 Y104.013 E.02105
G1 X148.749 Y104.526 E.02105
G1 X148.349 Y105.069 E.02115
G1 X147.985 Y105.63 E.02097
G1 X147.656 Y106.215 E.02104
G1 X147.227 Y107.166 E.03271
G1 X146.722 Y107.214 E.01591
G1 X145.625 Y107.248 E.03441
G1 X144.646 Y107.248 E.0307
G1 X143.548 Y107.214 E.03444
G1 X142.491 Y107.114 E.03329
G1 X141.994 Y107.037 E.01577
G1 X141.598 Y106.184 E.02949
G1 X141.267 Y105.599 E.02107
G1 X140.897 Y105.031 E.02125
G1 X140.5 Y104.499 E.02081
G1 X140.065 Y103.987 E.02107
G1 X139.6 Y103.503 E.02104
G1 X139.105 Y103.049 E.02106
G1 X138.583 Y102.627 E.02105
G1 X138.035 Y102.239 E.02105
G1 X137.463 Y101.887 E.02106
G1 X136.871 Y101.57 E.02106
G1 X136.254 Y101.289 E.02126
G1 X135.633 Y101.052 E.02084
G1 X134.992 Y100.853 E.02104
G1 X134.34 Y100.694 E.02104
G1 X133.679 Y100.576 E.02105
G1 X133.012 Y100.5 E.02105
G1 X132.33 Y100.466 E.02141
G1 X131.67 Y100.474 E.0207
G1 X130.954 Y100.531 E.02252
G1 X130.629 Y100.111 E.01665
G1 X130.018 Y99.212 E.03408
G1 X129.464 Y98.276 E.0341
G1 X128.971 Y97.307 E.03409
G1 X128.539 Y96.308 E.03413
G1 X128.342 Y95.763 E.01817
G1 X128.342 Y95.763 F10800
G1 X127.901 Y95.649
;TYPE:External perimeter
G1 F1200
G1 X128.343 Y95.02 E.0241
G1 X128.678 Y94.452 E.02068
G1 X128.967 Y93.884 E.01998
G1 X129.224 Y93.29 E.02029
G1 X129.443 Y92.68 E.02032
G1 X129.623 Y92.058 E.0203
G1 X129.764 Y91.426 E.0203
G1 X129.865 Y90.786 E.02032
G1 X129.925 Y90.141 E.02031
G1 X129.945 Y89.494 E.0203
G1 X129.925 Y88.847 E.0203
G1 X129.863 Y88.202 E.02032
G1 X129.762 Y87.562 E.02032
G1 X129.62 Y86.93 E.02031
G1 X129.439 Y86.308 E.02031
G1 X129.219 Y85.699 E.0203
G1 X128.962 Y85.105 E.02029
G1 X128.667 Y84.528 E.02032
G1 X128.335 Y83.968 E.02041
G1 X127.901 Y83.351 E.02365
G1 X128.188 Y82.553 E.02659
G1 X128.629 Y81.533 E.03484
G1 X129.134 Y80.543 E.03485
G1 X129.699 Y79.586 E.03485
G1 X130.324 Y78.667 E.03485
G1 X130.793 Y78.062 E.024
G1 X131.71 Y78.151 E.02889
G1 X132.357 Y78.157 E.02029
G1 X133.004 Y78.123 E.02031
G1 X133.647 Y78.048 E.0203
G1 X134.285 Y77.933 E.02033
G1 X134.914 Y77.778 E.02031
G1 X135.532 Y77.584 E.02031
G1 X136.136 Y77.351 E.0203
G1 X136.725 Y77.081 E.02032
G1 X137.296 Y76.775 E.02031
G1 X137.846 Y76.433 E.02031
G1 X138.374 Y76.058 E.02031
G1 X138.881 Y75.646 E.02048
G1 X139.358 Y75.206 E.02035
G1 X139.801 Y74.744 E.02007
G1 X140.221 Y74.246 E.02043
G1 X140.768 Y73.477 E.02959
G1 X141.1 Y72.933 E.01998
G1 X141.485 Y72.185 E.02638
G1 X141.725 Y71.624 E.01913
G1 X142.418 Y71.514 E.022
G1 X143.525 Y71.41 E.03486
G1 X144.64 Y71.375 E.03498
G1 X145.82 Y71.381 E.037
G1 X146.746 Y71.41 E.02905
G1 X147.492 Y71.48 E.02349
G1 X147.731 Y72.072 E.02002
G1 X148.045 Y72.709 E.02227
G1 X148.32 Y73.195 E.01751
G1 X148.675 Y73.741 E.02042
G1 X149.059 Y74.258 E.02019
G1 X149.478 Y74.753 E.02033
G1 X149.931 Y75.223 E.02047
G1 X150.403 Y75.658 E.02013
G1 X150.907 Y76.065 E.02031
G1 X151.435 Y76.44 E.02031
G1 X151.986 Y76.781 E.02032
G1 X152.557 Y77.087 E.02031
G1 X153.146 Y77.356 E.0203
G1 X153.75 Y77.588 E.02029
G1 X154.369 Y77.781 E.02033
G1 X154.998 Y77.935 E.0203
G1 X155.635 Y78.05 E.0203
G1 X156.279 Y78.124 E.02033
G1 X156.925 Y78.157 E.02028
G1 X157.695 Y78.141 E.02415
G1 X158.219 Y78.102 E.01648
G1 X158.861 Y78.014 E.02032
G1 X159.362 Y77.913 E.01602
G1 X159.947 Y78.667 E.02992
G1 X160.571 Y79.586 E.03483
G1 X161.137 Y80.543 E.03486
G1 X161.641 Y81.532 E.0348
G1 X162.061 Y82.513 E.03346
G1 X161.696 Y82.923 E.01721
G1 X161.291 Y83.445 E.02072
G1 X160.865 Y84.086 E.02413
G1 X160.598 Y84.538 E.01646
G1 X160.304 Y85.116 E.02033
G1 X160.047 Y85.71 E.02029
G1 X159.828 Y86.32 E.02032
G1 X159.648 Y86.942 E.0203
G1 X159.507 Y87.574 E.0203
G1 X159.406 Y88.214 E.02032
G1 X159.345 Y88.859 E.02031
G1 X159.325 Y89.506 E.0203
G1 X159.346 Y90.153 E.0203
G1 X159.407 Y90.798 E.02031
G1 X159.509 Y91.438 E.02032
G1 X159.651 Y92.07 E.02031
G1 X159.832 Y92.692 E.02031
G1 X160.052 Y93.301 E.0203
G1 X160.309 Y93.895 E.02029
G1 X160.604 Y94.472 E.02032
G1 X160.977 Y95.093 E.02271
G1 X161.298 Y95.565 E.0179
G1 X161.696 Y96.077 E.02033
G1 X162.061 Y96.487 E.01721
G1 X161.641 Y97.468 E.03346
G1 X161.137 Y98.457 E.0348
G1 X160.571 Y99.414 E.03486
G1 X159.947 Y100.333 E.03483
G1 X159.362 Y101.087 E.02992
G1 X158.849 Y100.984 E.01641
G1 X158.207 Y100.897 E.02031
G1 X157.439 Y100.848 E.02413
G1 X156.914 Y100.843 E.01646
G1 X156.267 Y100.877 E.02031
G1 X155.623 Y100.952 E.02033
G1 X154.986 Y101.067 E.0203
G1 X154.357 Y101.222 E.02031
G1 X153.739 Y101.416 E.02031
G1 X153.135 Y101.649 E.0203
G1 X152.54 Y101.922 E.02053
G1 X151.975 Y102.225 E.0201
G1 X151.425 Y102.567 E.02031
G1 X150.897 Y102.942 E.02031
G1 X150.394 Y103.35 E.02031
G1 X149.918 Y103.789 E.0203
G1 X149.47 Y104.256 E.02029
G1 X149.052 Y104.751 E.02031
G1 X148.665 Y105.274 E.0204
G1 X148.314 Y105.815 E.02022
G1 X147.996 Y106.379 E.0203
G1 X147.714 Y106.964 E.02036
G1 X147.492 Y107.52 E.01877
G1 X146.746 Y107.59 E.02349
G1 X145.631 Y107.625 E.03498
G1 X144.64 Y107.625 E.03107
G1 X143.525 Y107.59 E.03498
G1 X142.418 Y107.486 E.03486
G1 X141.725 Y107.376 E.022
G1 X141.552 Y106.952 E.01436
G1 X141.269 Y106.369 E.02032
G1 X140.951 Y105.805 E.0203
G1 X140.594 Y105.256 E.02053
G1 X140.212 Y104.742 E.02008
G1 X139.793 Y104.248 E.02031
G1 X139.345 Y103.78 E.02031
G1 X138.868 Y103.342 E.0203
G1 X138.364 Y102.935 E.02031
G1 X137.836 Y102.56 E.02031
G1 X137.285 Y102.219 E.02032
G1 X136.714 Y101.913 E.02031
G1 X136.119 Y101.641 E.02051
G1 X135.52 Y101.412 E.02011
G1 X134.902 Y101.219 E.0203
G1 X134.273 Y101.065 E.0203
G1 X133.636 Y100.95 E.0203
G1 X132.992 Y100.876 E.02033
G1 X132.334 Y100.843 E.02066
G1 X131.474 Y100.866 E.02697
G1 X130.79 Y100.934 E.02155
G1 X130.324 Y100.333 E.02384
G1 X129.699 Y99.414 E.03485
G1 X129.134 Y98.457 E.03485
G1 X128.629 Y97.467 E.03485
G1 X128.188 Y96.447 E.03484
G1 X127.921 Y95.706 E.0247
;WIPE_START
G1 F8640
G1 X127.901 Y95.649 E-.01395
G1 X128.343 Y95.02 E-.17751
G1 X128.678 Y94.452 E-.15226
G1 X128.967 Y93.884 E-.14715
G1 X129.224 Y93.29 E-.14944
