; generated by PrusaSlicer 2.8.0 on 2024-08-07 at 05:11:44 UTC

; 

; external perimeters extrusion width = 0.40mm
; perimeters extrusion width = 0.40mm
; infill extrusion width = 0.40mm
; solid infill extrusion width = 0.40mm
; top infill extrusion width = 0.40mm
; first layer extrusion width = 0.42mm

M73 P0 R90
M73 Q0 S90
;TYPE:Custom
; M862.3 P "MK3S" ; printer model check
M862.1 P0.4 ; nozzle diameter check
M115 U3.9.0 ; tell printer latest fw version
G90 ; use absolute coordinates
M83 ; extruder relative mode
M104 S215 ; set extruder temp
M140 S68 ; set bed temp
M190 S68 ; wait for bed temp
M109 S215 ; wait for extruder temp
G28 W ; home all without mesh bed level
G80 ; mesh bed leveling
G1 Y-3.0 F1000.0 ; go outside print area
G92 E0.0
G1 X60.0 E9.0 F1000.0 ; intro line
G1 X100.0 E12.5 F1000.0 ; intro line
G92 E0.0
M221 S95
G21 ; set units to millimeters
G90 ; use absolute coordinates
M83 ; use relative distances for extrusion
M900 K0.06 ; Filament gcode LA 1.5
M900 K30 ; Filament gcode LA 1.0
M107
;LAYER_CHANGE
;Z:0.2
;HEIGHT:0.2
G1 E-.8 F2100
G1 Z.8 F10800
G1 X110.495 Y91.501
G1 Z.2
G1 E.8 F2100
M204 S1000
;TYPE:Skirt/Brim
;WIDTH:0.42
G1 F1200
G1 X111.488 Y90.508 E.04403
G1 X113.288 Y89.017 E.07329
G1 X114.451 Y88.227 E.04408
G1 X116.491 Y87.106 E.07298
G1 X117.781 Y86.547 E.04408
G1 X119.994 Y85.828 E.07296
G1 X122.437 Y85.352 E.07804
G1 X123.836 Y85.22 E.04406
G1 X126.164 Y85.22 E.07299
G1 X127.563 Y85.352 E.04406
G1 X129.85 Y85.788 E.073
G1 X131.2 Y86.18 E.04408
G1 X133.364 Y87.037 E.07298
G1 X134.616 Y87.675 E.04406
G1 X136.712 Y89.017 E.07803
G1 X138.505 Y90.501 E.07298
G1 X139.499 Y91.495 E.04408
G1 X140.983 Y93.288 E.07298
G1 X142.324 Y95.383 E.07799
G1 X142.963 Y96.636 E.0441
G1 X143.819 Y98.798 E.07291
G1 X144.212 Y100.15 E.04415
G1 X144.648 Y102.435 E.07294
G1 X144.78 Y103.836 E.04412
G1 X144.78 Y106.164 E.07299
G1 X144.648 Y107.563 E.04406
G1 X144.212 Y109.85 E.073
G1 X143.82 Y111.2 E.04408
G1 X142.963 Y113.364 E.07298
G1 X142.329 Y114.607 E.04375
G1 X141.078 Y116.581 E.07328
G1 X140.216 Y117.692 E.04409
G1 X138.505 Y119.499 E.07803
G1 X136.712 Y120.983 E.07298
G1 X135.549 Y121.773 E.04408
G1 X133.364 Y122.963 E.07801
G1 X131.2 Y123.82 E.07298
G1 X129.85 Y124.212 E.04408
G1 X127.563 Y124.648 E.073
G1 X126.164 Y124.78 E.04406
G1 X123.836 Y124.78 E.07299
G1 X122.437 Y124.648 E.04406
G1 X119.994 Y124.172 E.07804
G1 X117.781 Y123.453 E.07296
G1 X116.491 Y122.894 E.04408
G1 X114.451 Y121.773 E.07298
G1 X113.288 Y120.983 E.04408
G1 X111.495 Y119.499 E.07298
G1 X110.501 Y118.505 E.04408
G1 X109.017 Y116.712 E.07298
G1 X107.68 Y114.624 E.07774
G1 X107.038 Y113.365 E.04431
G1 X106.181 Y111.201 E.07298
G1 X105.789 Y109.851 E.04408
G1 X105.352 Y107.565 E.07297
G1 X105.22 Y106.165 E.04409
G1 X105.22 Y103.838 E.07296
G1 X105.352 Y102.438 E.04409
G1 X105.786 Y100.159 E.07274
G1 X106.179 Y98.806 E.04418
G1 X107.037 Y96.636 E.07316
G1 X108.222 Y94.459 E.07772
G1 X109.016 Y93.29 E.04431
G1 X110.457 Y91.548 E.07088
G1 X110.457 Y91.548 F10800
G1 X110.747 Y91.788
G1 F1200
G1 X110.778 Y91.751 E.00151
G1 X111.737 Y90.791 E.04255
G1 X113.519 Y89.315 E.07255
G1 X114.643 Y88.552 E.0426
G1 X116.662 Y87.442 E.07224
G1 X117.909 Y86.902 E.04261
G1 X120.1 Y86.19 E.07223
G1 X122.496 Y85.724 E.07653
G1 X123.848 Y85.597 E.04258
G1 X126.152 Y85.597 E.07224
G1 X127.504 Y85.724 E.04258
G1 X129.767 Y86.156 E.07224
G1 X131.072 Y86.535 E.04261
G1 X133.214 Y87.383 E.07223
G1 X134.424 Y88 E.04259
G1 X136.481 Y89.315 E.07655
G1 X138.256 Y90.784 E.07224
G1 X139.216 Y91.744 E.04257
G1 X140.685 Y93.519 E.07224
G1 X142 Y95.575 E.07652
G1 X142.617 Y96.786 E.04261
G1 X143.464 Y98.926 E.07216
G1 X143.844 Y100.233 E.04268
G1 X144.275 Y102.494 E.07217
G1 X144.403 Y103.848 E.04264
G1 X144.403 Y106.152 E.07224
G1 X144.276 Y107.504 E.04258
G1 X143.844 Y109.767 E.07224
G1 X143.465 Y111.072 E.04261
G1 X142.617 Y113.214 E.07223
G1 X142.005 Y114.416 E.04229
G1 X140.766 Y116.369 E.07252
G1 X139.933 Y117.443 E.04262
G1 X138.256 Y119.216 E.07652
G1 X136.481 Y120.685 E.07224
G1 X134.424 Y122 E.07655
G1 X133.214 Y122.617 E.04259
G1 X131.072 Y123.465 E.07223
G1 X129.767 Y123.844 E.04261
G1 X127.504 Y124.276 E.07224
G1 X126.152 Y124.403 E.04258
G1 X123.848 Y124.403 E.07224
G1 X122.496 Y124.276 E.04258
G1 X120.233 Y123.844 E.07224
G1 X118.928 Y123.465 E.04261
G1 X116.786 Y122.617 E.07223
G1 X115.576 Y122 E.04259
G1 X113.631 Y120.766 E.07222
G1 X112.557 Y119.933 E.04262
G1 X110.784 Y118.256 E.07652
G1 X109.315 Y116.481 E.07224
G1 X108.005 Y114.432 E.07625
G1 X107.384 Y113.215 E.04284
G1 X106.536 Y111.073 E.07223
G1 X106.157 Y109.769 E.04258
G1 X105.725 Y107.506 E.07224
G1 X105.597 Y106.153 E.04261
G1 X105.597 Y103.849 E.07224
G1 X105.724 Y102.497 E.04258
G1 X106.154 Y100.241 E.07201
G1 X106.534 Y98.933 E.04271
G1 X107.383 Y96.786 E.07239
G1 X108.547 Y94.651 E.07624
G1 X109.314 Y93.521 E.04282
G1 X110.709 Y91.834 E.06864
;WIPE_START
G1 F8640
G1 X110.747 Y91.788 E-.01378
G1 X110.778 Y91.751 E-.01115
G1 X111.737 Y90.791 E-.31332
G1 X113.277 Y89.516 E-.46175
;WIPE_END
G1 Z.8 F10800
G1 X113.24 Y94.066
G1 Z.2
G1 E.8 F2100
;TYPE:External perimeter
;WIDTH:0.419999
G1 F1200
G1 X113.293 Y94.006 E.00251
G1 X114.002 Y93.297 E.03144
G1 X114.758 Y92.629 E.03163
G1 X115.555 Y92.011 E.03162
G1 X116.39 Y91.443 E.03166
G1 X117.258 Y90.929 E.03163
G1 X118.157 Y90.471 E.03163
G1 X119.077 Y90.072 E.03144
G1 X120.032 Y89.728 E.03183
G1 X121 Y89.446 E.03161
G1 X121.985 Y89.226 E.03164
G1 X122.981 Y89.067 E.03162
G1 X123.986 Y88.972 E.03165
G1 X125 Y88.94 E.03181
G1 X126.003 Y88.971 E.03146
G1 X127.007 Y89.066 E.03162
G1 X128.004 Y89.223 E.03165
G1 X128.988 Y89.443 E.03161
G1 X129.957 Y89.724 E.03163
G1 X130.907 Y90.066 E.03166
G1 X131.833 Y90.466 E.03163
G1 X132.732 Y90.924 E.03163
G1 X133.6 Y91.437 E.03161
G1 X134.435 Y92.004 E.03165
G1 X135.232 Y92.622 E.03162
G1 X135.989 Y93.289 E.03163
G1 X136.703 Y94.002 E.03164
G1 X137.371 Y94.758 E.03163
G1 X137.989 Y95.555 E.03162
G1 X138.557 Y96.39 E.03166
G1 X139.071 Y97.258 E.03163
G1 X139.529 Y98.157 E.03163
G1 X139.93 Y99.082 E.03161
G1 X140.272 Y100.032 E.03166
G1 X140.554 Y101 E.03161
G1 X140.774 Y101.985 E.03164
G1 X140.933 Y102.981 E.03162
G1 X141.028 Y103.986 E.03165
G1 X141.06 Y104.994 E.03162
G1 X141.029 Y106.003 E.03165
G1 X140.934 Y107.007 E.03162
G1 X140.777 Y108.004 E.03165
G1 X140.557 Y108.988 E.03161
G1 X140.276 Y109.957 E.03163
G1 X139.934 Y110.907 E.03166
G1 X139.534 Y111.833 E.03163
G1 X139.076 Y112.732 E.03163
G1 X138.563 Y113.6 E.03161
G1 X137.996 Y114.435 E.03165
G1 X137.378 Y115.232 E.03162
G1 X136.711 Y115.989 E.03163
G1 X135.998 Y116.703 E.03164
G1 X135.242 Y117.371 E.03163
G1 X134.445 Y117.989 E.03162
G1 X133.61 Y118.557 E.03166
G1 X132.742 Y119.071 E.03163
G1 X131.843 Y119.529 E.03163
G1 X130.918 Y119.93 E.03161
G1 X129.968 Y120.272 E.03166
G1 X129 Y120.554 E.03161
G1 X128.015 Y120.774 E.03164
G1 X127.019 Y120.933 E.03162
G1 X126.014 Y121.028 E.03165
G1 X125.006 Y121.06 E.03162
G1 X123.997 Y121.029 E.03165
G1 X122.993 Y120.934 E.03162
G1 X121.996 Y120.777 E.03165
G1 X121.012 Y120.557 E.03161
G1 X120.043 Y120.276 E.03163
G1 X119.093 Y119.934 E.03166
G1 X118.167 Y119.534 E.03163
G1 X117.268 Y119.076 E.03163
G1 X116.4 Y118.563 E.03161
G1 X115.565 Y117.996 E.03165
G1 X114.768 Y117.378 E.03162
G1 X114.011 Y116.711 E.03163
G1 X113.297 Y115.998 E.03164
G1 X112.629 Y115.242 E.03163
G1 X112.011 Y114.445 E.03162
G1 X111.443 Y113.61 E.03166
G1 X110.929 Y112.742 E.03163
G1 X110.471 Y111.843 E.03163
G1 X110.07 Y110.918 E.03161
G1 X109.728 Y109.968 E.03166
G1 X109.446 Y109 E.03161
G1 X109.226 Y108.015 E.03164
G1 X109.067 Y107.019 E.03162
G1 X108.972 Y106.014 E.03165
G1 X108.94 Y105.006 E.03162
G1 X108.972 Y103.992 E.03181
G1 X109.066 Y102.993 E.03146
G1 X109.223 Y101.996 E.03165
G1 X109.445 Y101.006 E.03181
G1 X109.724 Y100.043 E.03144
G1 X110.066 Y99.093 E.03166
G1 X110.466 Y98.167 E.03163
G1 X110.924 Y97.268 E.03163
G1 X111.437 Y96.4 E.03161
G1 X112.004 Y95.565 E.03165
G1 X112.622 Y94.768 E.03162
G1 X113.2 Y94.111 E.02744
G1 X113.2 Y94.111 F10800
G1 X112.871 Y93.821
;TYPE:Perimeter
;WIDTH:0.545452
G1 F1200
G1 X112.99 Y93.687 E.00749
;WIDTH:0.545104
G1 X113.72 Y92.959 E.04305
G1 X114.498 Y92.274 E.04328
G1 X115.318 Y91.64 E.04328
G1 X116.176 Y91.059 E.04327
G1 X117.069 Y90.532 E.0433
G1 X117.993 Y90.063 E.04327
;WIDTH:0.545456
G1 X118.939 Y89.654 E.04307
G1 X119.882 Y89.314 E.04189
;WIDTH:0.545102
G1 X120.916 Y89.014 E.04496
G1 X121.928 Y88.789 E.04329
G1 X122.952 Y88.628 E.04328
G1 X123.984 Y88.532 E.04328
;WIDTH:0.545458
G1 X125.014 Y88.501 E.04306
G1 X126.016 Y88.532 E.04189
;WIDTH:0.5451
G1 X127.088 Y88.633 E.04496
G1 X128.111 Y88.797 E.04326
G1 X129.122 Y89.024 E.04327
G1 X130.117 Y89.314 E.04328
G1 X131.092 Y89.667 E.0433
G1 X132.043 Y90.079 E.04328
G1 X132.966 Y90.551 E.04329
G1 X133.857 Y91.08 E.04327
G1 X134.714 Y91.663 E.04328
G1 X135.532 Y92.3 E.04329
G1 X136.309 Y92.986 E.04328
G1 X137.041 Y93.72 E.04329
G1 X137.726 Y94.498 E.04328
G1 X138.36 Y95.318 E.04328
G1 X138.941 Y96.176 E.04327
G1 X139.468 Y97.069 E.0433
G1 X139.937 Y97.993 E.04327
G1 X140.348 Y98.945 E.0433
G1 X140.698 Y99.92 E.04326
G1 X140.986 Y100.916 E.04329
G1 X141.211 Y101.928 E.04329
G1 X141.372 Y102.952 E.04328
G1 X141.468 Y103.984 E.04328
;WIDTH:0.545412
G1 X141.5 Y105 E.04247
G1 X141.499 Y105.02 E.00084
;WIDTH:0.545102
G1 X141.466 Y106.056 E.04328
G1 X141.367 Y107.087 E.04325
G1 X141.203 Y108.111 E.0433
G1 X140.976 Y109.122 E.04327
G1 X140.686 Y110.117 E.04328
G1 X140.333 Y111.092 E.0433
G1 X139.921 Y112.043 E.04328
G1 X139.449 Y112.966 E.04329
G1 X138.92 Y113.857 E.04327
G1 X138.337 Y114.714 E.04328
G1 X137.7 Y115.532 E.04329
G1 X137.014 Y116.309 E.04328
G1 X136.28 Y117.041 E.04329
G1 X135.502 Y117.726 E.04328
G1 X134.682 Y118.36 E.04328
G1 X133.824 Y118.941 E.04327
G1 X132.931 Y119.468 E.0433
G1 X132.007 Y119.937 E.04327
G1 X131.055 Y120.348 E.0433
G1 X130.08 Y120.698 E.04326
G1 X129.084 Y120.986 E.04329
G1 X128.072 Y121.211 E.04329
G1 X127.048 Y121.372 E.04328
G1 X126.016 Y121.468 E.04328
G1 X124.98 Y121.499 E.04328
G1 X123.944 Y121.466 E.04328
M73 P0 R89
G1 X122.913 Y121.367 E.04325
G1 X121.889 Y121.203 E.0433
G1 X120.878 Y120.976 E.04327
G1 X119.883 Y120.686 E.04328
G1 X118.908 Y120.333 E.0433
G1 X117.957 Y119.921 E.04328
G1 X117.034 Y119.449 E.04329
G1 X116.143 Y118.92 E.04327
G1 X115.286 Y118.337 E.04328
G1 X114.468 Y117.7 E.04329
G1 X113.691 Y117.014 E.04328
G1 X112.959 Y116.28 E.04329
G1 X112.274 Y115.502 E.04328
G1 X111.64 Y114.682 E.04328
G1 X111.059 Y113.824 E.04327
G1 X110.532 Y112.931 E.0433
G1 X110.063 Y112.007 E.04327
G1 X109.652 Y111.055 E.0433
G1 X109.302 Y110.08 E.04326
G1 X109.014 Y109.084 E.04329
G1 X108.789 Y108.072 E.04329
G1 X108.628 Y107.048 E.04328
G1 X108.532 Y106.016 E.04328
G1 X108.501 Y104.98 E.04328
;WIDTH:0.545458
G1 X108.535 Y103.939 E.04352
;WIDTH:0.545104
G1 X108.633 Y102.912 E.04308
G1 X108.797 Y101.889 E.04326
;WIDTH:0.545452
G1 X109.025 Y100.872 E.04355
;WIDTH:0.545106
G1 X109.314 Y99.883 E.04302
G1 X109.667 Y98.908 E.0433
G1 X110.079 Y97.957 E.04328
G1 X110.551 Y97.034 E.04329
G1 X111.08 Y96.143 E.04327
G1 X111.663 Y95.286 E.04328
G1 X112.3 Y94.468 E.04329
;WIDTH:0.545452
G1 X112.832 Y93.866 E.03357
G1 X112.832 Y93.866 F10800
G1 X112.501 Y93.575
;TYPE:External perimeter
;WIDTH:0.419999
G1 F1200
G1 X112.651 Y93.404 E.00713
G1 X113.403 Y92.652 E.03334
G1 X114.202 Y91.948 E.03339
G1 X115.043 Y91.295 E.03338
G1 X115.923 Y90.697 E.03336
G1 X116.839 Y90.156 E.03336
G1 X117.787 Y89.672 E.03337
G1 X118.764 Y89.25 E.03337
G1 X119.765 Y88.889 E.03336
G1 X120.787 Y88.592 E.03337
G1 X121.826 Y88.36 E.03338
G1 X122.877 Y88.194 E.03336
G1 X123.936 Y88.094 E.03335
G1 X125.001 Y88.06 E.03341
G1 X126.097 Y88.097 E.03438
G1 X127.156 Y88.199 E.03336
G1 X128.207 Y88.368 E.03338
G1 X129.245 Y88.602 E.03336
G1 X130.266 Y88.901 E.03336
G1 X131.267 Y89.263 E.03337
G1 X132.243 Y89.688 E.03338
G1 X133.19 Y90.173 E.03336
G1 X134.105 Y90.716 E.03336
G1 X134.984 Y91.316 E.03337
G1 X135.823 Y91.97 E.03335
G1 X136.62 Y92.675 E.03336
G1 X137.371 Y93.429 E.03337
G1 X138.073 Y94.229 E.03337
G1 X138.723 Y95.071 E.03335
G1 X139.32 Y95.952 E.03337
G1 X139.86 Y96.869 E.03337
G1 X140.341 Y97.818 E.03336
G1 X140.762 Y98.796 E.03338
G1 X141.12 Y99.798 E.03336
G1 X141.415 Y100.82 E.03335
G1 X141.645 Y101.859 E.03337
G1 X141.809 Y102.91 E.03335
G1 X141.907 Y103.97 E.03338
G1 X141.939 Y105.014 E.03275
G1 X141.906 Y106.064 E.03294
G1 X141.806 Y107.122 E.03332
G1 X141.64 Y108.174 E.03339
G1 X141.408 Y109.213 E.03338
G1 X141.111 Y110.235 E.03337
G1 X140.75 Y111.236 E.03336
G1 X140.328 Y112.213 E.03337
G1 X139.844 Y113.161 E.03337
G1 X139.303 Y114.077 E.03336
G1 X138.705 Y114.957 E.03336
G1 X138.052 Y115.798 E.03338
G1 X137.349 Y116.596 E.03334
G1 X136.596 Y117.349 E.03339
G1 X135.798 Y118.052 E.03334
M73 Q0 S89
G1 X134.957 Y118.705 E.03338
G1 X134.077 Y119.303 E.03336
G1 X133.161 Y119.844 E.03336
G1 X132.213 Y120.328 E.03337
G1 X131.236 Y120.75 E.03337
G1 X130.235 Y121.111 E.03336
G1 X129.213 Y121.408 E.03337
G1 X128.174 Y121.64 E.03338
G1 X127.123 Y121.806 E.03336
G1 X126.064 Y121.906 E.03335
G1 X125 Y121.94 E.03338
G1 X123.936 Y121.906 E.03338
G1 X122.877 Y121.806 E.03335
G1 X121.826 Y121.64 E.03336
G1 X120.787 Y121.408 E.03338
G1 X119.765 Y121.111 E.03337
G1 X118.764 Y120.75 E.03336
G1 X117.787 Y120.328 E.03337
G1 X116.839 Y119.844 E.03337
G1 X115.923 Y119.303 E.03336
G1 X115.043 Y118.705 E.03336
G1 X114.202 Y118.052 E.03338
G1 X113.404 Y117.349 E.03334
G1 X112.651 Y116.596 E.03339
G1 X111.949 Y115.799 E.0333
G1 X111.295 Y114.957 E.03343
G1 X110.697 Y114.077 E.03336
G1 X110.156 Y113.162 E.03333
G1 X109.672 Y112.213 E.0334
G1 X109.25 Y111.236 E.03337
G1 X108.89 Y110.236 E.03332
G1 X108.592 Y109.213 E.03341
G1 X108.36 Y108.174 E.03338
G1 X108.194 Y107.123 E.03336
G1 X108.094 Y106.064 E.03335
G1 X108.06 Y105 E.03338
G1 X108.094 Y103.936 E.03338
G1 X108.194 Y102.878 E.03332
G1 X108.36 Y101.826 E.03339
G1 X108.592 Y100.787 E.03338
G1 X108.889 Y99.765 E.03337
G1 X109.25 Y98.764 E.03336
G1 X109.672 Y97.787 E.03337
G1 X110.156 Y96.839 E.03337
G1 X110.697 Y95.923 E.03336
G1 X111.295 Y95.043 E.03336
G1 X111.948 Y94.202 E.03338
G1 X112.461 Y93.62 E.02433
M106 S255
;LAYER_CHANGE
;Z:0.5
;HEIGHT:0.3
;BEFORE_LAYER_CHANGE
G92 E0.0
;0.5


;WIPE_START
G1 F8640
G1 X112.501 Y93.575 E-.0139
G1 X112.651 Y93.404 E-.05252
G1 X113.403 Y92.652 E-.24556
G1 X114.202 Y91.948 E-.24589
G1 X115.03 Y91.305 E-.24213
;WIPE_END
G1 Z.5 F10800
;AFTER_LAYER_CHANGE
;0.5
M104 S205 ; set temperature
G1 Z1.1
G1 X113.416 Y88.93
G1 Z.5
G1 E.8 F2100
;TYPE:Skirt/Brim
;WIDTH:0.42
G1 F2665
G1 X114.451 Y88.227 E.0555
G1 X116.491 Y87.106 E.10325
G1 X117.781 Y86.547 E.06236
G1 X119.994 Y85.828 E.10321
G1 X122.437 Y85.352 E.1104
G1 X123.836 Y85.22 E.06233
G1 X126.164 Y85.22 E.10326
G1 X127.563 Y85.352 E.06233
G1 X129.85 Y85.788 E.10327
G1 X131.2 Y86.18 E.06235
G1 X133.364 Y87.037 E.10324
G1 X134.616 Y87.675 E.06233
G1 X136.712 Y89.017 E.11039
G1 X138.505 Y90.501 E.10323
G1 X139.499 Y91.495 E.06235
G1 X140.983 Y93.288 E.10323
G1 X142.324 Y95.383 E.11033
G1 X142.963 Y96.636 E.06239
G1 X143.819 Y98.798 E.10314
G1 X144.212 Y100.15 E.06245
G1 X144.648 Y102.435 E.10318
G1 X144.78 Y103.836 E.06242
G1 X144.78 Y106.164 E.10326
G1 X144.648 Y107.563 E.06233
G1 X144.212 Y109.85 E.10327
G1 X143.82 Y111.2 E.06235
G1 X142.963 Y113.364 E.10324
G1 X142.329 Y114.607 E.06189
G1 X141.078 Y116.581 E.10366
G1 X140.216 Y117.692 E.06237
G1 X138.505 Y119.499 E.11038
G1 X136.712 Y120.983 E.10323
G1 X135.549 Y121.773 E.06236
G1 X133.364 Y122.963 E.11036
G1 X131.2 Y123.82 E.10324
G1 X129.85 Y124.212 E.06235
G1 X127.563 Y124.648 E.10327
G1 X126.164 Y124.78 E.06233
G1 X123.836 Y124.78 E.10326
G1 X122.437 Y124.648 E.06233
G1 X119.994 Y124.172 E.1104
G1 X117.781 Y123.453 E.10321
G1 X116.491 Y122.894 E.06236
G1 X114.451 Y121.773 E.10325
G1 X113.288 Y120.983 E.06236
G1 X111.495 Y119.499 E.10323
G1 X110.501 Y118.505 E.06235
G1 X109.017 Y116.712 E.10323
G1 X107.68 Y114.624 E.10997
G1 X107.038 Y113.365 E.06268
G1 X106.181 Y111.201 E.10324
G1 X105.789 Y109.851 E.06235
G1 X105.352 Y107.565 E.10323
